
;Exported by FreeCAD
;Post Processor: centroid_post
;CAM file: /home/mario/Documentos/rutinasCNC_octave/RutinasC++/EnviarComandos/freeCad/prueba1.FCStd
;Output Time: 2021-03-25 10:42:59.784604
G90 G80 G40 G49
;T1=Default_Tool
;begin preamble
G53 G00 G17
G20
;begin operation
;Default Tool
M6 T1
M3 S0
;end operation: Default Tool
;begin operation
;Contour
;Compensated Tool Path. Diameter: 0.7
G0 Z3.0000
G0
G0 Z0.0000
G1 X0.0000 Y-0.3500 Z0.0000
G2 X-0.3500 Y0.0000 Z0.0000 I0.0000 J0.3500
G1 X-0.3500 Y36.8016 Z0.0000
G2 X0.0000 Y37.1516 Z0.0000 I0.3500 J-0.0000
G1 X19.5940 Y37.1516 Z0.0000
G2 X19.5993 Y46.4991 Z0.0000 I14.4993 J4.6656
G2 X48.8312 Y37.1516 Z0.0000 I14.6103 J-4.6915
G1 X68.4252 Y37.1516 Z0.0000
G2 X68.7752 Y36.8016 Z0.0000 I-0.0000 J-0.3500
G1 X68.7752 Y0.0000 Z0.0000
G2 X68.4252 Y-0.3500 Z0.0000 I-0.3500 J0.0000
G1 X48.3548 Y-0.3500 Z0.0000
G2 X48.0208 Y0.1046 Z0.0000 I0.0000 J0.3500
G3 X47.7941 Y10.4918 Z0.0000 I-13.8117 J4.8946
G3 X20.4044 Y0.1049 Z0.0000 I-13.5816 J-5.4921
G2 X20.0705 Y-0.3500 Z0.0000 I-0.3339 J-0.1049
G1 X0.0000 Y-0.3500 Z0.0000
G0 Z3.0000
;end operation: Contour
;begin postamble
M5 M25
G49 H0
G90 G80 G40 G49
M99
