(Exported by FreeCAD)
(Post Processor: linuxcnc_post)
(Output Time:2020-04-28 11:54:09.565399)
(begin preamble)
G17 G54 G40 G49 G80 G90
G21
(begin operation: Default Tool)
(machine: not set, mm/min)
(Default Tool)
M6 T1
M3 S0
(finish operation: Default Tool)
(begin operation: MillFace)
(machine: not set, mm/min)
(MillFace)
G1 X1.250 Y0.750 Z-1.000
G1 X1.250 Y429.250 Z-1.000
G1 X0.750 Y429.250 Z-1.000
G1 X0.750 Y0.750 Z-1.000
G1 X1.250 Y0.750 Z-1.000
G1 X2.150 Y0.750 Z-1.000
G1 X2.150 Y429.250 Z-1.000
G1 X3.050 Y429.250 Z-1.000
G1 X3.050 Y0.750 Z-1.000
G1 X3.950 Y0.750 Z-1.000
G1 X3.950 Y429.250 Z-1.000
G1 X4.850 Y429.250 Z-1.000
G1 X4.850 Y0.750 Z-1.000
G1 X5.750 Y0.750 Z-1.000
G1 X5.750 Y429.250 Z-1.000
G1 X6.650 Y429.250 Z-1.000
G1 X6.650 Y0.750 Z-1.000
G1 X7.550 Y0.750 Z-1.000
G1 X7.550 Y429.250 Z-1.000
G1 X8.450 Y429.250 Z-1.000
G1 X8.450 Y0.750 Z-1.000
G1 X9.350 Y0.750 Z-1.000
G1 X9.350 Y429.250 Z-1.000
G1 X10.250 Y429.250 Z-1.000
G1 X10.250 Y0.750 Z-1.000
G1 X11.150 Y0.750 Z-1.000
G1 X11.150 Y429.250 Z-1.000
G1 X12.050 Y429.250 Z-1.000
G1 X12.050 Y0.750 Z-1.000
G1 X12.950 Y0.750 Z-1.000
G1 X12.950 Y429.250 Z-1.000
G1 X13.850 Y429.250 Z-1.000
G1 X13.850 Y0.750 Z-1.000
G1 X14.750 Y0.750 Z-1.000
G1 X14.750 Y429.250 Z-1.000
G1 X15.650 Y429.250 Z-1.000
G1 X15.650 Y0.750 Z-1.000
G1 X16.550 Y0.750 Z-1.000
G1 X16.550 Y429.250 Z-1.000
G1 X17.450 Y429.250 Z-1.000
G1 X17.450 Y0.750 Z-1.000
G1 X18.350 Y0.750 Z-1.000
G1 X18.350 Y429.250 Z-1.000
G1 X19.250 Y429.250 Z-1.000
G1 X19.250 Y0.750 Z-1.000
G1 X20.150 Y0.750 Z-1.000
G1 X20.150 Y429.250 Z-1.000
G1 X21.050 Y429.250 Z-1.000
G1 X21.050 Y0.750 Z-1.000
G1 X21.950 Y0.750 Z-1.000
G1 X21.950 Y429.250 Z-1.000
G1 X22.850 Y429.250 Z-1.000
G1 X22.850 Y0.750 Z-1.000
G1 X23.750 Y0.750 Z-1.000
G1 X23.750 Y429.250 Z-1.000
G1 X24.650 Y429.250 Z-1.000
G1 X24.650 Y0.750 Z-1.000
G1 X25.550 Y0.750 Z-1.000
G1 X25.550 Y429.250 Z-1.000
G1 X26.450 Y429.250 Z-1.000
G1 X26.450 Y0.750 Z-1.000
G1 X27.350 Y0.750 Z-1.000
G1 X27.350 Y429.250 Z-1.000
G1 X28.250 Y429.250 Z-1.000
G1 X28.250 Y0.750 Z-1.000
G1 X29.150 Y0.750 Z-1.000
G1 X29.150 Y429.250 Z-1.000
G1 X30.050 Y429.250 Z-1.000
G1 X30.050 Y0.750 Z-1.000
G1 X30.950 Y0.750 Z-1.000
G1 X30.950 Y429.250 Z-1.000
G1 X31.850 Y429.250 Z-1.000
G1 X31.850 Y0.750 Z-1.000
G1 X32.750 Y0.750 Z-1.000
G1 X32.750 Y429.250 Z-1.000
G1 X33.650 Y429.250 Z-1.000
G1 X33.650 Y0.750 Z-1.000
G1 X34.550 Y0.750 Z-1.000
G1 X34.550 Y429.250 Z-1.000
G1 X35.450 Y429.250 Z-1.000
G1 X35.450 Y0.750 Z-1.000
G1 X36.350 Y0.750 Z-1.000
G1 X36.350 Y429.250 Z-1.000
G1 X37.250 Y429.250 Z-1.000
G1 X37.250 Y0.750 Z-1.000
G1 X38.150 Y0.750 Z-1.000
G1 X38.150 Y429.250 Z-1.000
G1 X39.050 Y429.250 Z-1.000
G1 X39.050 Y0.750 Z-1.000
G1 X39.950 Y0.750 Z-1.000
G1 X39.950 Y429.250 Z-1.000
G1 X40.850 Y429.250 Z-1.000
G1 X40.850 Y0.750 Z-1.000
G1 X41.750 Y0.750 Z-1.000
G1 X41.750 Y429.250 Z-1.000
G1 X42.650 Y429.250 Z-1.000
G1 X42.650 Y0.750 Z-1.000
G1 X43.550 Y0.750 Z-1.000
G1 X43.550 Y429.250 Z-1.000
G1 X44.450 Y429.250 Z-1.000
G1 X44.450 Y0.750 Z-1.000
G1 X45.350 Y0.750 Z-1.000
G1 X45.350 Y429.250 Z-1.000
G1 X46.250 Y429.250 Z-1.000
G1 X46.250 Y0.750 Z-1.000
G1 X47.150 Y0.750 Z-1.000
G1 X47.150 Y429.250 Z-1.000
G1 X48.050 Y429.250 Z-1.000
G1 X48.050 Y0.750 Z-1.000
G1 X48.950 Y0.750 Z-1.000
G1 X48.950 Y429.250 Z-1.000
G1 X49.850 Y429.250 Z-1.000
G1 X49.850 Y0.750 Z-1.000
G1 X50.750 Y0.750 Z-1.000
G1 X50.750 Y429.250 Z-1.000
G1 X51.650 Y429.250 Z-1.000
G1 X51.650 Y0.750 Z-1.000
G1 X52.550 Y0.750 Z-1.000
G1 X52.550 Y429.250 Z-1.000
G1 X53.450 Y429.250 Z-1.000
G1 X53.450 Y0.750 Z-1.000
G1 X54.350 Y0.750 Z-1.000
G1 X54.350 Y429.250 Z-1.000
G1 X55.250 Y429.250 Z-1.000
G1 X55.250 Y0.750 Z-1.000
G1 X56.150 Y0.750 Z-1.000
G1 X56.150 Y429.250 Z-1.000
G1 X57.050 Y429.250 Z-1.000
G1 X57.050 Y0.750 Z-1.000
G1 X57.950 Y0.750 Z-1.000
G1 X57.950 Y429.250 Z-1.000
G1 X58.850 Y429.250 Z-1.000
G1 X58.850 Y0.750 Z-1.000
G1 X59.750 Y0.750 Z-1.000
G1 X59.750 Y429.250 Z-1.000
G1 X60.650 Y429.250 Z-1.000
G1 X60.650 Y0.750 Z-1.000
G1 X61.550 Y0.750 Z-1.000
G1 X61.550 Y429.250 Z-1.000
G1 X62.450 Y429.250 Z-1.000
G1 X62.450 Y0.750 Z-1.000
G1 X63.350 Y0.750 Z-1.000
G1 X63.350 Y429.250 Z-1.000
G1 X64.250 Y429.250 Z-1.000
G1 X64.250 Y0.750 Z-1.000
G1 X65.150 Y0.750 Z-1.000
G1 X65.150 Y429.250 Z-1.000
G1 X66.050 Y429.250 Z-1.000
G1 X66.050 Y0.750 Z-1.000
G1 X66.950 Y0.750 Z-1.000
G1 X66.950 Y429.250 Z-1.000
G1 X67.850 Y429.250 Z-1.000
G1 X67.850 Y0.750 Z-1.000
G1 X68.750 Y0.750 Z-1.000
G1 X68.750 Y429.250 Z-1.000
G1 X69.650 Y429.250 Z-1.000
G1 X69.650 Y0.750 Z-1.000
G1 X70.550 Y0.750 Z-1.000
G1 X70.550 Y429.250 Z-1.000
G1 X71.450 Y429.250 Z-1.000
G1 X71.450 Y0.750 Z-1.000
G1 X72.350 Y0.750 Z-1.000
G1 X72.350 Y429.250 Z-1.000
G1 X73.250 Y429.250 Z-1.000
G1 X73.250 Y0.750 Z-1.000
G1 X74.150 Y0.750 Z-1.000
G1 X74.150 Y429.250 Z-1.000
G1 X75.050 Y429.250 Z-1.000
G1 X75.050 Y0.750 Z-1.000
G1 X75.950 Y0.750 Z-1.000
G1 X75.950 Y429.250 Z-1.000
G1 X76.850 Y429.250 Z-1.000
G1 X76.850 Y0.750 Z-1.000
G1 X77.750 Y0.750 Z-1.000
G1 X77.750 Y429.250 Z-1.000
G1 X78.650 Y429.250 Z-1.000
G1 X78.650 Y0.750 Z-1.000
G1 X79.550 Y0.750 Z-1.000
G1 X79.550 Y429.250 Z-1.000
G1 X80.450 Y429.250 Z-1.000
G1 X80.450 Y0.750 Z-1.000
G1 X81.350 Y0.750 Z-1.000
G1 X81.350 Y429.250 Z-1.000
G1 X82.250 Y429.250 Z-1.000
G1 X82.250 Y0.750 Z-1.000
G1 X83.150 Y0.750 Z-1.000
G1 X83.150 Y429.250 Z-1.000
G1 X84.050 Y429.250 Z-1.000
G1 X84.050 Y0.750 Z-1.000
G1 X84.950 Y0.750 Z-1.000
G1 X84.950 Y429.250 Z-1.000
G1 X85.850 Y429.250 Z-1.000
G1 X85.850 Y0.750 Z-1.000
G1 X86.750 Y0.750 Z-1.000
G1 X86.750 Y429.250 Z-1.000
G1 X87.650 Y429.250 Z-1.000
G1 X87.650 Y0.750 Z-1.000
G1 X88.550 Y0.750 Z-1.000
G1 X88.550 Y429.250 Z-1.000
G1 X89.450 Y429.250 Z-1.000
G1 X89.450 Y0.750 Z-1.000
G1 X90.350 Y0.750 Z-1.000
G1 X90.350 Y429.250 Z-1.000
G1 X91.250 Y429.250 Z-1.000
G1 X91.250 Y0.750 Z-1.000
G1 X92.150 Y0.750 Z-1.000
G1 X92.150 Y429.250 Z-1.000
G1 X93.050 Y429.250 Z-1.000
G1 X93.050 Y0.750 Z-1.000
G1 X93.950 Y0.750 Z-1.000
G1 X93.950 Y429.250 Z-1.000
G1 X94.850 Y429.250 Z-1.000
G1 X94.850 Y0.750 Z-1.000
G1 X95.750 Y0.750 Z-1.000
G1 X95.750 Y429.250 Z-1.000
G1 X96.650 Y429.250 Z-1.000
G1 X96.650 Y0.750 Z-1.000
G1 X97.550 Y0.750 Z-1.000
G1 X97.550 Y429.250 Z-1.000
G1 X98.450 Y429.250 Z-1.000
G1 X98.450 Y0.750 Z-1.000
G1 X99.350 Y0.750 Z-1.000
G1 X99.350 Y429.250 Z-1.000
G1 X100.250 Y429.250 Z-1.000
G1 X100.250 Y0.750 Z-1.000
G1 X101.150 Y0.750 Z-1.000
G1 X101.150 Y429.250 Z-1.000
G1 X102.050 Y429.250 Z-1.000
G1 X102.050 Y0.750 Z-1.000
G1 X102.950 Y0.750 Z-1.000
G1 X102.950 Y429.250 Z-1.000
G1 X103.850 Y429.250 Z-1.000
G1 X103.850 Y0.750 Z-1.000
G1 X104.750 Y0.750 Z-1.000
G1 X104.750 Y429.250 Z-1.000
G1 X105.650 Y429.250 Z-1.000
G1 X105.650 Y0.750 Z-1.000
G1 X106.550 Y0.750 Z-1.000
G1 X106.550 Y429.250 Z-1.000
G1 X107.450 Y429.250 Z-1.000
G1 X107.450 Y0.750 Z-1.000
G1 X108.350 Y0.750 Z-1.000
G1 X108.350 Y429.250 Z-1.000
G1 X109.250 Y429.250 Z-1.000
G1 X109.250 Y0.750 Z-1.000
G1 X110.150 Y0.750 Z-1.000
G1 X110.150 Y429.250 Z-1.000
G1 X111.050 Y429.250 Z-1.000
G1 X111.050 Y0.750 Z-1.000
G1 X111.950 Y0.750 Z-1.000
G1 X111.950 Y429.250 Z-1.000
G1 X112.850 Y429.250 Z-1.000
G1 X112.850 Y0.750 Z-1.000
G1 X113.750 Y0.750 Z-1.000
G1 X113.750 Y429.250 Z-1.000
G1 X114.650 Y429.250 Z-1.000
G1 X114.650 Y0.750 Z-1.000
G1 X115.550 Y0.750 Z-1.000
G1 X115.550 Y429.250 Z-1.000
G1 X116.450 Y429.250 Z-1.000
G1 X116.450 Y0.750 Z-1.000
G1 X117.350 Y0.750 Z-1.000
G1 X117.350 Y429.250 Z-1.000
G1 X118.250 Y429.250 Z-1.000
G1 X118.250 Y0.750 Z-1.000
G1 X119.150 Y0.750 Z-1.000
G1 X119.150 Y429.250 Z-1.000
G1 X120.050 Y429.250 Z-1.000
G1 X120.050 Y0.750 Z-1.000
G1 X120.950 Y0.750 Z-1.000
G1 X120.950 Y429.250 Z-1.000
G1 X121.850 Y429.250 Z-1.000
G1 X121.850 Y0.750 Z-1.000
G1 X122.750 Y0.750 Z-1.000
G1 X122.750 Y429.250 Z-1.000
G1 X123.650 Y429.250 Z-1.000
G1 X123.650 Y0.750 Z-1.000
G1 X124.550 Y0.750 Z-1.000
G1 X124.550 Y429.250 Z-1.000
G1 X125.450 Y429.250 Z-1.000
G1 X125.450 Y0.750 Z-1.000
G1 X126.350 Y0.750 Z-1.000
G1 X126.350 Y429.250 Z-1.000
G1 X127.250 Y429.250 Z-1.000
G1 X127.250 Y0.750 Z-1.000
G1 X128.150 Y0.750 Z-1.000
G1 X128.150 Y429.250 Z-1.000
G1 X129.050 Y429.250 Z-1.000
G1 X129.050 Y0.750 Z-1.000
G1 X129.950 Y0.750 Z-1.000
G1 X129.950 Y429.250 Z-1.000
G1 X130.850 Y429.250 Z-1.000
G1 X130.850 Y0.750 Z-1.000
G1 X131.750 Y0.750 Z-1.000
G1 X131.750 Y429.250 Z-1.000
G1 X132.650 Y429.250 Z-1.000
G1 X132.650 Y0.750 Z-1.000
G1 X133.550 Y0.750 Z-1.000
G1 X133.550 Y429.250 Z-1.000
G1 X134.450 Y429.250 Z-1.000
G1 X134.450 Y0.750 Z-1.000
G1 X135.350 Y0.750 Z-1.000
G1 X135.350 Y429.250 Z-1.000
G1 X136.250 Y429.250 Z-1.000
G1 X136.250 Y0.750 Z-1.000
G1 X137.150 Y0.750 Z-1.000
G1 X137.150 Y429.250 Z-1.000
G1 X138.050 Y429.250 Z-1.000
G1 X138.050 Y0.750 Z-1.000
G1 X138.950 Y0.750 Z-1.000
G1 X138.950 Y429.250 Z-1.000
G1 X139.850 Y429.250 Z-1.000
G1 X139.850 Y0.750 Z-1.000
G1 X140.750 Y0.750 Z-1.000
G1 X140.750 Y429.250 Z-1.000
G1 X141.650 Y429.250 Z-1.000
G1 X141.650 Y0.750 Z-1.000
G1 X142.550 Y0.750 Z-1.000
G1 X142.550 Y429.250 Z-1.000
G1 X143.450 Y429.250 Z-1.000
G1 X143.450 Y0.750 Z-1.000
G1 X144.350 Y0.750 Z-1.000
G1 X144.350 Y429.250 Z-1.000
G1 X145.250 Y429.250 Z-1.000
G1 X145.250 Y0.750 Z-1.000
G1 X146.150 Y0.750 Z-1.000
G1 X146.150 Y429.250 Z-1.000
G1 X147.050 Y429.250 Z-1.000
G1 X147.050 Y0.750 Z-1.000
G1 X147.950 Y0.750 Z-1.000
G1 X147.950 Y429.250 Z-1.000
G1 X148.850 Y429.250 Z-1.000
G1 X148.850 Y0.750 Z-1.000
G1 X149.750 Y0.750 Z-1.000
G1 X149.750 Y429.250 Z-1.000
G1 X150.650 Y429.250 Z-1.000
G1 X150.650 Y0.750 Z-1.000
G1 X151.550 Y0.750 Z-1.000
G1 X151.550 Y429.250 Z-1.000
G1 X152.450 Y429.250 Z-1.000
G1 X152.450 Y0.750 Z-1.000
G1 X153.350 Y0.750 Z-1.000
G1 X153.350 Y429.250 Z-1.000
G1 X154.250 Y429.250 Z-1.000
G1 X154.250 Y0.750 Z-1.000
G1 X155.150 Y0.750 Z-1.000
G1 X155.150 Y429.250 Z-1.000
G1 X156.050 Y429.250 Z-1.000
G1 X156.050 Y0.750 Z-1.000
G1 X156.950 Y0.750 Z-1.000
G1 X156.950 Y429.250 Z-1.000
G1 X157.850 Y429.250 Z-1.000
G1 X157.850 Y0.750 Z-1.000
G1 X158.750 Y0.750 Z-1.000
G1 X158.750 Y429.250 Z-1.000
G1 X159.650 Y429.250 Z-1.000
G1 X159.650 Y0.750 Z-1.000
G1 X160.550 Y0.750 Z-1.000
G1 X160.550 Y429.250 Z-1.000
G1 X161.450 Y429.250 Z-1.000
G1 X161.450 Y0.750 Z-1.000
G1 X162.350 Y0.750 Z-1.000
G1 X162.350 Y429.250 Z-1.000
G1 X163.250 Y429.250 Z-1.000
G1 X163.250 Y0.750 Z-1.000
G1 X164.150 Y0.750 Z-1.000
G1 X164.150 Y429.250 Z-1.000
G1 X165.050 Y429.250 Z-1.000
G1 X165.050 Y0.750 Z-1.000
G1 X165.950 Y0.750 Z-1.000
G1 X165.950 Y429.250 Z-1.000
G1 X166.850 Y429.250 Z-1.000
G1 X166.850 Y0.750 Z-1.000
G1 X167.750 Y0.750 Z-1.000
G1 X167.750 Y429.250 Z-1.000
G1 X168.650 Y429.250 Z-1.000
G1 X168.650 Y0.750 Z-1.000
G1 X169.550 Y0.750 Z-1.000
G1 X169.550 Y429.250 Z-1.000
G1 X170.450 Y429.250 Z-1.000
G1 X170.450 Y0.750 Z-1.000
G1 X171.350 Y0.750 Z-1.000
G1 X171.350 Y429.250 Z-1.000
G1 X172.250 Y429.250 Z-1.000
G1 X172.250 Y0.750 Z-1.000
G1 X173.150 Y0.750 Z-1.000
G1 X173.150 Y429.250 Z-1.000
G1 X174.050 Y429.250 Z-1.000
G1 X174.050 Y0.750 Z-1.000
G1 X174.950 Y0.750 Z-1.000
G1 X174.950 Y429.250 Z-1.000
G1 X175.850 Y429.250 Z-1.000
G1 X175.850 Y0.750 Z-1.000
G1 X176.750 Y0.750 Z-1.000
G1 X176.750 Y429.250 Z-1.000
G1 X177.650 Y429.250 Z-1.000
G1 X177.650 Y0.750 Z-1.000
G1 X178.550 Y0.750 Z-1.000
G1 X178.550 Y429.250 Z-1.000
G1 X179.450 Y429.250 Z-1.000
G1 X179.450 Y0.750 Z-1.000
G1 X180.350 Y0.750 Z-1.000
G1 X180.350 Y429.250 Z-1.000
G1 X181.250 Y429.250 Z-1.000
G1 X181.250 Y0.750 Z-1.000
G1 X182.150 Y0.750 Z-1.000
G1 X182.150 Y429.250 Z-1.000
G1 X183.050 Y429.250 Z-1.000
G1 X183.050 Y0.750 Z-1.000
G1 X183.950 Y0.750 Z-1.000
G1 X183.950 Y429.250 Z-1.000
G1 X184.850 Y429.250 Z-1.000
G1 X184.850 Y0.750 Z-1.000
G1 X185.750 Y0.750 Z-1.000
G1 X185.750 Y429.250 Z-1.000
G1 X186.650 Y429.250 Z-1.000
G1 X186.650 Y0.750 Z-1.000
G1 X187.550 Y0.750 Z-1.000
G1 X187.550 Y429.250 Z-1.000
G1 X188.450 Y429.250 Z-1.000
G1 X188.450 Y0.750 Z-1.000
G1 X189.350 Y0.750 Z-1.000
G1 X189.350 Y429.250 Z-1.000
G1 X190.250 Y429.250 Z-1.000
G1 X190.250 Y0.750 Z-1.000
G1 X191.150 Y0.750 Z-1.000
G1 X191.150 Y429.250 Z-1.000
G1 X192.050 Y429.250 Z-1.000
G1 X192.050 Y0.750 Z-1.000
G1 X192.950 Y0.750 Z-1.000
G1 X192.950 Y429.250 Z-1.000
G1 X193.850 Y429.250 Z-1.000
G1 X193.850 Y0.750 Z-1.000
G1 X194.750 Y0.750 Z-1.000
G1 X194.750 Y429.250 Z-1.000
G1 X195.650 Y429.250 Z-1.000
G1 X195.650 Y0.750 Z-1.000
G1 X196.550 Y0.750 Z-1.000
G1 X196.550 Y429.250 Z-1.000
G1 X197.450 Y429.250 Z-1.000
G1 X197.450 Y0.750 Z-1.000
G1 X198.350 Y0.750 Z-1.000
G1 X198.350 Y429.250 Z-1.000
G1 X199.250 Y429.250 Z-1.000
G1 X199.250 Y0.750 Z-1.000
G1 X200.150 Y0.750 Z-1.000
G1 X200.150 Y429.250 Z-1.000
G1 X201.050 Y429.250 Z-1.000
G1 X201.050 Y0.750 Z-1.000
G1 X201.950 Y0.750 Z-1.000
G1 X201.950 Y429.250 Z-1.000
G1 X202.850 Y429.250 Z-1.000
G1 X202.850 Y0.750 Z-1.000
G1 X203.750 Y0.750 Z-1.000
G1 X203.750 Y429.250 Z-1.000
G1 X204.650 Y429.250 Z-1.000
G1 X204.650 Y0.750 Z-1.000
G1 X205.550 Y0.750 Z-1.000
G1 X205.550 Y429.250 Z-1.000
G1 X206.450 Y429.250 Z-1.000
G1 X206.450 Y0.750 Z-1.000
G1 X207.350 Y0.750 Z-1.000
G1 X207.350 Y429.250 Z-1.000
G1 X208.250 Y429.250 Z-1.000
G1 X208.250 Y0.750 Z-1.000
G1 X209.150 Y0.750 Z-1.000
G1 X209.150 Y429.250 Z-1.000
G1 X210.050 Y429.250 Z-1.000
G1 X210.050 Y0.750 Z-1.000
G1 X210.950 Y0.750 Z-1.000
G1 X210.950 Y429.250 Z-1.000
G1 X211.850 Y429.250 Z-1.000
G1 X211.850 Y0.750 Z-1.000
G1 X212.750 Y0.750 Z-1.000
G1 X212.750 Y429.250 Z-1.000
G1 X213.650 Y429.250 Z-1.000
G1 X213.650 Y0.750 Z-1.000
G1 X214.550 Y0.750 Z-1.000
G1 X214.550 Y429.250 Z-1.000
G1 X215.450 Y429.250 Z-1.000
G1 X215.450 Y0.750 Z-1.000
G1 X216.350 Y0.750 Z-1.000
G1 X216.350 Y429.250 Z-1.000
G1 X217.250 Y429.250 Z-1.000
G1 X217.250 Y0.750 Z-1.000
G1 X218.150 Y0.750 Z-1.000
G1 X218.150 Y429.250 Z-1.000
G1 X219.050 Y429.250 Z-1.000
G1 X219.050 Y0.750 Z-1.000
G1 X219.950 Y0.750 Z-1.000
G1 X219.950 Y429.250 Z-1.000
G1 X220.850 Y429.250 Z-1.000
G1 X220.850 Y0.750 Z-1.000
G1 X221.750 Y0.750 Z-1.000
G1 X221.750 Y429.250 Z-1.000
G1 X222.650 Y429.250 Z-1.000
G1 X222.650 Y0.750 Z-1.000
G1 X223.550 Y0.750 Z-1.000
G1 X223.550 Y429.250 Z-1.000
G1 X224.450 Y429.250 Z-1.000
G1 X224.450 Y0.750 Z-1.000
G1 X225.350 Y0.750 Z-1.000
G1 X225.350 Y429.250 Z-1.000
G1 X226.250 Y429.250 Z-1.000
G1 X226.250 Y0.750 Z-1.000
G1 X227.150 Y0.750 Z-1.000
G1 X227.150 Y429.250 Z-1.000
G1 X228.050 Y429.250 Z-1.000
G1 X228.050 Y0.750 Z-1.000
G1 X228.950 Y0.750 Z-1.000
G1 X228.950 Y429.250 Z-1.000
G1 X229.850 Y429.250 Z-1.000
G1 X229.850 Y0.750 Z-1.000
G1 X230.750 Y0.750 Z-1.000
G1 X230.750 Y429.250 Z-1.000
G1 X231.650 Y429.250 Z-1.000
G1 X231.650 Y0.750 Z-1.000
G1 X232.550 Y0.750 Z-1.000
G1 X232.550 Y429.250 Z-1.000
G1 X233.450 Y429.250 Z-1.000
G1 X233.450 Y0.750 Z-1.000
G1 X234.350 Y0.750 Z-1.000
G1 X234.350 Y429.250 Z-1.000
G1 X235.250 Y429.250 Z-1.000
G1 X235.250 Y0.750 Z-1.000
G1 X236.150 Y0.750 Z-1.000
G1 X236.150 Y429.250 Z-1.000
G1 X237.050 Y429.250 Z-1.000
G1 X237.050 Y0.750 Z-1.000
G1 X237.950 Y0.750 Z-1.000
G1 X237.950 Y429.250 Z-1.000
G1 X238.850 Y429.250 Z-1.000
G1 X238.850 Y0.750 Z-1.000
G1 X239.750 Y0.750 Z-1.000
G1 X239.750 Y429.250 Z-1.000
G1 X240.650 Y429.250 Z-1.000
G1 X240.650 Y0.750 Z-1.000
G1 X241.550 Y0.750 Z-1.000
G1 X241.550 Y429.250 Z-1.000
G1 X242.450 Y429.250 Z-1.000
G1 X242.450 Y0.750 Z-1.000
G1 X243.350 Y0.750 Z-1.000
G1 X243.350 Y429.250 Z-1.000
G1 X244.250 Y429.250 Z-1.000
G1 X244.250 Y0.750 Z-1.000
G1 X245.150 Y0.750 Z-1.000
G1 X245.150 Y429.250 Z-1.000
G1 X246.050 Y429.250 Z-1.000
G1 X246.050 Y0.750 Z-1.000
G1 X246.950 Y0.750 Z-1.000
G1 X246.950 Y429.250 Z-1.000
G1 X247.850 Y429.250 Z-1.000
G1 X247.850 Y0.750 Z-1.000
G1 X248.750 Y0.750 Z-1.000
G1 X248.750 Y429.250 Z-1.000
G1 X249.650 Y429.250 Z-1.000
G1 X249.650 Y0.750 Z-1.000
G1 X250.550 Y0.750 Z-1.000
G1 X250.550 Y429.250 Z-1.000
G1 X251.450 Y429.250 Z-1.000
G1 X251.450 Y0.750 Z-1.000
G1 X252.350 Y0.750 Z-1.000
G1 X252.350 Y429.250 Z-1.000
G1 X253.250 Y429.250 Z-1.000
G1 X253.250 Y0.750 Z-1.000
G1 X254.150 Y0.750 Z-1.000
G1 X254.150 Y429.250 Z-1.000
G1 X255.050 Y429.250 Z-1.000
G1 X255.050 Y0.750 Z-1.000
G1 X255.950 Y0.750 Z-1.000
G1 X255.950 Y429.250 Z-1.000
G1 X256.850 Y429.250 Z-1.000
G1 X256.850 Y0.750 Z-1.000
G1 X257.750 Y0.750 Z-1.000
G1 X257.750 Y429.250 Z-1.000
G1 X258.650 Y429.250 Z-1.000
G1 X258.650 Y0.750 Z-1.000
G1 X259.550 Y0.750 Z-1.000
G1 X259.550 Y429.250 Z-1.000
G1 X260.450 Y429.250 Z-1.000
G1 X260.450 Y0.750 Z-1.000
G1 X261.350 Y0.750 Z-1.000
G1 X261.350 Y429.250 Z-1.000
G1 X262.250 Y429.250 Z-1.000
G1 X262.250 Y0.750 Z-1.000
G1 X263.150 Y0.750 Z-1.000
G1 X263.150 Y429.250 Z-1.000
G1 X264.050 Y429.250 Z-1.000
G1 X264.050 Y0.750 Z-1.000
G1 X264.950 Y0.750 Z-1.000
G1 X264.950 Y429.250 Z-1.000
G1 X265.850 Y429.250 Z-1.000
G1 X265.850 Y0.750 Z-1.000
G1 X266.750 Y0.750 Z-1.000
G1 X266.750 Y429.250 Z-1.000
G1 X267.650 Y429.250 Z-1.000
G1 X267.650 Y0.750 Z-1.000
G1 X268.550 Y0.750 Z-1.000
G1 X268.550 Y429.250 Z-1.000
G1 X269.450 Y429.250 Z-1.000
G1 X269.450 Y0.750 Z-1.000
G1 X270.350 Y0.750 Z-1.000
G1 X270.350 Y429.250 Z-1.000
G1 X271.250 Y429.250 Z-1.000
G1 X271.250 Y0.750 Z-1.000
G1 X272.150 Y0.750 Z-1.000
G1 X272.150 Y429.250 Z-1.000
G1 X273.050 Y429.250 Z-1.000
G1 X273.050 Y0.750 Z-1.000
G1 X273.950 Y0.750 Z-1.000
G1 X273.950 Y429.250 Z-1.000
G1 X274.850 Y429.250 Z-1.000
G1 X274.850 Y0.750 Z-1.000
G1 X275.750 Y0.750 Z-1.000
G1 X275.750 Y429.250 Z-1.000
G1 X276.650 Y429.250 Z-1.000
G1 X276.650 Y0.750 Z-1.000
G1 X277.550 Y0.750 Z-1.000
G1 X277.550 Y429.250 Z-1.000
G1 X278.450 Y429.250 Z-1.000
G1 X278.450 Y0.750 Z-1.000
G1 X279.350 Y0.750 Z-1.000
G1 X279.350 Y429.250 Z-1.000
G1 X280.250 Y429.250 Z-1.000
G1 X280.250 Y0.750 Z-1.000
G1 X281.150 Y0.750 Z-1.000
G1 X281.150 Y429.250 Z-1.000
G1 X282.050 Y429.250 Z-1.000
G1 X282.050 Y0.750 Z-1.000
G1 X282.950 Y0.750 Z-1.000
G1 X282.950 Y429.250 Z-1.000
G1 X283.850 Y429.250 Z-1.000
G1 X283.850 Y0.750 Z-1.000
G1 X284.750 Y0.750 Z-1.000
G1 X284.750 Y429.250 Z-1.000
G1 X285.650 Y429.250 Z-1.000
G1 X285.650 Y0.750 Z-1.000
G1 X286.550 Y0.750 Z-1.000
G1 X286.550 Y429.250 Z-1.000
G1 X287.450 Y429.250 Z-1.000
G1 X287.450 Y0.750 Z-1.000
G1 X288.350 Y0.750 Z-1.000
G1 X288.350 Y429.250 Z-1.000
G1 X289.250 Y429.250 Z-1.000
G1 X289.250 Y0.750 Z-1.000
G1 X290.150 Y0.750 Z-1.000
G1 X290.150 Y429.250 Z-1.000
G1 X291.050 Y429.250 Z-1.000
G1 X291.050 Y0.750 Z-1.000
G1 X291.950 Y0.750 Z-1.000
G1 X291.950 Y429.250 Z-1.000
G1 X292.850 Y429.250 Z-1.000
G1 X292.850 Y0.750 Z-1.000
G1 X293.750 Y0.750 Z-1.000
G1 X293.750 Y429.250 Z-1.000
G1 X294.650 Y429.250 Z-1.000
G1 X294.650 Y0.750 Z-1.000
G1 X295.550 Y0.750 Z-1.000
G1 X295.550 Y429.250 Z-1.000
G1 X296.450 Y429.250 Z-1.000
G1 X296.450 Y0.750 Z-1.000
G1 X297.350 Y0.750 Z-1.000
G1 X297.350 Y429.250 Z-1.000
G1 X298.250 Y429.250 Z-1.000
G1 X298.250 Y0.750 Z-1.000
G1 X299.150 Y0.750 Z-1.000
G1 X299.150 Y429.250 Z-1.000
G1 X300.050 Y429.250 Z-1.000
G1 X300.050 Y0.750 Z-1.000
G1 X300.950 Y0.750 Z-1.000
G1 X300.950 Y429.250 Z-1.000
G1 X301.850 Y429.250 Z-1.000
G1 X301.850 Y0.750 Z-1.000
G1 X302.750 Y0.750 Z-1.000
G1 X302.750 Y429.250 Z-1.000
G1 X303.650 Y429.250 Z-1.000
G1 X303.650 Y0.750 Z-1.000
G1 X304.550 Y0.750 Z-1.000
G1 X304.550 Y429.250 Z-1.000
G1 X305.450 Y429.250 Z-1.000
G1 X305.450 Y0.750 Z-1.000
G1 X306.350 Y0.750 Z-1.000
G1 X306.350 Y429.250 Z-1.000
G1 X307.250 Y429.250 Z-1.000
G1 X307.250 Y0.750 Z-1.000
G1 X308.150 Y0.750 Z-1.000
G1 X308.150 Y429.250 Z-1.000
G1 X309.050 Y429.250 Z-1.000
G1 X309.050 Y0.750 Z-1.000
G1 X309.950 Y0.750 Z-1.000
G1 X309.950 Y429.250 Z-1.000
G1 X310.850 Y429.250 Z-1.000
G1 X310.850 Y0.750 Z-1.000
G1 X311.750 Y0.750 Z-1.000
G1 X311.750 Y429.250 Z-1.000
G1 X312.650 Y429.250 Z-1.000
G1 X312.650 Y0.750 Z-1.000
G1 X313.550 Y0.750 Z-1.000
G1 X313.550 Y429.250 Z-1.000
G1 X314.450 Y429.250 Z-1.000
G1 X314.450 Y0.750 Z-1.000
G1 X315.350 Y0.750 Z-1.000
G1 X315.350 Y429.250 Z-1.000
G1 X316.250 Y429.250 Z-1.000
G1 X316.250 Y0.750 Z-1.000
G1 X317.150 Y0.750 Z-1.000
G1 X317.150 Y429.250 Z-1.000
G1 X318.050 Y429.250 Z-1.000
G1 X318.050 Y0.750 Z-1.000
G1 X318.950 Y0.750 Z-1.000
G1 X318.950 Y429.250 Z-1.000
G1 X319.850 Y429.250 Z-1.000
G1 X319.850 Y0.750 Z-1.000
G1 X320.750 Y0.750 Z-1.000
G1 X320.750 Y429.250 Z-1.000
G1 X321.650 Y429.250 Z-1.000
G1 X321.650 Y0.750 Z-1.000
G1 X322.550 Y0.750 Z-1.000
G1 X322.550 Y429.250 Z-1.000
G1 X323.450 Y429.250 Z-1.000
G1 X323.450 Y0.750 Z-1.000
G1 X324.350 Y0.750 Z-1.000
G1 X324.350 Y429.250 Z-1.000
G1 X325.250 Y429.250 Z-1.000
G1 X325.250 Y0.750 Z-1.000
G1 X326.150 Y0.750 Z-1.000
G1 X326.150 Y429.250 Z-1.000
G1 X327.050 Y429.250 Z-1.000
G1 X327.050 Y0.750 Z-1.000
G1 X327.950 Y0.750 Z-1.000
G1 X327.950 Y429.250 Z-1.000
G1 X328.850 Y429.250 Z-1.000
G1 X328.850 Y0.750 Z-1.000
G1 X329.750 Y0.750 Z-1.000
G1 X329.750 Y429.250 Z-1.000
G1 X330.650 Y429.250 Z-1.000
G1 X330.650 Y0.750 Z-1.000
G1 X331.550 Y0.750 Z-1.000
G1 X331.550 Y429.250 Z-1.000
G1 X332.450 Y429.250 Z-1.000
G1 X332.450 Y0.750 Z-1.000
G1 X333.350 Y0.750 Z-1.000
G1 X333.350 Y429.250 Z-1.000
G1 X334.250 Y429.250 Z-1.000
G1 X334.250 Y0.750 Z-1.000
G1 X335.150 Y0.750 Z-1.000
G1 X335.150 Y429.250 Z-1.000
G1 X336.050 Y429.250 Z-1.000
G1 X336.050 Y0.750 Z-1.000
G1 X336.950 Y0.750 Z-1.000
G1 X336.950 Y429.250 Z-1.000
G1 X337.850 Y429.250 Z-1.000
G1 X337.850 Y0.750 Z-1.000
G1 X338.750 Y0.750 Z-1.000
G1 X338.750 Y429.250 Z-1.000
G1 X339.650 Y429.250 Z-1.000
G1 X339.650 Y0.750 Z-1.000
G1 X340.550 Y0.750 Z-1.000
G1 X340.550 Y429.250 Z-1.000
G1 X341.450 Y429.250 Z-1.000
G1 X341.450 Y0.750 Z-1.000
G1 X342.350 Y0.750 Z-1.000
G1 X342.350 Y429.250 Z-1.000
G1 X343.250 Y429.250 Z-1.000
G1 X343.250 Y0.750 Z-1.000
G1 X344.150 Y0.750 Z-1.000
G1 X344.150 Y429.250 Z-1.000
G1 X345.050 Y429.250 Z-1.000
G1 X345.050 Y0.750 Z-1.000
G1 X345.950 Y0.750 Z-1.000
G1 X345.950 Y429.250 Z-1.000
G1 X346.850 Y429.250 Z-1.000
G1 X346.850 Y0.750 Z-1.000
G1 X347.750 Y0.750 Z-1.000
G1 X347.750 Y429.250 Z-1.000
G1 X348.650 Y429.250 Z-1.000
G1 X348.650 Y0.750 Z-1.000
G1 X349.550 Y0.750 Z-1.000
G1 X349.550 Y429.250 Z-1.000
G1 X350.450 Y429.250 Z-1.000
G1 X350.450 Y0.750 Z-1.000
G1 X351.350 Y0.750 Z-1.000
G1 X351.350 Y429.250 Z-1.000
G1 X352.250 Y429.250 Z-1.000
G1 X352.250 Y0.750 Z-1.000
G1 X353.150 Y0.750 Z-1.000
G1 X353.150 Y429.250 Z-1.000
G1 X354.050 Y429.250 Z-1.000
G1 X354.050 Y0.750 Z-1.000
G1 X354.950 Y0.750 Z-1.000
G1 X354.950 Y429.250 Z-1.000
G1 X355.850 Y429.250 Z-1.000
G1 X355.850 Y0.750 Z-1.000
G1 X356.750 Y0.750 Z-1.000
G1 X356.750 Y429.250 Z-1.000
G1 X357.650 Y429.250 Z-1.000
G1 X357.650 Y0.750 Z-1.000
G1 X358.550 Y0.750 Z-1.000
G1 X358.550 Y429.250 Z-1.000
G1 X359.450 Y429.250 Z-1.000
G1 X359.450 Y0.750 Z-1.000
G1 X360.350 Y0.750 Z-1.000
G1 X360.350 Y429.250 Z-1.000
G1 X361.250 Y429.250 Z-1.000
G1 X361.250 Y0.750 Z-1.000
G1 X362.150 Y0.750 Z-1.000
G1 X362.150 Y429.250 Z-1.000
G1 X363.050 Y429.250 Z-1.000
G1 X363.050 Y0.750 Z-1.000
G1 X363.950 Y0.750 Z-1.000
G1 X363.950 Y429.250 Z-1.000
G1 X364.850 Y429.250 Z-1.000
G1 X364.850 Y0.750 Z-1.000
G1 X365.750 Y0.750 Z-1.000
G1 X365.750 Y429.250 Z-1.000
G1 X366.650 Y429.250 Z-1.000
G1 X366.650 Y0.750 Z-1.000
G1 X367.550 Y0.750 Z-1.000
G1 X367.550 Y429.250 Z-1.000
G1 X368.450 Y429.250 Z-1.000
G1 X368.450 Y0.750 Z-1.000
G1 X369.350 Y0.750 Z-1.000
G1 X369.350 Y429.250 Z-1.000
G1 X370.250 Y429.250 Z-1.000
G1 X370.250 Y0.750 Z-1.000
G1 X371.150 Y0.750 Z-1.000
G1 X371.150 Y429.250 Z-1.000
G1 X372.050 Y429.250 Z-1.000
G1 X372.050 Y0.750 Z-1.000
G1 X372.950 Y0.750 Z-1.000
G1 X372.950 Y429.250 Z-1.000
G1 X373.850 Y429.250 Z-1.000
G1 X373.850 Y0.750 Z-1.000
G1 X374.750 Y0.750 Z-1.000
G1 X374.750 Y429.250 Z-1.000
G1 X375.650 Y429.250 Z-1.000
G1 X375.650 Y0.750 Z-1.000
G1 X376.550 Y0.750 Z-1.000
G1 X376.550 Y429.250 Z-1.000
G1 X377.450 Y429.250 Z-1.000
G1 X377.450 Y0.750 Z-1.000
G1 X378.350 Y0.750 Z-1.000
G1 X378.350 Y429.250 Z-1.000
G1 X379.250 Y429.250 Z-1.000
G1 X379.250 Y0.750 Z-1.000
G0 Z5.000
(finish operation: MillFace)
(begin postamble)
M05
G17 G54 G90 G80 G40
M2
