(Exported by FreeCAD)
(Post Processor: linuxcnc_post)
(Output Time:2019-05-19 23:26:20.257761)
(begin preamble)
G17 G54 G40 G49 G80 G90
G21
(begin operation: Default Tool)
(machine: not set, mm/min)
(Default Tool)
M6 T1
M3 S0
(finish operation: Default Tool)
(begin operation: Profile_Edges)
(machine: not set, mm/min)
(Profile_Edges)
(Compensated Tool Path. Diameter: 0.7)
G0 Z5.000
G0 X43.435 Y23.260
G0 Z3.000
G1 X43.435 Y23.260 Z-0.200
G2 X43.969 Y21.958 Z-0.200 I-1.290 J-1.290
G2 X43.375 Y20.096 Z-0.200 I-4.087 J0.278
G2 X41.003 Y16.635 Z-0.200 I-20.182 J11.286
G2 X37.459 Y13.182 Z-0.200 I-14.840 J11.687
G2 X35.475 Y12.436 Z-0.200 I-2.175 J2.770
G2 X34.433 Y13.008 Z-0.200 I-0.119 J1.018
G2 X34.413 Y14.186 Z-0.200 I1.510 J0.615
G2 X35.384 Y16.371 Z-0.200 I8.396 J-2.424
G2 X38.485 Y20.864 Z-0.200 I35.271 J-21.027
G2 X41.029 Y23.414 Z-0.200 I10.394 J-7.826
G2 X43.435 Y23.260 Z-0.200 I1.116 J-1.443
G1 X43.435 Y23.260 Z-0.400
G2 X43.969 Y21.958 Z-0.400 I-1.290 J-1.290
G2 X43.375 Y20.096 Z-0.400 I-4.087 J0.278
G2 X41.003 Y16.635 Z-0.400 I-20.182 J11.286
G2 X37.459 Y13.182 Z-0.400 I-14.840 J11.687
G2 X35.475 Y12.436 Z-0.400 I-2.175 J2.770
G2 X34.433 Y13.008 Z-0.400 I-0.119 J1.018
G2 X34.413 Y14.186 Z-0.400 I1.510 J0.615
G2 X35.384 Y16.371 Z-0.400 I8.396 J-2.424
G2 X38.485 Y20.864 Z-0.400 I35.271 J-21.027
G2 X41.029 Y23.414 Z-0.400 I10.394 J-7.826
G2 X43.435 Y23.260 Z-0.400 I1.116 J-1.443
G1 X43.435 Y23.260 Z-0.600
G2 X43.969 Y21.958 Z-0.600 I-1.290 J-1.290
G2 X43.375 Y20.096 Z-0.600 I-4.087 J0.278
G2 X41.003 Y16.635 Z-0.600 I-20.182 J11.286
G2 X37.459 Y13.182 Z-0.600 I-14.840 J11.687
G2 X35.475 Y12.436 Z-0.600 I-2.175 J2.770
G2 X34.433 Y13.008 Z-0.600 I-0.119 J1.018
G2 X34.413 Y14.186 Z-0.600 I1.510 J0.615
G2 X35.384 Y16.371 Z-0.600 I8.396 J-2.424
G2 X38.485 Y20.864 Z-0.600 I35.271 J-21.027
G2 X41.029 Y23.414 Z-0.600 I10.394 J-7.826
G2 X43.435 Y23.260 Z-0.600 I1.116 J-1.443
G1 X43.435 Y23.260 Z-0.800
G2 X43.969 Y21.958 Z-0.800 I-1.290 J-1.290
G2 X43.375 Y20.096 Z-0.800 I-4.087 J0.278
G2 X41.003 Y16.635 Z-0.800 I-20.182 J11.286
G2 X37.459 Y13.182 Z-0.800 I-14.840 J11.687
G2 X35.475 Y12.436 Z-0.800 I-2.175 J2.770
G2 X34.433 Y13.008 Z-0.800 I-0.119 J1.018
G2 X34.413 Y14.186 Z-0.800 I1.510 J0.615
G2 X35.384 Y16.371 Z-0.800 I8.396 J-2.424
G2 X38.485 Y20.864 Z-0.800 I35.271 J-21.027
G2 X41.029 Y23.414 Z-0.800 I10.394 J-7.826
G2 X43.435 Y23.260 Z-0.800 I1.116 J-1.443
G1 X43.435 Y23.260 Z-1.000
G2 X43.969 Y21.958 Z-1.000 I-1.290 J-1.290
G2 X43.375 Y20.096 Z-1.000 I-4.087 J0.278
G2 X41.003 Y16.635 Z-1.000 I-20.182 J11.286
G2 X37.459 Y13.182 Z-1.000 I-14.840 J11.687
G2 X35.475 Y12.436 Z-1.000 I-2.175 J2.770
G2 X34.433 Y13.008 Z-1.000 I-0.119 J1.018
G2 X34.413 Y14.186 Z-1.000 I1.510 J0.615
G2 X35.384 Y16.371 Z-1.000 I8.396 J-2.424
G2 X38.485 Y20.864 Z-1.000 I35.271 J-21.027
G2 X41.029 Y23.414 Z-1.000 I10.394 J-7.826
G2 X43.435 Y23.260 Z-1.000 I1.116 J-1.443
G1 X43.435 Y23.260 Z-1.200
G2 X43.969 Y21.958 Z-1.200 I-1.290 J-1.290
G2 X43.375 Y20.096 Z-1.200 I-4.087 J0.278
G2 X41.003 Y16.635 Z-1.200 I-20.182 J11.286
G2 X37.459 Y13.182 Z-1.200 I-14.840 J11.687
G2 X35.475 Y12.436 Z-1.200 I-2.175 J2.770
G2 X34.433 Y13.008 Z-1.200 I-0.119 J1.018
G2 X34.413 Y14.186 Z-1.200 I1.510 J0.615
G2 X35.384 Y16.371 Z-1.200 I8.396 J-2.424
G2 X38.485 Y20.864 Z-1.200 I35.271 J-21.027
G2 X41.029 Y23.414 Z-1.200 I10.394 J-7.826
G2 X43.435 Y23.260 Z-1.200 I1.116 J-1.443
G1 X43.435 Y23.260 Z-1.400
G2 X43.969 Y21.958 Z-1.400 I-1.290 J-1.290
G2 X43.375 Y20.096 Z-1.400 I-4.087 J0.278
G2 X41.003 Y16.635 Z-1.400 I-20.182 J11.286
G2 X37.459 Y13.182 Z-1.400 I-14.840 J11.687
G2 X35.475 Y12.436 Z-1.400 I-2.175 J2.770
G2 X34.433 Y13.008 Z-1.400 I-0.119 J1.018
G2 X34.413 Y14.186 Z-1.400 I1.510 J0.615
G2 X35.384 Y16.371 Z-1.400 I8.396 J-2.424
G2 X38.485 Y20.864 Z-1.400 I35.271 J-21.027
G2 X41.029 Y23.414 Z-1.400 I10.394 J-7.826
G2 X43.435 Y23.260 Z-1.400 I1.116 J-1.443
G1 X43.435 Y23.260 Z-1.600
G2 X43.969 Y21.958 Z-1.600 I-1.290 J-1.290
G2 X43.375 Y20.096 Z-1.600 I-4.087 J0.278
G2 X41.003 Y16.635 Z-1.600 I-20.182 J11.286
G2 X37.459 Y13.182 Z-1.600 I-14.840 J11.687
G2 X35.475 Y12.436 Z-1.600 I-2.175 J2.770
G2 X34.433 Y13.008 Z-1.600 I-0.119 J1.018
G2 X34.413 Y14.186 Z-1.600 I1.510 J0.615
G2 X35.384 Y16.371 Z-1.600 I8.396 J-2.424
G2 X38.485 Y20.864 Z-1.600 I35.271 J-21.027
G2 X41.029 Y23.414 Z-1.600 I10.394 J-7.826
G2 X43.435 Y23.260 Z-1.600 I1.116 J-1.443
G1 X43.435 Y23.260 Z-1.800
G2 X43.969 Y21.958 Z-1.800 I-1.290 J-1.290
G2 X43.375 Y20.096 Z-1.800 I-4.087 J0.278
G2 X41.003 Y16.635 Z-1.800 I-20.182 J11.286
G2 X37.459 Y13.182 Z-1.800 I-14.840 J11.687
G2 X35.475 Y12.436 Z-1.800 I-2.175 J2.770
G2 X34.433 Y13.008 Z-1.800 I-0.119 J1.018
G2 X34.413 Y14.186 Z-1.800 I1.510 J0.615
G2 X35.384 Y16.371 Z-1.800 I8.396 J-2.424
G2 X38.485 Y20.864 Z-1.800 I35.271 J-21.027
G2 X41.029 Y23.414 Z-1.800 I10.394 J-7.826
G2 X43.435 Y23.260 Z-1.800 I1.116 J-1.443
G1 X43.435 Y23.260 Z-2.000
G2 X43.969 Y21.958 Z-2.000 I-1.290 J-1.290
G2 X43.375 Y20.096 Z-2.000 I-4.087 J0.278
G2 X41.003 Y16.635 Z-2.000 I-20.182 J11.286
G2 X37.459 Y13.182 Z-2.000 I-14.840 J11.687
G2 X35.475 Y12.436 Z-2.000 I-2.175 J2.770
G2 X34.433 Y13.008 Z-2.000 I-0.119 J1.018
G2 X34.413 Y14.186 Z-2.000 I1.510 J0.615
G2 X35.384 Y16.371 Z-2.000 I8.396 J-2.424
G2 X38.485 Y20.864 Z-2.000 I35.271 J-21.027
G2 X41.029 Y23.414 Z-2.000 I10.394 J-7.826
G2 X43.435 Y23.260 Z-2.000 I1.116 J-1.443
G1 X43.435 Y23.260 Z-2.200
G2 X43.969 Y21.958 Z-2.200 I-1.290 J-1.290
G2 X43.375 Y20.096 Z-2.200 I-4.087 J0.278
G2 X41.003 Y16.635 Z-2.200 I-20.182 J11.286
G2 X37.459 Y13.182 Z-2.200 I-14.840 J11.687
G2 X35.475 Y12.436 Z-2.200 I-2.175 J2.770
G2 X34.433 Y13.008 Z-2.200 I-0.119 J1.018
G2 X34.413 Y14.186 Z-2.200 I1.510 J0.615
G2 X35.384 Y16.371 Z-2.200 I8.396 J-2.424
G2 X38.485 Y20.864 Z-2.200 I35.271 J-21.027
G2 X41.029 Y23.414 Z-2.200 I10.394 J-7.826
G2 X43.435 Y23.260 Z-2.200 I1.116 J-1.443
G1 X43.435 Y23.260 Z-2.400
G2 X43.969 Y21.958 Z-2.400 I-1.290 J-1.290
G2 X43.375 Y20.096 Z-2.400 I-4.087 J0.278
G2 X41.003 Y16.635 Z-2.400 I-20.182 J11.286
G2 X37.459 Y13.182 Z-2.400 I-14.840 J11.687
G2 X35.475 Y12.436 Z-2.400 I-2.175 J2.770
G2 X34.433 Y13.008 Z-2.400 I-0.119 J1.018
G2 X34.413 Y14.186 Z-2.400 I1.510 J0.615
G2 X35.384 Y16.371 Z-2.400 I8.396 J-2.424
G2 X38.485 Y20.864 Z-2.400 I35.271 J-21.027
G2 X41.029 Y23.414 Z-2.400 I10.394 J-7.826
G2 X43.435 Y23.260 Z-2.400 I1.116 J-1.443
G1 X43.435 Y23.260 Z-2.600
G2 X43.969 Y21.958 Z-2.600 I-1.290 J-1.290
G2 X43.375 Y20.096 Z-2.600 I-4.087 J0.278
G2 X41.003 Y16.635 Z-2.600 I-20.182 J11.286
G2 X37.459 Y13.182 Z-2.600 I-14.840 J11.687
G2 X35.475 Y12.436 Z-2.600 I-2.175 J2.770
G2 X34.433 Y13.008 Z-2.600 I-0.119 J1.018
G2 X34.413 Y14.186 Z-2.600 I1.510 J0.615
G2 X35.384 Y16.371 Z-2.600 I8.396 J-2.424
G2 X38.485 Y20.864 Z-2.600 I35.271 J-21.027
G2 X41.029 Y23.414 Z-2.600 I10.394 J-7.826
G2 X43.435 Y23.260 Z-2.600 I1.116 J-1.443
G1 X43.435 Y23.260 Z-2.800
G2 X43.969 Y21.958 Z-2.800 I-1.290 J-1.290
G2 X43.375 Y20.096 Z-2.800 I-4.087 J0.278
G2 X41.003 Y16.635 Z-2.800 I-20.182 J11.286
G2 X37.459 Y13.182 Z-2.800 I-14.840 J11.687
G2 X35.475 Y12.436 Z-2.800 I-2.175 J2.770
G2 X34.433 Y13.008 Z-2.800 I-0.119 J1.018
G2 X34.413 Y14.186 Z-2.800 I1.510 J0.615
G2 X35.384 Y16.371 Z-2.800 I8.396 J-2.424
G2 X38.485 Y20.864 Z-2.800 I35.271 J-21.027
G2 X41.029 Y23.414 Z-2.800 I10.394 J-7.826
G2 X43.435 Y23.260 Z-2.800 I1.116 J-1.443
G1 X43.435 Y23.260 Z-3.000
G2 X43.969 Y21.958 Z-3.000 I-1.290 J-1.290
G2 X43.375 Y20.096 Z-3.000 I-4.087 J0.278
G2 X41.003 Y16.635 Z-3.000 I-20.182 J11.286
G2 X37.459 Y13.182 Z-3.000 I-14.840 J11.687
G2 X35.475 Y12.436 Z-3.000 I-2.175 J2.770
G2 X34.433 Y13.008 Z-3.000 I-0.119 J1.018
G2 X34.413 Y14.186 Z-3.000 I1.510 J0.615
G2 X35.384 Y16.371 Z-3.000 I8.396 J-2.424
G2 X38.485 Y20.864 Z-3.000 I35.271 J-21.027
G2 X41.029 Y23.414 Z-3.000 I10.394 J-7.826
G2 X43.435 Y23.260 Z-3.000 I1.116 J-1.443
G1 X43.435 Y23.260 Z-3.200
G2 X43.969 Y21.958 Z-3.200 I-1.290 J-1.290
G2 X43.375 Y20.096 Z-3.200 I-4.087 J0.278
G2 X41.003 Y16.635 Z-3.200 I-20.182 J11.286
G2 X37.459 Y13.182 Z-3.200 I-14.840 J11.687
G2 X35.475 Y12.436 Z-3.200 I-2.175 J2.770
G2 X34.433 Y13.008 Z-3.200 I-0.119 J1.018
G2 X34.413 Y14.186 Z-3.200 I1.510 J0.615
G2 X35.384 Y16.371 Z-3.200 I8.396 J-2.424
G2 X38.485 Y20.864 Z-3.200 I35.271 J-21.027
G2 X41.029 Y23.414 Z-3.200 I10.394 J-7.826
G2 X43.435 Y23.260 Z-3.200 I1.116 J-1.443
G1 X43.435 Y23.260 Z-3.400
G2 X43.969 Y21.958 Z-3.400 I-1.290 J-1.290
G2 X43.375 Y20.096 Z-3.400 I-4.087 J0.278
G2 X41.003 Y16.635 Z-3.400 I-20.182 J11.286
G2 X37.459 Y13.182 Z-3.400 I-14.840 J11.687
G2 X35.475 Y12.436 Z-3.400 I-2.175 J2.770
G2 X34.433 Y13.008 Z-3.400 I-0.119 J1.018
G2 X34.413 Y14.186 Z-3.400 I1.510 J0.615
G2 X35.384 Y16.371 Z-3.400 I8.396 J-2.424
G2 X38.485 Y20.864 Z-3.400 I35.271 J-21.027
G2 X41.029 Y23.414 Z-3.400 I10.394 J-7.826
G2 X43.435 Y23.260 Z-3.400 I1.116 J-1.443
G1 X43.435 Y23.260 Z-3.600
G2 X43.969 Y21.958 Z-3.600 I-1.290 J-1.290
G2 X43.375 Y20.096 Z-3.600 I-4.087 J0.278
G2 X41.003 Y16.635 Z-3.600 I-20.182 J11.286
G2 X37.459 Y13.182 Z-3.600 I-14.840 J11.687
G2 X35.475 Y12.436 Z-3.600 I-2.175 J2.770
G2 X34.433 Y13.008 Z-3.600 I-0.119 J1.018
G2 X34.413 Y14.186 Z-3.600 I1.510 J0.615
G2 X35.384 Y16.371 Z-3.600 I8.396 J-2.424
G2 X38.485 Y20.864 Z-3.600 I35.271 J-21.027
G2 X41.029 Y23.414 Z-3.600 I10.394 J-7.826
G2 X43.435 Y23.260 Z-3.600 I1.116 J-1.443
G1 X43.435 Y23.260 Z-3.800
G2 X43.969 Y21.958 Z-3.800 I-1.290 J-1.290
G2 X43.375 Y20.096 Z-3.800 I-4.087 J0.278
G2 X41.003 Y16.635 Z-3.800 I-20.182 J11.286
G2 X37.459 Y13.182 Z-3.800 I-14.840 J11.687
G2 X35.475 Y12.436 Z-3.800 I-2.175 J2.770
G2 X34.433 Y13.008 Z-3.800 I-0.119 J1.018
G2 X34.413 Y14.186 Z-3.800 I1.510 J0.615
G2 X35.384 Y16.371 Z-3.800 I8.396 J-2.424
G2 X38.485 Y20.864 Z-3.800 I35.271 J-21.027
G2 X41.029 Y23.414 Z-3.800 I10.394 J-7.826
G2 X43.435 Y23.260 Z-3.800 I1.116 J-1.443
G1 X43.435 Y23.260 Z-4.000
G2 X43.969 Y21.958 Z-4.000 I-1.290 J-1.290
G2 X43.375 Y20.096 Z-4.000 I-4.087 J0.278
G2 X41.003 Y16.635 Z-4.000 I-20.182 J11.286
G2 X37.459 Y13.182 Z-4.000 I-14.840 J11.687
G2 X35.475 Y12.436 Z-4.000 I-2.175 J2.770
G2 X34.433 Y13.008 Z-4.000 I-0.119 J1.018
G2 X34.413 Y14.186 Z-4.000 I1.510 J0.615
G2 X35.384 Y16.371 Z-4.000 I8.396 J-2.424
G2 X38.485 Y20.864 Z-4.000 I35.271 J-21.027
G2 X41.029 Y23.414 Z-4.000 I10.394 J-7.826
G2 X43.435 Y23.260 Z-4.000 I1.116 J-1.443
G0 Z5.000
G0 X85.363 Y23.364
G0 Z3.000
G1 X85.363 Y23.364 Z-0.200
G2 X85.855 Y22.306 Z-0.200 I-1.284 J-1.240
G2 X85.641 Y20.175 Z-0.200 I-4.090 J-0.665
G2 X83.410 Y16.337 Z-0.200 I-12.547 J4.726
G2 X82.903 Y15.950 Z-0.200 I-0.948 J0.716
G3 X81.814 Y15.585 Z-0.200 I0.311 J-2.737
G3 X81.276 Y14.809 Z-0.200 I0.455 J-0.890
G2 X81.229 Y13.946 Z-0.200 I-0.749 J-0.392
G2 X78.464 Y12.714 Z-0.200 I-3.077 J3.186
G2 X77.156 Y13.671 Z-0.200 I-0.162 J1.151
G2 X77.547 Y16.150 Z-0.200 I3.947 J0.648
G2 X81.207 Y21.931 Z-0.200 I23.278 J-10.687
G2 X83.516 Y23.747 Z-0.200 I5.450 J-4.551
G2 X84.681 Y23.805 Z-0.200 I0.655 J-1.421
G2 X85.363 Y23.364 Z-0.200 I-0.602 J-1.681
G1 X85.363 Y23.364 Z-0.400
G2 X85.855 Y22.306 Z-0.400 I-1.284 J-1.240
G2 X85.641 Y20.175 Z-0.400 I-4.090 J-0.665
G2 X83.410 Y16.337 Z-0.400 I-12.547 J4.726
G2 X82.903 Y15.950 Z-0.400 I-0.948 J0.716
G3 X81.814 Y15.585 Z-0.400 I0.311 J-2.737
G3 X81.276 Y14.809 Z-0.400 I0.455 J-0.890
G2 X81.229 Y13.946 Z-0.400 I-0.749 J-0.392
G2 X78.464 Y12.714 Z-0.400 I-3.077 J3.186
G2 X77.156 Y13.671 Z-0.400 I-0.162 J1.151
G2 X77.547 Y16.150 Z-0.400 I3.947 J0.648
G2 X81.207 Y21.931 Z-0.400 I23.278 J-10.687
G2 X83.516 Y23.747 Z-0.400 I5.450 J-4.551
G2 X84.681 Y23.805 Z-0.400 I0.655 J-1.421
G2 X85.363 Y23.364 Z-0.400 I-0.602 J-1.681
G1 X85.363 Y23.364 Z-0.600
G2 X85.855 Y22.306 Z-0.600 I-1.284 J-1.240
G2 X85.641 Y20.175 Z-0.600 I-4.090 J-0.665
G2 X83.410 Y16.337 Z-0.600 I-12.547 J4.726
G2 X82.903 Y15.950 Z-0.600 I-0.948 J0.716
G3 X81.814 Y15.585 Z-0.600 I0.311 J-2.737
G3 X81.276 Y14.809 Z-0.600 I0.455 J-0.890
G2 X81.229 Y13.946 Z-0.600 I-0.749 J-0.392
G2 X78.464 Y12.714 Z-0.600 I-3.077 J3.186
G2 X77.156 Y13.671 Z-0.600 I-0.162 J1.151
G2 X77.547 Y16.150 Z-0.600 I3.947 J0.648
G2 X81.207 Y21.931 Z-0.600 I23.278 J-10.687
G2 X83.516 Y23.747 Z-0.600 I5.450 J-4.551
G2 X84.681 Y23.805 Z-0.600 I0.655 J-1.421
G2 X85.363 Y23.364 Z-0.600 I-0.602 J-1.681
G1 X85.363 Y23.364 Z-0.800
G2 X85.855 Y22.306 Z-0.800 I-1.284 J-1.240
G2 X85.641 Y20.175 Z-0.800 I-4.090 J-0.665
G2 X83.410 Y16.337 Z-0.800 I-12.547 J4.726
G2 X82.903 Y15.950 Z-0.800 I-0.948 J0.716
G3 X81.814 Y15.585 Z-0.800 I0.311 J-2.737
G3 X81.276 Y14.809 Z-0.800 I0.455 J-0.890
G2 X81.229 Y13.946 Z-0.800 I-0.749 J-0.392
G2 X78.464 Y12.714 Z-0.800 I-3.077 J3.186
G2 X77.156 Y13.671 Z-0.800 I-0.162 J1.151
G2 X77.547 Y16.150 Z-0.800 I3.947 J0.648
G2 X81.207 Y21.931 Z-0.800 I23.278 J-10.687
G2 X83.516 Y23.747 Z-0.800 I5.450 J-4.551
G2 X84.681 Y23.805 Z-0.800 I0.655 J-1.421
G2 X85.363 Y23.364 Z-0.800 I-0.602 J-1.681
G1 X85.363 Y23.364 Z-1.000
G2 X85.855 Y22.306 Z-1.000 I-1.284 J-1.240
G2 X85.641 Y20.175 Z-1.000 I-4.090 J-0.665
G2 X83.410 Y16.337 Z-1.000 I-12.547 J4.726
G2 X82.903 Y15.950 Z-1.000 I-0.948 J0.716
G3 X81.814 Y15.585 Z-1.000 I0.311 J-2.737
G3 X81.276 Y14.809 Z-1.000 I0.455 J-0.890
G2 X81.229 Y13.946 Z-1.000 I-0.749 J-0.392
G2 X78.464 Y12.714 Z-1.000 I-3.077 J3.186
G2 X77.156 Y13.671 Z-1.000 I-0.162 J1.151
G2 X77.547 Y16.150 Z-1.000 I3.947 J0.648
G2 X81.207 Y21.931 Z-1.000 I23.278 J-10.687
G2 X83.516 Y23.747 Z-1.000 I5.450 J-4.551
G2 X84.681 Y23.805 Z-1.000 I0.655 J-1.421
G2 X85.363 Y23.364 Z-1.000 I-0.602 J-1.681
G1 X85.363 Y23.364 Z-1.200
G2 X85.855 Y22.306 Z-1.200 I-1.284 J-1.240
G2 X85.641 Y20.175 Z-1.200 I-4.090 J-0.665
G2 X83.410 Y16.337 Z-1.200 I-12.547 J4.726
G2 X82.903 Y15.950 Z-1.200 I-0.948 J0.716
G3 X81.814 Y15.585 Z-1.200 I0.311 J-2.737
G3 X81.276 Y14.809 Z-1.200 I0.455 J-0.890
G2 X81.229 Y13.946 Z-1.200 I-0.749 J-0.392
G2 X78.464 Y12.714 Z-1.200 I-3.077 J3.186
G2 X77.156 Y13.671 Z-1.200 I-0.162 J1.151
G2 X77.547 Y16.150 Z-1.200 I3.947 J0.648
G2 X81.207 Y21.931 Z-1.200 I23.278 J-10.687
G2 X83.516 Y23.747 Z-1.200 I5.450 J-4.551
G2 X84.681 Y23.805 Z-1.200 I0.655 J-1.421
G2 X85.363 Y23.364 Z-1.200 I-0.602 J-1.681
G1 X85.363 Y23.364 Z-1.400
G2 X85.855 Y22.306 Z-1.400 I-1.284 J-1.240
G2 X85.641 Y20.175 Z-1.400 I-4.090 J-0.665
G2 X83.410 Y16.337 Z-1.400 I-12.547 J4.726
G2 X82.903 Y15.950 Z-1.400 I-0.948 J0.716
G3 X81.814 Y15.585 Z-1.400 I0.311 J-2.737
G3 X81.276 Y14.809 Z-1.400 I0.455 J-0.890
G2 X81.229 Y13.946 Z-1.400 I-0.749 J-0.392
G2 X78.464 Y12.714 Z-1.400 I-3.077 J3.186
G2 X77.156 Y13.671 Z-1.400 I-0.162 J1.151
G2 X77.547 Y16.150 Z-1.400 I3.947 J0.648
G2 X81.207 Y21.931 Z-1.400 I23.278 J-10.687
G2 X83.516 Y23.747 Z-1.400 I5.450 J-4.551
G2 X84.681 Y23.805 Z-1.400 I0.655 J-1.421
G2 X85.363 Y23.364 Z-1.400 I-0.602 J-1.681
G1 X85.363 Y23.364 Z-1.600
G2 X85.855 Y22.306 Z-1.600 I-1.284 J-1.240
G2 X85.641 Y20.175 Z-1.600 I-4.090 J-0.665
G2 X83.410 Y16.337 Z-1.600 I-12.547 J4.726
G2 X82.903 Y15.950 Z-1.600 I-0.948 J0.716
G3 X81.814 Y15.585 Z-1.600 I0.311 J-2.737
G3 X81.276 Y14.809 Z-1.600 I0.455 J-0.890
G2 X81.229 Y13.946 Z-1.600 I-0.749 J-0.392
G2 X78.464 Y12.714 Z-1.600 I-3.077 J3.186
G2 X77.156 Y13.671 Z-1.600 I-0.162 J1.151
G2 X77.547 Y16.150 Z-1.600 I3.947 J0.648
G2 X81.207 Y21.931 Z-1.600 I23.278 J-10.687
G2 X83.516 Y23.747 Z-1.600 I5.450 J-4.551
G2 X84.681 Y23.805 Z-1.600 I0.655 J-1.421
G2 X85.363 Y23.364 Z-1.600 I-0.602 J-1.681
G1 X85.363 Y23.364 Z-1.800
G2 X85.855 Y22.306 Z-1.800 I-1.284 J-1.240
G2 X85.641 Y20.175 Z-1.800 I-4.090 J-0.665
G2 X83.410 Y16.337 Z-1.800 I-12.547 J4.726
G2 X82.903 Y15.950 Z-1.800 I-0.948 J0.716
G3 X81.814 Y15.585 Z-1.800 I0.311 J-2.737
G3 X81.276 Y14.809 Z-1.800 I0.455 J-0.890
G2 X81.229 Y13.946 Z-1.800 I-0.749 J-0.392
G2 X78.464 Y12.714 Z-1.800 I-3.077 J3.186
G2 X77.156 Y13.671 Z-1.800 I-0.162 J1.151
G2 X77.547 Y16.150 Z-1.800 I3.947 J0.648
G2 X81.207 Y21.931 Z-1.800 I23.278 J-10.687
G2 X83.516 Y23.747 Z-1.800 I5.450 J-4.551
G2 X84.681 Y23.805 Z-1.800 I0.655 J-1.421
G2 X85.363 Y23.364 Z-1.800 I-0.602 J-1.681
G1 X85.363 Y23.364 Z-2.000
G2 X85.855 Y22.306 Z-2.000 I-1.284 J-1.240
G2 X85.641 Y20.175 Z-2.000 I-4.090 J-0.665
G2 X83.410 Y16.337 Z-2.000 I-12.547 J4.726
G2 X82.903 Y15.950 Z-2.000 I-0.948 J0.716
G3 X81.814 Y15.585 Z-2.000 I0.311 J-2.737
G3 X81.276 Y14.809 Z-2.000 I0.455 J-0.890
G2 X81.229 Y13.946 Z-2.000 I-0.749 J-0.392
G2 X78.464 Y12.714 Z-2.000 I-3.077 J3.186
G2 X77.156 Y13.671 Z-2.000 I-0.162 J1.151
G2 X77.547 Y16.150 Z-2.000 I3.947 J0.648
G2 X81.207 Y21.931 Z-2.000 I23.278 J-10.687
G2 X83.516 Y23.747 Z-2.000 I5.450 J-4.551
G2 X84.681 Y23.805 Z-2.000 I0.655 J-1.421
G2 X85.363 Y23.364 Z-2.000 I-0.602 J-1.681
G1 X85.363 Y23.364 Z-2.200
G2 X85.855 Y22.306 Z-2.200 I-1.284 J-1.240
G2 X85.641 Y20.175 Z-2.200 I-4.090 J-0.665
G2 X83.410 Y16.337 Z-2.200 I-12.547 J4.726
G2 X82.903 Y15.950 Z-2.200 I-0.948 J0.716
G3 X81.814 Y15.585 Z-2.200 I0.311 J-2.737
G3 X81.276 Y14.809 Z-2.200 I0.455 J-0.890
G2 X81.229 Y13.946 Z-2.200 I-0.749 J-0.392
G2 X78.464 Y12.714 Z-2.200 I-3.077 J3.186
G2 X77.156 Y13.671 Z-2.200 I-0.162 J1.151
G2 X77.547 Y16.150 Z-2.200 I3.947 J0.648
G2 X81.207 Y21.931 Z-2.200 I23.278 J-10.687
G2 X83.516 Y23.747 Z-2.200 I5.450 J-4.551
G2 X84.681 Y23.805 Z-2.200 I0.655 J-1.421
G2 X85.363 Y23.364 Z-2.200 I-0.602 J-1.681
G1 X85.363 Y23.364 Z-2.400
G2 X85.855 Y22.306 Z-2.400 I-1.284 J-1.240
G2 X85.641 Y20.175 Z-2.400 I-4.090 J-0.665
G2 X83.410 Y16.337 Z-2.400 I-12.547 J4.726
G2 X82.903 Y15.950 Z-2.400 I-0.948 J0.716
G3 X81.814 Y15.585 Z-2.400 I0.311 J-2.737
G3 X81.276 Y14.809 Z-2.400 I0.455 J-0.890
G2 X81.229 Y13.946 Z-2.400 I-0.749 J-0.392
G2 X78.464 Y12.714 Z-2.400 I-3.077 J3.186
G2 X77.156 Y13.671 Z-2.400 I-0.162 J1.151
G2 X77.547 Y16.150 Z-2.400 I3.947 J0.648
G2 X81.207 Y21.931 Z-2.400 I23.278 J-10.687
G2 X83.516 Y23.747 Z-2.400 I5.450 J-4.551
G2 X84.681 Y23.805 Z-2.400 I0.655 J-1.421
G2 X85.363 Y23.364 Z-2.400 I-0.602 J-1.681
G1 X85.363 Y23.364 Z-2.600
G2 X85.855 Y22.306 Z-2.600 I-1.284 J-1.240
G2 X85.641 Y20.175 Z-2.600 I-4.090 J-0.665
G2 X83.410 Y16.337 Z-2.600 I-12.547 J4.726
G2 X82.903 Y15.950 Z-2.600 I-0.948 J0.716
G3 X81.814 Y15.585 Z-2.600 I0.311 J-2.737
G3 X81.276 Y14.809 Z-2.600 I0.455 J-0.890
G2 X81.229 Y13.946 Z-2.600 I-0.749 J-0.392
G2 X78.464 Y12.714 Z-2.600 I-3.077 J3.186
G2 X77.156 Y13.671 Z-2.600 I-0.162 J1.151
G2 X77.547 Y16.150 Z-2.600 I3.947 J0.648
G2 X81.207 Y21.931 Z-2.600 I23.278 J-10.687
G2 X83.516 Y23.747 Z-2.600 I5.450 J-4.551
G2 X84.681 Y23.805 Z-2.600 I0.655 J-1.421
G2 X85.363 Y23.364 Z-2.600 I-0.602 J-1.681
G1 X85.363 Y23.364 Z-2.800
G2 X85.855 Y22.306 Z-2.800 I-1.284 J-1.240
G2 X85.641 Y20.175 Z-2.800 I-4.090 J-0.665
G2 X83.410 Y16.337 Z-2.800 I-12.547 J4.726
G2 X82.903 Y15.950 Z-2.800 I-0.948 J0.716
G3 X81.814 Y15.585 Z-2.800 I0.311 J-2.737
G3 X81.276 Y14.809 Z-2.800 I0.455 J-0.890
G2 X81.229 Y13.946 Z-2.800 I-0.749 J-0.392
G2 X78.464 Y12.714 Z-2.800 I-3.077 J3.186
G2 X77.156 Y13.671 Z-2.800 I-0.162 J1.151
G2 X77.547 Y16.150 Z-2.800 I3.947 J0.648
G2 X81.207 Y21.931 Z-2.800 I23.278 J-10.687
G2 X83.516 Y23.747 Z-2.800 I5.450 J-4.551
G2 X84.681 Y23.805 Z-2.800 I0.655 J-1.421
G2 X85.363 Y23.364 Z-2.800 I-0.602 J-1.681
G1 X85.363 Y23.364 Z-3.000
G2 X85.855 Y22.306 Z-3.000 I-1.284 J-1.240
G2 X85.641 Y20.175 Z-3.000 I-4.090 J-0.665
G2 X83.410 Y16.337 Z-3.000 I-12.547 J4.726
G2 X82.903 Y15.950 Z-3.000 I-0.948 J0.716
G3 X81.814 Y15.585 Z-3.000 I0.311 J-2.737
G3 X81.276 Y14.809 Z-3.000 I0.455 J-0.890
G2 X81.229 Y13.946 Z-3.000 I-0.749 J-0.392
G2 X78.464 Y12.714 Z-3.000 I-3.077 J3.186
G2 X77.156 Y13.671 Z-3.000 I-0.162 J1.151
G2 X77.547 Y16.150 Z-3.000 I3.947 J0.648
G2 X81.207 Y21.931 Z-3.000 I23.278 J-10.687
G2 X83.516 Y23.747 Z-3.000 I5.450 J-4.551
G2 X84.681 Y23.805 Z-3.000 I0.655 J-1.421
G2 X85.363 Y23.364 Z-3.000 I-0.602 J-1.681
G1 X85.363 Y23.364 Z-3.200
G2 X85.855 Y22.306 Z-3.200 I-1.284 J-1.240
G2 X85.641 Y20.175 Z-3.200 I-4.090 J-0.665
G2 X83.410 Y16.337 Z-3.200 I-12.547 J4.726
G2 X82.903 Y15.950 Z-3.200 I-0.948 J0.716
G3 X81.814 Y15.585 Z-3.200 I0.311 J-2.737
G3 X81.276 Y14.809 Z-3.200 I0.455 J-0.890
G2 X81.229 Y13.946 Z-3.200 I-0.749 J-0.392
G2 X78.464 Y12.714 Z-3.200 I-3.077 J3.186
G2 X77.156 Y13.671 Z-3.200 I-0.162 J1.151
G2 X77.547 Y16.150 Z-3.200 I3.947 J0.648
G2 X81.207 Y21.931 Z-3.200 I23.278 J-10.687
G2 X83.516 Y23.747 Z-3.200 I5.450 J-4.551
G2 X84.681 Y23.805 Z-3.200 I0.655 J-1.421
G2 X85.363 Y23.364 Z-3.200 I-0.602 J-1.681
G1 X85.363 Y23.364 Z-3.400
G2 X85.855 Y22.306 Z-3.400 I-1.284 J-1.240
G2 X85.641 Y20.175 Z-3.400 I-4.090 J-0.665
G2 X83.410 Y16.337 Z-3.400 I-12.547 J4.726
G2 X82.903 Y15.950 Z-3.400 I-0.948 J0.716
G3 X81.814 Y15.585 Z-3.400 I0.311 J-2.737
G3 X81.276 Y14.809 Z-3.400 I0.455 J-0.890
G2 X81.229 Y13.946 Z-3.400 I-0.749 J-0.392
G2 X78.464 Y12.714 Z-3.400 I-3.077 J3.186
G2 X77.156 Y13.671 Z-3.400 I-0.162 J1.151
G2 X77.547 Y16.150 Z-3.400 I3.947 J0.648
G2 X81.207 Y21.931 Z-3.400 I23.278 J-10.687
G2 X83.516 Y23.747 Z-3.400 I5.450 J-4.551
G2 X84.681 Y23.805 Z-3.400 I0.655 J-1.421
G2 X85.363 Y23.364 Z-3.400 I-0.602 J-1.681
G1 X85.363 Y23.364 Z-3.600
G2 X85.855 Y22.306 Z-3.600 I-1.284 J-1.240
G2 X85.641 Y20.175 Z-3.600 I-4.090 J-0.665
G2 X83.410 Y16.337 Z-3.600 I-12.547 J4.726
G2 X82.903 Y15.950 Z-3.600 I-0.948 J0.716
G3 X81.814 Y15.585 Z-3.600 I0.311 J-2.737
G3 X81.276 Y14.809 Z-3.600 I0.455 J-0.890
G2 X81.229 Y13.946 Z-3.600 I-0.749 J-0.392
G2 X78.464 Y12.714 Z-3.600 I-3.077 J3.186
G2 X77.156 Y13.671 Z-3.600 I-0.162 J1.151
G2 X77.547 Y16.150 Z-3.600 I3.947 J0.648
G2 X81.207 Y21.931 Z-3.600 I23.278 J-10.687
G2 X83.516 Y23.747 Z-3.600 I5.450 J-4.551
G2 X84.681 Y23.805 Z-3.600 I0.655 J-1.421
G2 X85.363 Y23.364 Z-3.600 I-0.602 J-1.681
G1 X85.363 Y23.364 Z-3.800
G2 X85.855 Y22.306 Z-3.800 I-1.284 J-1.240
G2 X85.641 Y20.175 Z-3.800 I-4.090 J-0.665
G2 X83.410 Y16.337 Z-3.800 I-12.547 J4.726
G2 X82.903 Y15.950 Z-3.800 I-0.948 J0.716
G3 X81.814 Y15.585 Z-3.800 I0.311 J-2.737
G3 X81.276 Y14.809 Z-3.800 I0.455 J-0.890
G2 X81.229 Y13.946 Z-3.800 I-0.749 J-0.392
G2 X78.464 Y12.714 Z-3.800 I-3.077 J3.186
G2 X77.156 Y13.671 Z-3.800 I-0.162 J1.151
G2 X77.547 Y16.150 Z-3.800 I3.947 J0.648
G2 X81.207 Y21.931 Z-3.800 I23.278 J-10.687
G2 X83.516 Y23.747 Z-3.800 I5.450 J-4.551
G2 X84.681 Y23.805 Z-3.800 I0.655 J-1.421
G2 X85.363 Y23.364 Z-3.800 I-0.602 J-1.681
G1 X85.363 Y23.364 Z-4.000
G2 X85.855 Y22.306 Z-4.000 I-1.284 J-1.240
G2 X85.641 Y20.175 Z-4.000 I-4.090 J-0.665
G2 X83.410 Y16.337 Z-4.000 I-12.547 J4.726
G2 X82.903 Y15.950 Z-4.000 I-0.948 J0.716
G3 X81.814 Y15.585 Z-4.000 I0.311 J-2.737
G3 X81.276 Y14.809 Z-4.000 I0.455 J-0.890
G2 X81.229 Y13.946 Z-4.000 I-0.749 J-0.392
G2 X78.464 Y12.714 Z-4.000 I-3.077 J3.186
G2 X77.156 Y13.671 Z-4.000 I-0.162 J1.151
G2 X77.547 Y16.150 Z-4.000 I3.947 J0.648
G2 X81.207 Y21.931 Z-4.000 I23.278 J-10.687
G2 X83.516 Y23.747 Z-4.000 I5.450 J-4.551
G2 X84.681 Y23.805 Z-4.000 I0.655 J-1.421
G2 X85.363 Y23.364 Z-4.000 I-0.602 J-1.681
G0 Z5.000
G0 X104.153 Y11.333
G0 Z3.000
G1 X104.153 Y11.333 Z-0.200
G2 X104.194 Y10.849 Z-0.200 I-0.266 J-0.266
G2 X101.826 Y6.410 Z-0.200 I-54.606 J26.277
G1 X101.818 Y6.403 Z-0.200
G1 X101.821 Y6.402 Z-0.200
G1 X101.194 Y5.364 Z-0.200
G2 X98.988 Y2.468 Z-0.200 I-13.149 J7.730
G2 X97.019 Y1.330 Z-0.200 I-2.924 J2.788
G1 X96.607 Y1.260 Z-0.200
G2 X94.359 Y2.688 Z-0.200 I-0.284 J2.036
G2 X94.443 Y4.402 Z-0.200 I4.952 J0.616
G2 X95.348 Y6.197 Z-0.200 I6.580 J-2.191
G2 X98.399 Y8.904 Z-0.200 I9.896 J-8.080
G2 X102.219 Y10.830 Z-0.200 I12.392 J-19.832
G2 X103.811 Y11.436 Z-0.200 I5.341 J-11.636
G2 X104.153 Y11.333 Z-0.200 I0.075 J-0.369
G1 X104.153 Y11.333 Z-0.400
G2 X104.194 Y10.849 Z-0.400 I-0.266 J-0.266
G2 X101.826 Y6.410 Z-0.400 I-54.606 J26.277
G1 X101.818 Y6.403 Z-0.400
G1 X101.821 Y6.402 Z-0.400
G1 X101.194 Y5.364 Z-0.400
G2 X98.988 Y2.468 Z-0.400 I-13.149 J7.730
G2 X97.019 Y1.330 Z-0.400 I-2.924 J2.788
G1 X96.607 Y1.260 Z-0.400
G2 X94.359 Y2.688 Z-0.400 I-0.284 J2.036
G2 X94.443 Y4.402 Z-0.400 I4.952 J0.616
G2 X95.348 Y6.197 Z-0.400 I6.580 J-2.191
G2 X98.399 Y8.904 Z-0.400 I9.896 J-8.080
G2 X102.219 Y10.830 Z-0.400 I12.392 J-19.832
G2 X103.811 Y11.436 Z-0.400 I5.341 J-11.636
G2 X104.153 Y11.333 Z-0.400 I0.075 J-0.369
G1 X104.153 Y11.333 Z-0.600
G2 X104.194 Y10.849 Z-0.600 I-0.266 J-0.266
G2 X101.826 Y6.410 Z-0.600 I-54.606 J26.277
G1 X101.818 Y6.403 Z-0.600
G1 X101.821 Y6.402 Z-0.600
G1 X101.194 Y5.364 Z-0.600
G2 X98.988 Y2.468 Z-0.600 I-13.149 J7.730
G2 X97.019 Y1.330 Z-0.600 I-2.924 J2.788
G1 X96.607 Y1.260 Z-0.600
G2 X94.359 Y2.688 Z-0.600 I-0.284 J2.036
G2 X94.443 Y4.402 Z-0.600 I4.952 J0.616
G2 X95.348 Y6.197 Z-0.600 I6.580 J-2.191
G2 X98.399 Y8.904 Z-0.600 I9.896 J-8.080
G2 X102.219 Y10.830 Z-0.600 I12.392 J-19.832
G2 X103.811 Y11.436 Z-0.600 I5.341 J-11.636
G2 X104.153 Y11.333 Z-0.600 I0.075 J-0.369
G1 X104.153 Y11.333 Z-0.800
G2 X104.194 Y10.849 Z-0.800 I-0.266 J-0.266
G2 X101.826 Y6.410 Z-0.800 I-54.606 J26.277
G1 X101.818 Y6.403 Z-0.800
G1 X101.821 Y6.402 Z-0.800
G1 X101.194 Y5.364 Z-0.800
G2 X98.988 Y2.468 Z-0.800 I-13.149 J7.730
G2 X97.019 Y1.330 Z-0.800 I-2.924 J2.788
G1 X96.607 Y1.260 Z-0.800
G2 X94.359 Y2.688 Z-0.800 I-0.284 J2.036
G2 X94.443 Y4.402 Z-0.800 I4.952 J0.616
G2 X95.348 Y6.197 Z-0.800 I6.580 J-2.191
G2 X98.399 Y8.904 Z-0.800 I9.896 J-8.080
G2 X102.219 Y10.830 Z-0.800 I12.392 J-19.832
G2 X103.811 Y11.436 Z-0.800 I5.341 J-11.636
G2 X104.153 Y11.333 Z-0.800 I0.075 J-0.369
G1 X104.153 Y11.333 Z-1.000
G2 X104.194 Y10.849 Z-1.000 I-0.266 J-0.266
G2 X101.826 Y6.410 Z-1.000 I-54.606 J26.277
G1 X101.818 Y6.403 Z-1.000
G1 X101.821 Y6.402 Z-1.000
G1 X101.194 Y5.364 Z-1.000
G2 X98.988 Y2.468 Z-1.000 I-13.149 J7.730
G2 X97.019 Y1.330 Z-1.000 I-2.924 J2.788
G1 X96.607 Y1.260 Z-1.000
G2 X94.359 Y2.688 Z-1.000 I-0.284 J2.036
G2 X94.443 Y4.402 Z-1.000 I4.952 J0.616
G2 X95.348 Y6.197 Z-1.000 I6.580 J-2.191
G2 X98.399 Y8.904 Z-1.000 I9.896 J-8.080
G2 X102.219 Y10.830 Z-1.000 I12.392 J-19.832
G2 X103.811 Y11.436 Z-1.000 I5.341 J-11.636
G2 X104.153 Y11.333 Z-1.000 I0.075 J-0.369
G1 X104.153 Y11.333 Z-1.200
G2 X104.194 Y10.849 Z-1.200 I-0.266 J-0.266
G2 X101.826 Y6.410 Z-1.200 I-54.606 J26.277
G1 X101.818 Y6.403 Z-1.200
G1 X101.821 Y6.402 Z-1.200
G1 X101.194 Y5.364 Z-1.200
G2 X98.988 Y2.468 Z-1.200 I-13.149 J7.730
G2 X97.019 Y1.330 Z-1.200 I-2.924 J2.788
G1 X96.607 Y1.260 Z-1.200
G2 X94.359 Y2.688 Z-1.200 I-0.284 J2.036
G2 X94.443 Y4.402 Z-1.200 I4.952 J0.616
G2 X95.348 Y6.197 Z-1.200 I6.580 J-2.191
G2 X98.399 Y8.904 Z-1.200 I9.896 J-8.080
G2 X102.219 Y10.830 Z-1.200 I12.392 J-19.832
G2 X103.811 Y11.436 Z-1.200 I5.341 J-11.636
G2 X104.153 Y11.333 Z-1.200 I0.075 J-0.369
G1 X104.153 Y11.333 Z-1.400
G2 X104.194 Y10.849 Z-1.400 I-0.266 J-0.266
G2 X101.826 Y6.410 Z-1.400 I-54.606 J26.277
G1 X101.818 Y6.403 Z-1.400
G1 X101.821 Y6.402 Z-1.400
G1 X101.194 Y5.364 Z-1.400
G2 X98.988 Y2.468 Z-1.400 I-13.149 J7.730
G2 X97.019 Y1.330 Z-1.400 I-2.924 J2.788
G1 X96.607 Y1.260 Z-1.400
G2 X94.359 Y2.688 Z-1.400 I-0.284 J2.036
G2 X94.443 Y4.402 Z-1.400 I4.952 J0.616
G2 X95.348 Y6.197 Z-1.400 I6.580 J-2.191
G2 X98.399 Y8.904 Z-1.400 I9.896 J-8.080
G2 X102.219 Y10.830 Z-1.400 I12.392 J-19.832
G2 X103.811 Y11.436 Z-1.400 I5.341 J-11.636
G2 X104.153 Y11.333 Z-1.400 I0.075 J-0.369
G1 X104.153 Y11.333 Z-1.600
G2 X104.194 Y10.849 Z-1.600 I-0.266 J-0.266
G2 X101.826 Y6.410 Z-1.600 I-54.606 J26.277
G1 X101.818 Y6.403 Z-1.600
G1 X101.821 Y6.402 Z-1.600
G1 X101.194 Y5.364 Z-1.600
G2 X98.988 Y2.468 Z-1.600 I-13.149 J7.730
G2 X97.019 Y1.330 Z-1.600 I-2.924 J2.788
G1 X96.607 Y1.260 Z-1.600
G2 X94.359 Y2.688 Z-1.600 I-0.284 J2.036
G2 X94.443 Y4.402 Z-1.600 I4.952 J0.616
G2 X95.348 Y6.197 Z-1.600 I6.580 J-2.191
G2 X98.399 Y8.904 Z-1.600 I9.896 J-8.080
G2 X102.219 Y10.830 Z-1.600 I12.392 J-19.832
G2 X103.811 Y11.436 Z-1.600 I5.341 J-11.636
G2 X104.153 Y11.333 Z-1.600 I0.075 J-0.369
G1 X104.153 Y11.333 Z-1.800
G2 X104.194 Y10.849 Z-1.800 I-0.266 J-0.266
G2 X101.826 Y6.410 Z-1.800 I-54.606 J26.277
G1 X101.818 Y6.403 Z-1.800
G1 X101.821 Y6.402 Z-1.800
G1 X101.194 Y5.364 Z-1.800
G2 X98.988 Y2.468 Z-1.800 I-13.149 J7.730
G2 X97.019 Y1.330 Z-1.800 I-2.924 J2.788
G1 X96.607 Y1.260 Z-1.800
G2 X94.359 Y2.688 Z-1.800 I-0.284 J2.036
G2 X94.443 Y4.402 Z-1.800 I4.952 J0.616
G2 X95.348 Y6.197 Z-1.800 I6.580 J-2.191
G2 X98.399 Y8.904 Z-1.800 I9.896 J-8.080
G2 X102.219 Y10.830 Z-1.800 I12.392 J-19.832
G2 X103.811 Y11.436 Z-1.800 I5.341 J-11.636
G2 X104.153 Y11.333 Z-1.800 I0.075 J-0.369
G1 X104.153 Y11.333 Z-2.000
G2 X104.194 Y10.849 Z-2.000 I-0.266 J-0.266
G2 X101.826 Y6.410 Z-2.000 I-54.606 J26.277
G1 X101.818 Y6.403 Z-2.000
G1 X101.821 Y6.402 Z-2.000
G1 X101.194 Y5.364 Z-2.000
G2 X98.988 Y2.468 Z-2.000 I-13.149 J7.730
G2 X97.019 Y1.330 Z-2.000 I-2.924 J2.788
G1 X96.607 Y1.260 Z-2.000
G2 X94.359 Y2.688 Z-2.000 I-0.284 J2.036
G2 X94.443 Y4.402 Z-2.000 I4.952 J0.616
G2 X95.348 Y6.197 Z-2.000 I6.580 J-2.191
G2 X98.399 Y8.904 Z-2.000 I9.896 J-8.080
G2 X102.219 Y10.830 Z-2.000 I12.392 J-19.832
G2 X103.811 Y11.436 Z-2.000 I5.341 J-11.636
G2 X104.153 Y11.333 Z-2.000 I0.075 J-0.369
G1 X104.153 Y11.333 Z-2.200
G2 X104.194 Y10.849 Z-2.200 I-0.266 J-0.266
G2 X101.826 Y6.410 Z-2.200 I-54.606 J26.277
G1 X101.818 Y6.403 Z-2.200
G1 X101.821 Y6.402 Z-2.200
G1 X101.194 Y5.364 Z-2.200
G2 X98.988 Y2.468 Z-2.200 I-13.149 J7.730
G2 X97.019 Y1.330 Z-2.200 I-2.924 J2.788
G1 X96.607 Y1.260 Z-2.200
G2 X94.359 Y2.688 Z-2.200 I-0.284 J2.036
G2 X94.443 Y4.402 Z-2.200 I4.952 J0.616
G2 X95.348 Y6.197 Z-2.200 I6.580 J-2.191
G2 X98.399 Y8.904 Z-2.200 I9.896 J-8.080
G2 X102.219 Y10.830 Z-2.200 I12.392 J-19.832
G2 X103.811 Y11.436 Z-2.200 I5.341 J-11.636
G2 X104.153 Y11.333 Z-2.200 I0.075 J-0.369
G1 X104.153 Y11.333 Z-2.400
G2 X104.194 Y10.849 Z-2.400 I-0.266 J-0.266
G2 X101.826 Y6.410 Z-2.400 I-54.606 J26.277
G1 X101.818 Y6.403 Z-2.400
G1 X101.821 Y6.402 Z-2.400
G1 X101.194 Y5.364 Z-2.400
G2 X98.988 Y2.468 Z-2.400 I-13.149 J7.730
G2 X97.019 Y1.330 Z-2.400 I-2.924 J2.788
G1 X96.607 Y1.260 Z-2.400
G2 X94.359 Y2.688 Z-2.400 I-0.284 J2.036
G2 X94.443 Y4.402 Z-2.400 I4.952 J0.616
G2 X95.348 Y6.197 Z-2.400 I6.580 J-2.191
G2 X98.399 Y8.904 Z-2.400 I9.896 J-8.080
G2 X102.219 Y10.830 Z-2.400 I12.392 J-19.832
G2 X103.811 Y11.436 Z-2.400 I5.341 J-11.636
G2 X104.153 Y11.333 Z-2.400 I0.075 J-0.369
G1 X104.153 Y11.333 Z-2.600
G2 X104.194 Y10.849 Z-2.600 I-0.266 J-0.266
G2 X101.826 Y6.410 Z-2.600 I-54.606 J26.277
G1 X101.818 Y6.403 Z-2.600
G1 X101.821 Y6.402 Z-2.600
G1 X101.194 Y5.364 Z-2.600
G2 X98.988 Y2.468 Z-2.600 I-13.149 J7.730
G2 X97.019 Y1.330 Z-2.600 I-2.924 J2.788
G1 X96.607 Y1.260 Z-2.600
G2 X94.359 Y2.688 Z-2.600 I-0.284 J2.036
G2 X94.443 Y4.402 Z-2.600 I4.952 J0.616
G2 X95.348 Y6.197 Z-2.600 I6.580 J-2.191
G2 X98.399 Y8.904 Z-2.600 I9.896 J-8.080
G2 X102.219 Y10.830 Z-2.600 I12.392 J-19.832
G2 X103.811 Y11.436 Z-2.600 I5.341 J-11.636
G2 X104.153 Y11.333 Z-2.600 I0.075 J-0.369
G1 X104.153 Y11.333 Z-2.800
G2 X104.194 Y10.849 Z-2.800 I-0.266 J-0.266
G2 X101.826 Y6.410 Z-2.800 I-54.606 J26.277
G1 X101.818 Y6.403 Z-2.800
G1 X101.821 Y6.402 Z-2.800
G1 X101.194 Y5.364 Z-2.800
G2 X98.988 Y2.468 Z-2.800 I-13.149 J7.730
G2 X97.019 Y1.330 Z-2.800 I-2.924 J2.788
G1 X96.607 Y1.260 Z-2.800
G2 X94.359 Y2.688 Z-2.800 I-0.284 J2.036
G2 X94.443 Y4.402 Z-2.800 I4.952 J0.616
G2 X95.348 Y6.197 Z-2.800 I6.580 J-2.191
G2 X98.399 Y8.904 Z-2.800 I9.896 J-8.080
G2 X102.219 Y10.830 Z-2.800 I12.392 J-19.832
G2 X103.811 Y11.436 Z-2.800 I5.341 J-11.636
G2 X104.153 Y11.333 Z-2.800 I0.075 J-0.369
G1 X104.153 Y11.333 Z-3.000
G2 X104.194 Y10.849 Z-3.000 I-0.266 J-0.266
G2 X101.826 Y6.410 Z-3.000 I-54.606 J26.277
G1 X101.818 Y6.403 Z-3.000
G1 X101.821 Y6.402 Z-3.000
G1 X101.194 Y5.364 Z-3.000
G2 X98.988 Y2.468 Z-3.000 I-13.149 J7.730
G2 X97.019 Y1.330 Z-3.000 I-2.924 J2.788
G1 X96.607 Y1.260 Z-3.000
G2 X94.359 Y2.688 Z-3.000 I-0.284 J2.036
G2 X94.443 Y4.402 Z-3.000 I4.952 J0.616
G2 X95.348 Y6.197 Z-3.000 I6.580 J-2.191
G2 X98.399 Y8.904 Z-3.000 I9.896 J-8.080
G2 X102.219 Y10.830 Z-3.000 I12.392 J-19.832
G2 X103.811 Y11.436 Z-3.000 I5.341 J-11.636
G2 X104.153 Y11.333 Z-3.000 I0.075 J-0.369
G1 X104.153 Y11.333 Z-3.200
G2 X104.194 Y10.849 Z-3.200 I-0.266 J-0.266
G2 X101.826 Y6.410 Z-3.200 I-54.606 J26.277
G1 X101.818 Y6.403 Z-3.200
G1 X101.821 Y6.402 Z-3.200
G1 X101.194 Y5.364 Z-3.200
G2 X98.988 Y2.468 Z-3.200 I-13.149 J7.730
G2 X97.019 Y1.330 Z-3.200 I-2.924 J2.788
G1 X96.607 Y1.260 Z-3.200
G2 X94.359 Y2.688 Z-3.200 I-0.284 J2.036
G2 X94.443 Y4.402 Z-3.200 I4.952 J0.616
G2 X95.348 Y6.197 Z-3.200 I6.580 J-2.191
G2 X98.399 Y8.904 Z-3.200 I9.896 J-8.080
G2 X102.219 Y10.830 Z-3.200 I12.392 J-19.832
G2 X103.811 Y11.436 Z-3.200 I5.341 J-11.636
G2 X104.153 Y11.333 Z-3.200 I0.075 J-0.369
G1 X104.153 Y11.333 Z-3.400
G2 X104.194 Y10.849 Z-3.400 I-0.266 J-0.266
G2 X101.826 Y6.410 Z-3.400 I-54.606 J26.277
G1 X101.818 Y6.403 Z-3.400
G1 X101.821 Y6.402 Z-3.400
G1 X101.194 Y5.364 Z-3.400
G2 X98.988 Y2.468 Z-3.400 I-13.149 J7.730
G2 X97.019 Y1.330 Z-3.400 I-2.924 J2.788
G1 X96.607 Y1.260 Z-3.400
G2 X94.359 Y2.688 Z-3.400 I-0.284 J2.036
G2 X94.443 Y4.402 Z-3.400 I4.952 J0.616
G2 X95.348 Y6.197 Z-3.400 I6.580 J-2.191
G2 X98.399 Y8.904 Z-3.400 I9.896 J-8.080
G2 X102.219 Y10.830 Z-3.400 I12.392 J-19.832
G2 X103.811 Y11.436 Z-3.400 I5.341 J-11.636
G2 X104.153 Y11.333 Z-3.400 I0.075 J-0.369
G1 X104.153 Y11.333 Z-3.600
G2 X104.194 Y10.849 Z-3.600 I-0.266 J-0.266
G2 X101.826 Y6.410 Z-3.600 I-54.606 J26.277
G1 X101.818 Y6.403 Z-3.600
G1 X101.821 Y6.402 Z-3.600
G1 X101.194 Y5.364 Z-3.600
G2 X98.988 Y2.468 Z-3.600 I-13.149 J7.730
G2 X97.019 Y1.330 Z-3.600 I-2.924 J2.788
G1 X96.607 Y1.260 Z-3.600
G2 X94.359 Y2.688 Z-3.600 I-0.284 J2.036
G2 X94.443 Y4.402 Z-3.600 I4.952 J0.616
G2 X95.348 Y6.197 Z-3.600 I6.580 J-2.191
G2 X98.399 Y8.904 Z-3.600 I9.896 J-8.080
G2 X102.219 Y10.830 Z-3.600 I12.392 J-19.832
G2 X103.811 Y11.436 Z-3.600 I5.341 J-11.636
G2 X104.153 Y11.333 Z-3.600 I0.075 J-0.369
G1 X104.153 Y11.333 Z-3.800
G2 X104.194 Y10.849 Z-3.800 I-0.266 J-0.266
G2 X101.826 Y6.410 Z-3.800 I-54.606 J26.277
G1 X101.818 Y6.403 Z-3.800
G1 X101.821 Y6.402 Z-3.800
G1 X101.194 Y5.364 Z-3.800
G2 X98.988 Y2.468 Z-3.800 I-13.149 J7.730
G2 X97.019 Y1.330 Z-3.800 I-2.924 J2.788
G1 X96.607 Y1.260 Z-3.800
G2 X94.359 Y2.688 Z-3.800 I-0.284 J2.036
G2 X94.443 Y4.402 Z-3.800 I4.952 J0.616
G2 X95.348 Y6.197 Z-3.800 I6.580 J-2.191
G2 X98.399 Y8.904 Z-3.800 I9.896 J-8.080
G2 X102.219 Y10.830 Z-3.800 I12.392 J-19.832
G2 X103.811 Y11.436 Z-3.800 I5.341 J-11.636
G2 X104.153 Y11.333 Z-3.800 I0.075 J-0.369
G1 X104.153 Y11.333 Z-4.000
G2 X104.194 Y10.849 Z-4.000 I-0.266 J-0.266
G2 X101.826 Y6.410 Z-4.000 I-54.606 J26.277
G1 X101.818 Y6.403 Z-4.000
G1 X101.821 Y6.402 Z-4.000
G1 X101.194 Y5.364 Z-4.000
G2 X98.988 Y2.468 Z-4.000 I-13.149 J7.730
G2 X97.019 Y1.330 Z-4.000 I-2.924 J2.788
G1 X96.607 Y1.260 Z-4.000
G2 X94.359 Y2.688 Z-4.000 I-0.284 J2.036
G2 X94.443 Y4.402 Z-4.000 I4.952 J0.616
G2 X95.348 Y6.197 Z-4.000 I6.580 J-2.191
G2 X98.399 Y8.904 Z-4.000 I9.896 J-8.080
G2 X102.219 Y10.830 Z-4.000 I12.392 J-19.832
G2 X103.811 Y11.436 Z-4.000 I5.341 J-11.636
G2 X104.153 Y11.333 Z-4.000 I0.075 J-0.369
G0 Z5.000
G0 X151.745 Y23.259
G0 Z3.000
G1 X151.745 Y23.259 Z-0.200
G2 X152.266 Y21.741 Z-0.200 I-1.292 J-1.292
G2 X151.724 Y20.175 Z-0.200 I-4.347 J0.627
G2 X149.265 Y16.573 Z-0.200 I-21.551 J12.073
G2 X145.678 Y13.114 Z-0.200 I-13.647 J10.561
G2 X143.737 Y12.438 Z-0.200 I-2.061 J2.794
G2 X142.765 Y12.980 Z-0.200 I-0.074 J1.011
G2 X143.075 Y15.190 Z-0.200 I3.214 J0.676
G2 X145.565 Y19.245 Z-0.200 I22.837 J-11.233
G2 X148.583 Y22.842 Z-0.200 I20.179 J-13.865
G2 X150.182 Y23.774 Z-0.200 I2.642 J-2.695
G2 X151.745 Y23.259 Z-0.200 I0.271 J-1.806
G1 X151.745 Y23.259 Z-0.400
G2 X152.266 Y21.741 Z-0.400 I-1.292 J-1.292
G2 X151.724 Y20.175 Z-0.400 I-4.347 J0.627
G2 X149.265 Y16.573 Z-0.400 I-21.551 J12.073
G2 X145.678 Y13.114 Z-0.400 I-13.647 J10.561
G2 X143.737 Y12.438 Z-0.400 I-2.061 J2.794
G2 X142.765 Y12.980 Z-0.400 I-0.074 J1.011
G2 X143.075 Y15.190 Z-0.400 I3.214 J0.676
G2 X145.565 Y19.245 Z-0.400 I22.837 J-11.233
G2 X148.583 Y22.842 Z-0.400 I20.179 J-13.865
G2 X150.182 Y23.774 Z-0.400 I2.642 J-2.695
G2 X151.745 Y23.259 Z-0.400 I0.271 J-1.806
G1 X151.745 Y23.259 Z-0.600
G2 X152.266 Y21.741 Z-0.600 I-1.292 J-1.292
G2 X151.724 Y20.175 Z-0.600 I-4.347 J0.627
G2 X149.265 Y16.573 Z-0.600 I-21.551 J12.073
G2 X145.678 Y13.114 Z-0.600 I-13.647 J10.561
G2 X143.737 Y12.438 Z-0.600 I-2.061 J2.794
G2 X142.765 Y12.980 Z-0.600 I-0.074 J1.011
G2 X143.075 Y15.190 Z-0.600 I3.214 J0.676
G2 X145.565 Y19.245 Z-0.600 I22.837 J-11.233
G2 X148.583 Y22.842 Z-0.600 I20.179 J-13.865
G2 X150.182 Y23.774 Z-0.600 I2.642 J-2.695
G2 X151.745 Y23.259 Z-0.600 I0.271 J-1.806
G1 X151.745 Y23.259 Z-0.800
G2 X152.266 Y21.741 Z-0.800 I-1.292 J-1.292
G2 X151.724 Y20.175 Z-0.800 I-4.347 J0.627
G2 X149.265 Y16.573 Z-0.800 I-21.551 J12.073
G2 X145.678 Y13.114 Z-0.800 I-13.647 J10.561
G2 X143.737 Y12.438 Z-0.800 I-2.061 J2.794
G2 X142.765 Y12.980 Z-0.800 I-0.074 J1.011
G2 X143.075 Y15.190 Z-0.800 I3.214 J0.676
G2 X145.565 Y19.245 Z-0.800 I22.837 J-11.233
G2 X148.583 Y22.842 Z-0.800 I20.179 J-13.865
G2 X150.182 Y23.774 Z-0.800 I2.642 J-2.695
G2 X151.745 Y23.259 Z-0.800 I0.271 J-1.806
G1 X151.745 Y23.259 Z-1.000
G2 X152.266 Y21.741 Z-1.000 I-1.292 J-1.292
G2 X151.724 Y20.175 Z-1.000 I-4.347 J0.627
G2 X149.265 Y16.573 Z-1.000 I-21.551 J12.073
G2 X145.678 Y13.114 Z-1.000 I-13.647 J10.561
G2 X143.737 Y12.438 Z-1.000 I-2.061 J2.794
G2 X142.765 Y12.980 Z-1.000 I-0.074 J1.011
G2 X143.075 Y15.190 Z-1.000 I3.214 J0.676
G2 X145.565 Y19.245 Z-1.000 I22.837 J-11.233
G2 X148.583 Y22.842 Z-1.000 I20.179 J-13.865
G2 X150.182 Y23.774 Z-1.000 I2.642 J-2.695
G2 X151.745 Y23.259 Z-1.000 I0.271 J-1.806
G1 X151.745 Y23.259 Z-1.200
G2 X152.266 Y21.741 Z-1.200 I-1.292 J-1.292
G2 X151.724 Y20.175 Z-1.200 I-4.347 J0.627
G2 X149.265 Y16.573 Z-1.200 I-21.551 J12.073
G2 X145.678 Y13.114 Z-1.200 I-13.647 J10.561
G2 X143.737 Y12.438 Z-1.200 I-2.061 J2.794
G2 X142.765 Y12.980 Z-1.200 I-0.074 J1.011
G2 X143.075 Y15.190 Z-1.200 I3.214 J0.676
G2 X145.565 Y19.245 Z-1.200 I22.837 J-11.233
G2 X148.583 Y22.842 Z-1.200 I20.179 J-13.865
G2 X150.182 Y23.774 Z-1.200 I2.642 J-2.695
G2 X151.745 Y23.259 Z-1.200 I0.271 J-1.806
G1 X151.745 Y23.259 Z-1.400
G2 X152.266 Y21.741 Z-1.400 I-1.292 J-1.292
G2 X151.724 Y20.175 Z-1.400 I-4.347 J0.627
G2 X149.265 Y16.573 Z-1.400 I-21.551 J12.073
G2 X145.678 Y13.114 Z-1.400 I-13.647 J10.561
G2 X143.737 Y12.438 Z-1.400 I-2.061 J2.794
G2 X142.765 Y12.980 Z-1.400 I-0.074 J1.011
G2 X143.075 Y15.190 Z-1.400 I3.214 J0.676
G2 X145.565 Y19.245 Z-1.400 I22.837 J-11.233
G2 X148.583 Y22.842 Z-1.400 I20.179 J-13.865
G2 X150.182 Y23.774 Z-1.400 I2.642 J-2.695
G2 X151.745 Y23.259 Z-1.400 I0.271 J-1.806
G1 X151.745 Y23.259 Z-1.600
G2 X152.266 Y21.741 Z-1.600 I-1.292 J-1.292
G2 X151.724 Y20.175 Z-1.600 I-4.347 J0.627
G2 X149.265 Y16.573 Z-1.600 I-21.551 J12.073
G2 X145.678 Y13.114 Z-1.600 I-13.647 J10.561
G2 X143.737 Y12.438 Z-1.600 I-2.061 J2.794
G2 X142.765 Y12.980 Z-1.600 I-0.074 J1.011
G2 X143.075 Y15.190 Z-1.600 I3.214 J0.676
G2 X145.565 Y19.245 Z-1.600 I22.837 J-11.233
G2 X148.583 Y22.842 Z-1.600 I20.179 J-13.865
G2 X150.182 Y23.774 Z-1.600 I2.642 J-2.695
G2 X151.745 Y23.259 Z-1.600 I0.271 J-1.806
G1 X151.745 Y23.259 Z-1.800
G2 X152.266 Y21.741 Z-1.800 I-1.292 J-1.292
G2 X151.724 Y20.175 Z-1.800 I-4.347 J0.627
G2 X149.265 Y16.573 Z-1.800 I-21.551 J12.073
G2 X145.678 Y13.114 Z-1.800 I-13.647 J10.561
G2 X143.737 Y12.438 Z-1.800 I-2.061 J2.794
G2 X142.765 Y12.980 Z-1.800 I-0.074 J1.011
G2 X143.075 Y15.190 Z-1.800 I3.214 J0.676
G2 X145.565 Y19.245 Z-1.800 I22.837 J-11.233
G2 X148.583 Y22.842 Z-1.800 I20.179 J-13.865
G2 X150.182 Y23.774 Z-1.800 I2.642 J-2.695
G2 X151.745 Y23.259 Z-1.800 I0.271 J-1.806
G1 X151.745 Y23.259 Z-2.000
G2 X152.266 Y21.741 Z-2.000 I-1.292 J-1.292
G2 X151.724 Y20.175 Z-2.000 I-4.347 J0.627
G2 X149.265 Y16.573 Z-2.000 I-21.551 J12.073
G2 X145.678 Y13.114 Z-2.000 I-13.647 J10.561
G2 X143.737 Y12.438 Z-2.000 I-2.061 J2.794
G2 X142.765 Y12.980 Z-2.000 I-0.074 J1.011
G2 X143.075 Y15.190 Z-2.000 I3.214 J0.676
G2 X145.565 Y19.245 Z-2.000 I22.837 J-11.233
G2 X148.583 Y22.842 Z-2.000 I20.179 J-13.865
G2 X150.182 Y23.774 Z-2.000 I2.642 J-2.695
G2 X151.745 Y23.259 Z-2.000 I0.271 J-1.806
G1 X151.745 Y23.259 Z-2.200
G2 X152.266 Y21.741 Z-2.200 I-1.292 J-1.292
G2 X151.724 Y20.175 Z-2.200 I-4.347 J0.627
G2 X149.265 Y16.573 Z-2.200 I-21.551 J12.073
G2 X145.678 Y13.114 Z-2.200 I-13.647 J10.561
G2 X143.737 Y12.438 Z-2.200 I-2.061 J2.794
G2 X142.765 Y12.980 Z-2.200 I-0.074 J1.011
G2 X143.075 Y15.190 Z-2.200 I3.214 J0.676
G2 X145.565 Y19.245 Z-2.200 I22.837 J-11.233
G2 X148.583 Y22.842 Z-2.200 I20.179 J-13.865
G2 X150.182 Y23.774 Z-2.200 I2.642 J-2.695
G2 X151.745 Y23.259 Z-2.200 I0.271 J-1.806
G1 X151.745 Y23.259 Z-2.400
G2 X152.266 Y21.741 Z-2.400 I-1.292 J-1.292
G2 X151.724 Y20.175 Z-2.400 I-4.347 J0.627
G2 X149.265 Y16.573 Z-2.400 I-21.551 J12.073
G2 X145.678 Y13.114 Z-2.400 I-13.647 J10.561
G2 X143.737 Y12.438 Z-2.400 I-2.061 J2.794
G2 X142.765 Y12.980 Z-2.400 I-0.074 J1.011
G2 X143.075 Y15.190 Z-2.400 I3.214 J0.676
G2 X145.565 Y19.245 Z-2.400 I22.837 J-11.233
G2 X148.583 Y22.842 Z-2.400 I20.179 J-13.865
G2 X150.182 Y23.774 Z-2.400 I2.642 J-2.695
G2 X151.745 Y23.259 Z-2.400 I0.271 J-1.806
G1 X151.745 Y23.259 Z-2.600
G2 X152.266 Y21.741 Z-2.600 I-1.292 J-1.292
G2 X151.724 Y20.175 Z-2.600 I-4.347 J0.627
G2 X149.265 Y16.573 Z-2.600 I-21.551 J12.073
G2 X145.678 Y13.114 Z-2.600 I-13.647 J10.561
G2 X143.737 Y12.438 Z-2.600 I-2.061 J2.794
G2 X142.765 Y12.980 Z-2.600 I-0.074 J1.011
G2 X143.075 Y15.190 Z-2.600 I3.214 J0.676
G2 X145.565 Y19.245 Z-2.600 I22.837 J-11.233
G2 X148.583 Y22.842 Z-2.600 I20.179 J-13.865
G2 X150.182 Y23.774 Z-2.600 I2.642 J-2.695
G2 X151.745 Y23.259 Z-2.600 I0.271 J-1.806
G1 X151.745 Y23.259 Z-2.800
G2 X152.266 Y21.741 Z-2.800 I-1.292 J-1.292
G2 X151.724 Y20.175 Z-2.800 I-4.347 J0.627
G2 X149.265 Y16.573 Z-2.800 I-21.551 J12.073
G2 X145.678 Y13.114 Z-2.800 I-13.647 J10.561
G2 X143.737 Y12.438 Z-2.800 I-2.061 J2.794
G2 X142.765 Y12.980 Z-2.800 I-0.074 J1.011
G2 X143.075 Y15.190 Z-2.800 I3.214 J0.676
G2 X145.565 Y19.245 Z-2.800 I22.837 J-11.233
G2 X148.583 Y22.842 Z-2.800 I20.179 J-13.865
G2 X150.182 Y23.774 Z-2.800 I2.642 J-2.695
G2 X151.745 Y23.259 Z-2.800 I0.271 J-1.806
G1 X151.745 Y23.259 Z-3.000
G2 X152.266 Y21.741 Z-3.000 I-1.292 J-1.292
G2 X151.724 Y20.175 Z-3.000 I-4.347 J0.627
G2 X149.265 Y16.573 Z-3.000 I-21.551 J12.073
G2 X145.678 Y13.114 Z-3.000 I-13.647 J10.561
G2 X143.737 Y12.438 Z-3.000 I-2.061 J2.794
G2 X142.765 Y12.980 Z-3.000 I-0.074 J1.011
G2 X143.075 Y15.190 Z-3.000 I3.214 J0.676
G2 X145.565 Y19.245 Z-3.000 I22.837 J-11.233
G2 X148.583 Y22.842 Z-3.000 I20.179 J-13.865
G2 X150.182 Y23.774 Z-3.000 I2.642 J-2.695
G2 X151.745 Y23.259 Z-3.000 I0.271 J-1.806
G1 X151.745 Y23.259 Z-3.200
G2 X152.266 Y21.741 Z-3.200 I-1.292 J-1.292
G2 X151.724 Y20.175 Z-3.200 I-4.347 J0.627
G2 X149.265 Y16.573 Z-3.200 I-21.551 J12.073
G2 X145.678 Y13.114 Z-3.200 I-13.647 J10.561
G2 X143.737 Y12.438 Z-3.200 I-2.061 J2.794
G2 X142.765 Y12.980 Z-3.200 I-0.074 J1.011
G2 X143.075 Y15.190 Z-3.200 I3.214 J0.676
G2 X145.565 Y19.245 Z-3.200 I22.837 J-11.233
G2 X148.583 Y22.842 Z-3.200 I20.179 J-13.865
G2 X150.182 Y23.774 Z-3.200 I2.642 J-2.695
G2 X151.745 Y23.259 Z-3.200 I0.271 J-1.806
G1 X151.745 Y23.259 Z-3.400
G2 X152.266 Y21.741 Z-3.400 I-1.292 J-1.292
G2 X151.724 Y20.175 Z-3.400 I-4.347 J0.627
G2 X149.265 Y16.573 Z-3.400 I-21.551 J12.073
G2 X145.678 Y13.114 Z-3.400 I-13.647 J10.561
G2 X143.737 Y12.438 Z-3.400 I-2.061 J2.794
G2 X142.765 Y12.980 Z-3.400 I-0.074 J1.011
G2 X143.075 Y15.190 Z-3.400 I3.214 J0.676
G2 X145.565 Y19.245 Z-3.400 I22.837 J-11.233
G2 X148.583 Y22.842 Z-3.400 I20.179 J-13.865
G2 X150.182 Y23.774 Z-3.400 I2.642 J-2.695
G2 X151.745 Y23.259 Z-3.400 I0.271 J-1.806
G1 X151.745 Y23.259 Z-3.600
G2 X152.266 Y21.741 Z-3.600 I-1.292 J-1.292
G2 X151.724 Y20.175 Z-3.600 I-4.347 J0.627
G2 X149.265 Y16.573 Z-3.600 I-21.551 J12.073
G2 X145.678 Y13.114 Z-3.600 I-13.647 J10.561
G2 X143.737 Y12.438 Z-3.600 I-2.061 J2.794
G2 X142.765 Y12.980 Z-3.600 I-0.074 J1.011
G2 X143.075 Y15.190 Z-3.600 I3.214 J0.676
G2 X145.565 Y19.245 Z-3.600 I22.837 J-11.233
G2 X148.583 Y22.842 Z-3.600 I20.179 J-13.865
G2 X150.182 Y23.774 Z-3.600 I2.642 J-2.695
G2 X151.745 Y23.259 Z-3.600 I0.271 J-1.806
G1 X151.745 Y23.259 Z-3.800
G2 X152.266 Y21.741 Z-3.800 I-1.292 J-1.292
G2 X151.724 Y20.175 Z-3.800 I-4.347 J0.627
G2 X149.265 Y16.573 Z-3.800 I-21.551 J12.073
G2 X145.678 Y13.114 Z-3.800 I-13.647 J10.561
G2 X143.737 Y12.438 Z-3.800 I-2.061 J2.794
G2 X142.765 Y12.980 Z-3.800 I-0.074 J1.011
G2 X143.075 Y15.190 Z-3.800 I3.214 J0.676
G2 X145.565 Y19.245 Z-3.800 I22.837 J-11.233
G2 X148.583 Y22.842 Z-3.800 I20.179 J-13.865
G2 X150.182 Y23.774 Z-3.800 I2.642 J-2.695
G2 X151.745 Y23.259 Z-3.800 I0.271 J-1.806
G1 X151.745 Y23.259 Z-4.000
G2 X152.266 Y21.741 Z-4.000 I-1.292 J-1.292
G2 X151.724 Y20.175 Z-4.000 I-4.347 J0.627
G2 X149.265 Y16.573 Z-4.000 I-21.551 J12.073
G2 X145.678 Y13.114 Z-4.000 I-13.647 J10.561
G2 X143.737 Y12.438 Z-4.000 I-2.061 J2.794
G2 X142.765 Y12.980 Z-4.000 I-0.074 J1.011
G2 X143.075 Y15.190 Z-4.000 I3.214 J0.676
G2 X145.565 Y19.245 Z-4.000 I22.837 J-11.233
G2 X148.583 Y22.842 Z-4.000 I20.179 J-13.865
G2 X150.182 Y23.774 Z-4.000 I2.642 J-2.695
G2 X151.745 Y23.259 Z-4.000 I0.271 J-1.806
G0 Z5.000
G0 X180.897 Y23.257
G0 Z3.000
G1 X180.897 Y23.257 Z-0.200
G2 X181.405 Y21.674 Z-0.200 I-1.287 J-1.287
G2 X180.823 Y20.063 Z-0.200 I-4.804 J0.825
G2 X178.416 Y16.589 Z-0.200 I-20.257 J11.466
G2 X175.261 Y13.399 Z-0.200 I-14.476 J11.159
G2 X173.359 Y12.474 Z-0.200 I-2.936 J3.622
G2 X172.137 Y12.690 Z-0.200 I-0.373 J1.458
G2 X171.824 Y13.636 Z-0.200 I0.801 J0.790
G2 X172.539 Y15.815 Z-0.200 I5.342 J-0.546
G2 X175.193 Y19.900 Z-0.200 I29.414 J-16.206
G2 X177.946 Y23.026 Z-0.200 I15.684 J-11.041
G2 X179.448 Y23.782 Z-0.200 I2.120 J-2.338
G2 X180.897 Y23.257 Z-0.200 I0.162 J-1.812
G1 X180.897 Y23.257 Z-0.400
G2 X181.405 Y21.674 Z-0.400 I-1.287 J-1.287
G2 X180.823 Y20.063 Z-0.400 I-4.804 J0.825
G2 X178.416 Y16.589 Z-0.400 I-20.257 J11.466
G2 X175.261 Y13.399 Z-0.400 I-14.476 J11.159
G2 X173.359 Y12.474 Z-0.400 I-2.936 J3.622
G2 X172.137 Y12.690 Z-0.400 I-0.373 J1.458
G2 X171.824 Y13.636 Z-0.400 I0.801 J0.790
G2 X172.539 Y15.815 Z-0.400 I5.342 J-0.546
G2 X175.193 Y19.900 Z-0.400 I29.414 J-16.206
G2 X177.946 Y23.026 Z-0.400 I15.684 J-11.041
G2 X179.448 Y23.782 Z-0.400 I2.120 J-2.338
G2 X180.897 Y23.257 Z-0.400 I0.162 J-1.812
G1 X180.897 Y23.257 Z-0.600
G2 X181.405 Y21.674 Z-0.600 I-1.287 J-1.287
G2 X180.823 Y20.063 Z-0.600 I-4.804 J0.825
G2 X178.416 Y16.589 Z-0.600 I-20.257 J11.466
G2 X175.261 Y13.399 Z-0.600 I-14.476 J11.159
G2 X173.359 Y12.474 Z-0.600 I-2.936 J3.622
G2 X172.137 Y12.690 Z-0.600 I-0.373 J1.458
G2 X171.824 Y13.636 Z-0.600 I0.801 J0.790
G2 X172.539 Y15.815 Z-0.600 I5.342 J-0.546
G2 X175.193 Y19.900 Z-0.600 I29.414 J-16.206
G2 X177.946 Y23.026 Z-0.600 I15.684 J-11.041
G2 X179.448 Y23.782 Z-0.600 I2.120 J-2.338
G2 X180.897 Y23.257 Z-0.600 I0.162 J-1.812
G1 X180.897 Y23.257 Z-0.800
G2 X181.405 Y21.674 Z-0.800 I-1.287 J-1.287
G2 X180.823 Y20.063 Z-0.800 I-4.804 J0.825
G2 X178.416 Y16.589 Z-0.800 I-20.257 J11.466
G2 X175.261 Y13.399 Z-0.800 I-14.476 J11.159
G2 X173.359 Y12.474 Z-0.800 I-2.936 J3.622
G2 X172.137 Y12.690 Z-0.800 I-0.373 J1.458
G2 X171.824 Y13.636 Z-0.800 I0.801 J0.790
G2 X172.539 Y15.815 Z-0.800 I5.342 J-0.546
G2 X175.193 Y19.900 Z-0.800 I29.414 J-16.206
G2 X177.946 Y23.026 Z-0.800 I15.684 J-11.041
G2 X179.448 Y23.782 Z-0.800 I2.120 J-2.338
G2 X180.897 Y23.257 Z-0.800 I0.162 J-1.812
G1 X180.897 Y23.257 Z-1.000
G2 X181.405 Y21.674 Z-1.000 I-1.287 J-1.287
G2 X180.823 Y20.063 Z-1.000 I-4.804 J0.825
G2 X178.416 Y16.589 Z-1.000 I-20.257 J11.466
G2 X175.261 Y13.399 Z-1.000 I-14.476 J11.159
G2 X173.359 Y12.474 Z-1.000 I-2.936 J3.622
G2 X172.137 Y12.690 Z-1.000 I-0.373 J1.458
G2 X171.824 Y13.636 Z-1.000 I0.801 J0.790
G2 X172.539 Y15.815 Z-1.000 I5.342 J-0.546
G2 X175.193 Y19.900 Z-1.000 I29.414 J-16.206
G2 X177.946 Y23.026 Z-1.000 I15.684 J-11.041
G2 X179.448 Y23.782 Z-1.000 I2.120 J-2.338
G2 X180.897 Y23.257 Z-1.000 I0.162 J-1.812
G1 X180.897 Y23.257 Z-1.200
G2 X181.405 Y21.674 Z-1.200 I-1.287 J-1.287
G2 X180.823 Y20.063 Z-1.200 I-4.804 J0.825
G2 X178.416 Y16.589 Z-1.200 I-20.257 J11.466
G2 X175.261 Y13.399 Z-1.200 I-14.476 J11.159
G2 X173.359 Y12.474 Z-1.200 I-2.936 J3.622
G2 X172.137 Y12.690 Z-1.200 I-0.373 J1.458
G2 X171.824 Y13.636 Z-1.200 I0.801 J0.790
G2 X172.539 Y15.815 Z-1.200 I5.342 J-0.546
G2 X175.193 Y19.900 Z-1.200 I29.414 J-16.206
G2 X177.946 Y23.026 Z-1.200 I15.684 J-11.041
G2 X179.448 Y23.782 Z-1.200 I2.120 J-2.338
G2 X180.897 Y23.257 Z-1.200 I0.162 J-1.812
G1 X180.897 Y23.257 Z-1.400
G2 X181.405 Y21.674 Z-1.400 I-1.287 J-1.287
G2 X180.823 Y20.063 Z-1.400 I-4.804 J0.825
G2 X178.416 Y16.589 Z-1.400 I-20.257 J11.466
G2 X175.261 Y13.399 Z-1.400 I-14.476 J11.159
G2 X173.359 Y12.474 Z-1.400 I-2.936 J3.622
G2 X172.137 Y12.690 Z-1.400 I-0.373 J1.458
G2 X171.824 Y13.636 Z-1.400 I0.801 J0.790
G2 X172.539 Y15.815 Z-1.400 I5.342 J-0.546
G2 X175.193 Y19.900 Z-1.400 I29.414 J-16.206
G2 X177.946 Y23.026 Z-1.400 I15.684 J-11.041
G2 X179.448 Y23.782 Z-1.400 I2.120 J-2.338
G2 X180.897 Y23.257 Z-1.400 I0.162 J-1.812
G1 X180.897 Y23.257 Z-1.600
G2 X181.405 Y21.674 Z-1.600 I-1.287 J-1.287
G2 X180.823 Y20.063 Z-1.600 I-4.804 J0.825
G2 X178.416 Y16.589 Z-1.600 I-20.257 J11.466
G2 X175.261 Y13.399 Z-1.600 I-14.476 J11.159
G2 X173.359 Y12.474 Z-1.600 I-2.936 J3.622
G2 X172.137 Y12.690 Z-1.600 I-0.373 J1.458
G2 X171.824 Y13.636 Z-1.600 I0.801 J0.790
G2 X172.539 Y15.815 Z-1.600 I5.342 J-0.546
G2 X175.193 Y19.900 Z-1.600 I29.414 J-16.206
G2 X177.946 Y23.026 Z-1.600 I15.684 J-11.041
G2 X179.448 Y23.782 Z-1.600 I2.120 J-2.338
G2 X180.897 Y23.257 Z-1.600 I0.162 J-1.812
G1 X180.897 Y23.257 Z-1.800
G2 X181.405 Y21.674 Z-1.800 I-1.287 J-1.287
G2 X180.823 Y20.063 Z-1.800 I-4.804 J0.825
G2 X178.416 Y16.589 Z-1.800 I-20.257 J11.466
G2 X175.261 Y13.399 Z-1.800 I-14.476 J11.159
G2 X173.359 Y12.474 Z-1.800 I-2.936 J3.622
G2 X172.137 Y12.690 Z-1.800 I-0.373 J1.458
G2 X171.824 Y13.636 Z-1.800 I0.801 J0.790
G2 X172.539 Y15.815 Z-1.800 I5.342 J-0.546
G2 X175.193 Y19.900 Z-1.800 I29.414 J-16.206
G2 X177.946 Y23.026 Z-1.800 I15.684 J-11.041
G2 X179.448 Y23.782 Z-1.800 I2.120 J-2.338
G2 X180.897 Y23.257 Z-1.800 I0.162 J-1.812
G1 X180.897 Y23.257 Z-2.000
G2 X181.405 Y21.674 Z-2.000 I-1.287 J-1.287
G2 X180.823 Y20.063 Z-2.000 I-4.804 J0.825
G2 X178.416 Y16.589 Z-2.000 I-20.257 J11.466
G2 X175.261 Y13.399 Z-2.000 I-14.476 J11.159
G2 X173.359 Y12.474 Z-2.000 I-2.936 J3.622
G2 X172.137 Y12.690 Z-2.000 I-0.373 J1.458
G2 X171.824 Y13.636 Z-2.000 I0.801 J0.790
G2 X172.539 Y15.815 Z-2.000 I5.342 J-0.546
G2 X175.193 Y19.900 Z-2.000 I29.414 J-16.206
G2 X177.946 Y23.026 Z-2.000 I15.684 J-11.041
G2 X179.448 Y23.782 Z-2.000 I2.120 J-2.338
G2 X180.897 Y23.257 Z-2.000 I0.162 J-1.812
G1 X180.897 Y23.257 Z-2.200
G2 X181.405 Y21.674 Z-2.200 I-1.287 J-1.287
G2 X180.823 Y20.063 Z-2.200 I-4.804 J0.825
G2 X178.416 Y16.589 Z-2.200 I-20.257 J11.466
G2 X175.261 Y13.399 Z-2.200 I-14.476 J11.159
G2 X173.359 Y12.474 Z-2.200 I-2.936 J3.622
G2 X172.137 Y12.690 Z-2.200 I-0.373 J1.458
G2 X171.824 Y13.636 Z-2.200 I0.801 J0.790
G2 X172.539 Y15.815 Z-2.200 I5.342 J-0.546
G2 X175.193 Y19.900 Z-2.200 I29.414 J-16.206
G2 X177.946 Y23.026 Z-2.200 I15.684 J-11.041
G2 X179.448 Y23.782 Z-2.200 I2.120 J-2.338
G2 X180.897 Y23.257 Z-2.200 I0.162 J-1.812
G1 X180.897 Y23.257 Z-2.400
G2 X181.405 Y21.674 Z-2.400 I-1.287 J-1.287
G2 X180.823 Y20.063 Z-2.400 I-4.804 J0.825
G2 X178.416 Y16.589 Z-2.400 I-20.257 J11.466
G2 X175.261 Y13.399 Z-2.400 I-14.476 J11.159
G2 X173.359 Y12.474 Z-2.400 I-2.936 J3.622
G2 X172.137 Y12.690 Z-2.400 I-0.373 J1.458
G2 X171.824 Y13.636 Z-2.400 I0.801 J0.790
G2 X172.539 Y15.815 Z-2.400 I5.342 J-0.546
G2 X175.193 Y19.900 Z-2.400 I29.414 J-16.206
G2 X177.946 Y23.026 Z-2.400 I15.684 J-11.041
G2 X179.448 Y23.782 Z-2.400 I2.120 J-2.338
G2 X180.897 Y23.257 Z-2.400 I0.162 J-1.812
G1 X180.897 Y23.257 Z-2.600
G2 X181.405 Y21.674 Z-2.600 I-1.287 J-1.287
G2 X180.823 Y20.063 Z-2.600 I-4.804 J0.825
G2 X178.416 Y16.589 Z-2.600 I-20.257 J11.466
G2 X175.261 Y13.399 Z-2.600 I-14.476 J11.159
G2 X173.359 Y12.474 Z-2.600 I-2.936 J3.622
G2 X172.137 Y12.690 Z-2.600 I-0.373 J1.458
G2 X171.824 Y13.636 Z-2.600 I0.801 J0.790
G2 X172.539 Y15.815 Z-2.600 I5.342 J-0.546
G2 X175.193 Y19.900 Z-2.600 I29.414 J-16.206
G2 X177.946 Y23.026 Z-2.600 I15.684 J-11.041
G2 X179.448 Y23.782 Z-2.600 I2.120 J-2.338
G2 X180.897 Y23.257 Z-2.600 I0.162 J-1.812
G1 X180.897 Y23.257 Z-2.800
G2 X181.405 Y21.674 Z-2.800 I-1.287 J-1.287
G2 X180.823 Y20.063 Z-2.800 I-4.804 J0.825
G2 X178.416 Y16.589 Z-2.800 I-20.257 J11.466
G2 X175.261 Y13.399 Z-2.800 I-14.476 J11.159
G2 X173.359 Y12.474 Z-2.800 I-2.936 J3.622
G2 X172.137 Y12.690 Z-2.800 I-0.373 J1.458
G2 X171.824 Y13.636 Z-2.800 I0.801 J0.790
G2 X172.539 Y15.815 Z-2.800 I5.342 J-0.546
G2 X175.193 Y19.900 Z-2.800 I29.414 J-16.206
G2 X177.946 Y23.026 Z-2.800 I15.684 J-11.041
G2 X179.448 Y23.782 Z-2.800 I2.120 J-2.338
G2 X180.897 Y23.257 Z-2.800 I0.162 J-1.812
G1 X180.897 Y23.257 Z-3.000
G2 X181.405 Y21.674 Z-3.000 I-1.287 J-1.287
G2 X180.823 Y20.063 Z-3.000 I-4.804 J0.825
G2 X178.416 Y16.589 Z-3.000 I-20.257 J11.466
G2 X175.261 Y13.399 Z-3.000 I-14.476 J11.159
G2 X173.359 Y12.474 Z-3.000 I-2.936 J3.622
G2 X172.137 Y12.690 Z-3.000 I-0.373 J1.458
G2 X171.824 Y13.636 Z-3.000 I0.801 J0.790
G2 X172.539 Y15.815 Z-3.000 I5.342 J-0.546
G2 X175.193 Y19.900 Z-3.000 I29.414 J-16.206
G2 X177.946 Y23.026 Z-3.000 I15.684 J-11.041
G2 X179.448 Y23.782 Z-3.000 I2.120 J-2.338
G2 X180.897 Y23.257 Z-3.000 I0.162 J-1.812
G1 X180.897 Y23.257 Z-3.200
G2 X181.405 Y21.674 Z-3.200 I-1.287 J-1.287
G2 X180.823 Y20.063 Z-3.200 I-4.804 J0.825
G2 X178.416 Y16.589 Z-3.200 I-20.257 J11.466
G2 X175.261 Y13.399 Z-3.200 I-14.476 J11.159
G2 X173.359 Y12.474 Z-3.200 I-2.936 J3.622
G2 X172.137 Y12.690 Z-3.200 I-0.373 J1.458
G2 X171.824 Y13.636 Z-3.200 I0.801 J0.790
G2 X172.539 Y15.815 Z-3.200 I5.342 J-0.546
G2 X175.193 Y19.900 Z-3.200 I29.414 J-16.206
G2 X177.946 Y23.026 Z-3.200 I15.684 J-11.041
G2 X179.448 Y23.782 Z-3.200 I2.120 J-2.338
G2 X180.897 Y23.257 Z-3.200 I0.162 J-1.812
G1 X180.897 Y23.257 Z-3.400
G2 X181.405 Y21.674 Z-3.400 I-1.287 J-1.287
G2 X180.823 Y20.063 Z-3.400 I-4.804 J0.825
G2 X178.416 Y16.589 Z-3.400 I-20.257 J11.466
G2 X175.261 Y13.399 Z-3.400 I-14.476 J11.159
G2 X173.359 Y12.474 Z-3.400 I-2.936 J3.622
G2 X172.137 Y12.690 Z-3.400 I-0.373 J1.458
G2 X171.824 Y13.636 Z-3.400 I0.801 J0.790
G2 X172.539 Y15.815 Z-3.400 I5.342 J-0.546
G2 X175.193 Y19.900 Z-3.400 I29.414 J-16.206
G2 X177.946 Y23.026 Z-3.400 I15.684 J-11.041
G2 X179.448 Y23.782 Z-3.400 I2.120 J-2.338
G2 X180.897 Y23.257 Z-3.400 I0.162 J-1.812
G1 X180.897 Y23.257 Z-3.600
G2 X181.405 Y21.674 Z-3.600 I-1.287 J-1.287
G2 X180.823 Y20.063 Z-3.600 I-4.804 J0.825
G2 X178.416 Y16.589 Z-3.600 I-20.257 J11.466
G2 X175.261 Y13.399 Z-3.600 I-14.476 J11.159
G2 X173.359 Y12.474 Z-3.600 I-2.936 J3.622
G2 X172.137 Y12.690 Z-3.600 I-0.373 J1.458
G2 X171.824 Y13.636 Z-3.600 I0.801 J0.790
G2 X172.539 Y15.815 Z-3.600 I5.342 J-0.546
G2 X175.193 Y19.900 Z-3.600 I29.414 J-16.206
G2 X177.946 Y23.026 Z-3.600 I15.684 J-11.041
G2 X179.448 Y23.782 Z-3.600 I2.120 J-2.338
G2 X180.897 Y23.257 Z-3.600 I0.162 J-1.812
G1 X180.897 Y23.257 Z-3.800
G2 X181.405 Y21.674 Z-3.800 I-1.287 J-1.287
G2 X180.823 Y20.063 Z-3.800 I-4.804 J0.825
G2 X178.416 Y16.589 Z-3.800 I-20.257 J11.466
G2 X175.261 Y13.399 Z-3.800 I-14.476 J11.159
G2 X173.359 Y12.474 Z-3.800 I-2.936 J3.622
G2 X172.137 Y12.690 Z-3.800 I-0.373 J1.458
G2 X171.824 Y13.636 Z-3.800 I0.801 J0.790
G2 X172.539 Y15.815 Z-3.800 I5.342 J-0.546
G2 X175.193 Y19.900 Z-3.800 I29.414 J-16.206
G2 X177.946 Y23.026 Z-3.800 I15.684 J-11.041
G2 X179.448 Y23.782 Z-3.800 I2.120 J-2.338
G2 X180.897 Y23.257 Z-3.800 I0.162 J-1.812
G1 X180.897 Y23.257 Z-4.000
G2 X181.405 Y21.674 Z-4.000 I-1.287 J-1.287
G2 X180.823 Y20.063 Z-4.000 I-4.804 J0.825
G2 X178.416 Y16.589 Z-4.000 I-20.257 J11.466
G2 X175.261 Y13.399 Z-4.000 I-14.476 J11.159
G2 X173.359 Y12.474 Z-4.000 I-2.936 J3.622
G2 X172.137 Y12.690 Z-4.000 I-0.373 J1.458
G2 X171.824 Y13.636 Z-4.000 I0.801 J0.790
G2 X172.539 Y15.815 Z-4.000 I5.342 J-0.546
G2 X175.193 Y19.900 Z-4.000 I29.414 J-16.206
G2 X177.946 Y23.026 Z-4.000 I15.684 J-11.041
G2 X179.448 Y23.782 Z-4.000 I2.120 J-2.338
G2 X180.897 Y23.257 Z-4.000 I0.162 J-1.812
G0 Z5.000
(finish operation: Profile_Edges)
(begin operation: Contour)
(machine: not set, mm/min)
(Contour)
(Compensated Tool Path. Diameter: 0.7)
G0 Z5.000
G0 X192.970 Y23.031
G0 Z3.000
G1 X192.970 Y23.031 Z-0.300
G2 X193.501 Y22.726 Z-0.300 I-0.026 J-0.658
G2 X193.301 Y22.218 Z-0.300 I-0.530 J-0.084
G3 X191.802 Y21.051 Z-0.300 I9.074 J-13.192
G3 X184.949 Y14.420 Z-0.300 I479.554 J-502.526
G2 X181.810 Y12.224 Z-0.300 I-7.552 J7.452
G2 X179.855 Y11.977 Z-0.300 I-1.337 J2.727
G2 X178.083 Y13.317 Z-0.300 I0.382 J2.347
G2 X177.909 Y15.048 Z-0.300 I3.592 J1.236
G2 X175.164 Y12.671 Z-0.300 I-8.959 J7.576
G2 X172.370 Y11.990 Z-0.300 I-2.420 J3.857
G2 X169.355 Y14.211 Z-0.300 I0.142 J3.349
G2 X169.207 Y16.830 Z-0.300 I5.213 J1.610
G2 X166.353 Y14.206 Z-0.300 I-73.080 J76.614
G2 X163.697 Y12.383 Z-0.300 I-7.101 J7.503
G2 X162.130 Y11.983 Z-0.300 I-1.680 J3.308
G2 X159.820 Y13.374 Z-0.300 I-0.127 J2.404
G2 X159.626 Y15.536 Z-0.300 I3.200 J1.376
G2 X161.246 Y19.721 Z-0.300 I17.664 J-4.432
G3 X156.088 Y14.685 Z-0.300 I387.864 J-402.380
G2 X153.489 Y12.648 Z-0.300 I-10.476 J10.690
G2 X151.393 Y11.919 Z-0.300 I-2.493 J3.788
G2 X148.911 Y13.401 Z-0.300 I-0.204 J2.479
G2 X148.716 Y15.030 Z-0.300 I3.539 J1.249
G2 X148.072 Y14.326 Z-0.300 I-7.898 J6.591
G2 X145.818 Y12.545 Z-0.300 I-5.865 J5.103
G2 X142.801 Y12.040 Z-0.300 I-2.216 J3.974
G2 X140.095 Y14.488 Z-0.300 I0.587 J3.369
G2 X140.070 Y16.873 Z-0.300 I6.271 J1.258
G2 X137.248 Y14.043 Z-0.300 I-35.362 J32.443
G2 X134.133 Y12.028 Z-0.300 I-6.360 J6.416
G2 X131.353 Y13.419 Z-0.300 I-0.731 J2.012
G2 X131.595 Y15.815 Z-0.300 I3.815 J0.825
G3 X132.915 Y18.527 Z-0.300 I-46.429 J24.281
G3 X133.009 Y18.862 Z-0.300 I-0.854 J0.418
G3 X131.363 Y18.631 Z-0.300 I1.820 J-18.937
G2 X130.632 Y19.214 Z-0.300 I-0.048 J0.690
G2 X127.025 Y12.393 Z-0.300 I-1230.925 J646.458
G2 X126.757 Y12.210 Z-0.300 I-0.309 J0.164
G1 X126.088 Y12.130 Z-0.300
G3 X123.129 Y11.902 Z-0.300 I7.207 J-112.780
G2 X122.762 Y12.424 Z-0.300 I-0.053 J0.353
G3 X126.687 Y19.702 Z-0.300 I-1611.417 J873.777
G2 X125.464 Y18.643 Z-0.300 I-5.636 J5.277
G2 X124.701 Y18.638 Z-0.300 I-0.385 J0.524
G2 X124.610 Y19.348 Z-0.300 I0.338 J0.404
G2 X125.419 Y20.341 Z-0.300 I6.369 J-4.360
G3 X128.263 Y23.439 Z-0.300 I-33.852 J33.927
G3 X132.262 Y30.462 Z-0.300 I-115.182 J70.241
G2 X134.552 Y34.462 Z-0.300 I53.170 J-27.793
G2 X135.064 Y34.882 Z-0.300 I0.706 J-0.338
G2 X138.371 Y35.216 Z-0.300 I17.716 J-158.843
G2 X138.715 Y34.708 Z-0.300 I0.032 J-0.348
G2 X131.024 Y19.959 Z-0.300 I-1794.588 J926.474
G1 X131.086 Y19.985 Z-0.300
G2 X132.433 Y20.267 Z-0.300 I5.365 J-22.226
G3 X133.561 Y20.850 Z-0.300 I-0.150 J1.675
G3 X134.848 Y22.648 Z-0.300 I-341.297 J245.447
G2 X136.178 Y24.082 Z-0.300 I4.122 J-2.492
G2 X139.896 Y22.976 Z-0.300 I1.452 J-1.920
G2 X137.631 Y20.500 Z-0.300 I-1.760 J-0.664
G2 X136.401 Y22.429 Z-0.300 I0.423 J1.626
G3 X136.023 Y21.930 Z-0.300 I5.580 J-4.622
G2 X134.376 Y19.836 Z-0.300 I-8.961 J5.351
G2 X136.182 Y17.643 Z-0.300 I-0.870 J-2.556
G2 X135.612 Y14.586 Z-0.300 I-6.835 J-0.307
G3 X135.871 Y14.793 Z-0.300 I-1.924 J2.679
G3 X142.267 Y20.953 Z-0.300 I-1143.354 J1193.599
G2 X147.735 Y24.235 Z-0.300 I10.533 J-11.351
G2 X151.047 Y24.347 Z-0.300 I1.811 J-4.544
G2 X152.621 Y23.043 Z-0.300 I-0.700 J-2.447
G2 X153.157 Y23.988 Z-0.300 I7.536 J-3.644
G2 X153.531 Y24.283 Z-0.300 I0.647 J-0.436
G2 X157.126 Y24.555 Z-0.300 I3.579 J-23.388
G2 X157.484 Y24.229 Z-0.300 I0.009 J-0.350
G2 X157.331 Y23.752 Z-0.300 I-1.121 J0.098
G2 X153.150 Y15.095 Z-0.300 I-5474.505 J2638.028
G3 X152.578 Y13.701 Z-0.300 I9.606 J-4.759
G3 X152.583 Y13.618 Z-0.300 I0.037 J-0.039
G3 X153.152 Y13.908 Z-0.300 I-0.595 J1.866
G3 X154.421 Y15.014 Z-0.300 I-8.896 J11.488
G3 X162.773 Y23.226 Z-0.300 I-170.869 J182.127
G3 X164.107 Y24.964 Z-0.300 I-13.575 J11.802
G3 X169.730 Y34.128 Z-0.300 I-397.357 J250.118
G2 X170.006 Y34.297 Z-0.300 I0.300 J-0.181
G2 X173.779 Y34.363 Z-0.300 I2.382 J-27.919
G2 X174.067 Y33.832 Z-0.300 I-0.012 J-0.350
G3 X171.590 Y29.550 Z-0.300 I69.693 J-43.182
G1 X171.842 Y29.545 Z-0.300
G1 X171.842 Y29.545 Z-0.300
G3 X173.609 Y29.537 Z-0.300 I1.127 J49.737
G2 X173.952 Y29.271 Z-0.300 I0.002 J-0.350
G2 X173.815 Y28.379 Z-0.300 I-8.346 J0.817
G2 X173.332 Y28.125 Z-0.300 I-0.478 J0.323
G3 X170.565 Y28.031 Z-0.300 I-0.092 J-38.112
G3 X165.282 Y18.944 Z-0.300 I458.262 J-272.474
G3 X163.016 Y14.107 Z-0.300 I28.926 J-16.505
G3 X162.905 Y13.670 Z-0.300 I1.159 J-0.526
G3 X163.011 Y13.496 Z-0.300 I0.109 J-0.053
G3 X163.785 Y13.858 Z-0.300 I-0.700 J2.507
G3 X167.322 Y16.921 Z-0.300 I-27.585 J35.421
G2 X172.458 Y21.724 Z-0.300 I60.485 J-59.544
G2 X177.562 Y24.427 Z-0.300 I8.603 J-10.074
G2 X179.826 Y24.464 Z-0.300 I1.211 J-4.821
G2 X181.795 Y22.997 Z-0.300 I-0.420 J-2.619
G2 X182.326 Y23.925 Z-0.300 I8.124 J-4.032
G2 X182.739 Y24.292 Z-0.300 I0.741 J-0.416
G2 X186.276 Y24.555 Z-0.300 I3.527 J-23.591
G2 X186.635 Y24.229 Z-0.300 I0.009 J-0.350
G2 X186.488 Y23.767 Z-0.300 I-1.087 J0.090
G2 X182.312 Y15.109 Z-0.300 I-3523.577 J1694.427
G3 X181.739 Y13.749 Z-0.300 I12.344 J-5.999
G3 X181.811 Y13.596 Z-0.300 I0.052 J-0.069
G3 X182.930 Y14.413 Z-0.300 I-3.859 J6.465
G3 X189.386 Y20.586 Z-0.300 I-3088.951 J3236.942
G2 X191.704 Y22.500 Z-0.300 I12.910 J-13.270
G2 X192.701 Y22.984 Z-0.300 I1.641 J-2.110
G2 X192.970 Y23.031 Z-0.300 I0.244 J-0.612
G0 X192.970 Y23.031 Z5.000
G0 X121.939 Y22.721 Z5.000
G0 X121.939 Y22.721 Z2.700
G1 X121.939 Y22.721 Z-0.300
G2 X121.808 Y22.447 Z-0.300 I-0.350 J-0.002
G3 X117.998 Y19.187 Z-0.300 I34.735 J-44.465
G2 X113.353 Y15.013 Z-0.300 I-34.614 J33.844
G2 X108.724 Y12.199 Z-0.300 I-13.442 J16.896
G2 X104.213 Y5.353 Z-0.300 I-54.987 J31.319
G2 X101.691 Y2.692 Z-0.300 I-12.264 J9.096
G2 X98.158 Y0.856 Z-0.300 I-5.387 J6.051
G2 X96.124 Y0.684 Z-0.300 I-1.577 J6.521
G2 X93.317 Y2.475 Z-0.300 I0.194 J3.399
G2 X93.326 Y5.551 Z-0.300 I3.371 J1.528
G2 X95.008 Y7.713 Z-0.300 I6.674 J-3.454
G2 X97.993 Y9.711 Z-0.300 I10.500 J-12.464
G2 X104.233 Y12.329 Z-0.300 I20.984 J-41.263
G3 X105.660 Y14.922 Z-0.300 I-97.157 J55.169
G2 X103.672 Y13.020 Z-0.300 I-14.027 J12.671
G2 X101.646 Y11.992 Z-0.300 I-3.139 J3.676
G2 X98.675 Y13.767 Z-0.300 I-0.567 J2.425
G2 X99.196 Y17.659 Z-0.300 I6.200 J1.152
G2 X101.090 Y21.371 Z-0.300 I404.592 J-204.139
G3 X100.628 Y21.093 Z-0.300 I0.711 J-1.702
G2 X98.814 Y19.570 Z-0.300 I-13.478 J14.218
G2 X98.301 Y19.338 Z-0.300 I-0.566 J0.568
G2 X97.765 Y19.922 Z-0.300 I-0.112 J0.435
G2 X98.079 Y20.447 Z-0.300 I1.315 J-0.430
G2 X101.517 Y23.796 Z-0.300 I17.127 J-14.146
G2 X102.748 Y24.450 Z-0.300 I2.083 J-2.436
G2 X104.821 Y23.917 Z-0.300 I0.611 J-1.920
G2 X105.572 Y21.085 Z-0.300 I-2.787 J-2.255
G2 X103.777 Y16.912 Z-0.300 I-13.586 J3.371
G3 X102.280 Y14.395 Z-0.300 I32.848 J-21.246
G3 X101.752 Y13.364 Z-0.300 I5.996 J-3.716
G3 X102.725 Y13.931 Z-0.300 I-0.941 J2.730
G3 X108.631 Y20.857 Z-0.300 I-28.652 J30.416
G3 X110.637 Y23.973 Z-0.300 I-311.382 J202.685
G2 X111.025 Y24.221 Z-0.300 I0.581 J-0.481
G2 X114.987 Y24.519 Z-0.300 I4.231 J-29.756
G2 X115.347 Y24.173 Z-0.300 I0.010 J-0.350
G2 X115.125 Y23.617 Z-0.300 I-1.328 J0.208
G2 X110.045 Y14.327 Z-0.300 I-33017.556 J18049.910
G3 X112.401 Y15.906 Z-0.300 I-8.386 J15.059
G3 X119.105 Y21.869 Z-0.300 I-198.140 J229.533
G2 X120.157 Y22.677 Z-0.300 I4.243 J-4.433
G2 X121.596 Y23.069 Z-0.300 I1.268 J-1.813
G2 X121.939 Y22.721 Z-0.300 I-0.008 J-0.350
G0 X121.939 Y22.721 Z5.000
G0 X94.495 Y22.720 Z5.000
G0 X94.495 Y22.720 Z2.700
G1 X94.495 Y22.720 Z-0.300
G2 X94.332 Y22.424 Z-0.300 I-0.350 J-0.000
G3 X92.935 Y21.421 Z-0.300 I5.093 J-8.576
G3 X86.640 Y15.420 Z-0.300 I75187.576 J-78855.478
G2 X82.580 Y13.735 Z-0.300 I-4.280 J4.580
G3 X82.166 Y13.550 Z-0.300 I0.381 J-1.409
G2 X80.176 Y12.391 Z-0.300 I-4.805 J5.966
G2 X76.439 Y12.072 Z-0.300 I-2.380 J5.819
G2 X73.713 Y14.861 Z-0.300 I0.999 J3.704
G2 X73.740 Y17.174 Z-0.300 I7.494 J1.068
G2 X71.079 Y14.580 Z-0.300 I-188.699 J190.910
G2 X69.773 Y13.422 Z-0.300 I-7.812 J7.500
G2 X67.052 Y12.012 Z-0.300 I-4.866 J6.058
G2 X64.268 Y12.713 Z-0.300 I-0.802 J2.693
G2 X63.664 Y14.698 Z-0.300 I2.689 J1.903
G2 X64.087 Y16.502 Z-0.300 I5.614 J-0.366
G2 X65.602 Y19.640 Z-0.300 I36.064 J-15.475
G1 X65.130 Y19.177 Z-0.300
G2 X59.892 Y14.157 Z-0.300 I-89.521 J88.167
G2 X57.167 Y12.271 Z-0.300 I-8.952 J10.020
G2 X53.964 Y12.688 Z-0.300 I-1.287 J2.616
G2 X53.259 Y13.967 Z-0.300 I2.045 J1.963
G2 X53.623 Y17.197 Z-0.300 I5.497 J1.015
G2 X57.184 Y21.691 Z-0.300 I10.502 J-4.662
G2 X54.989 Y21.619 Z-0.300 I-1.844 J22.638
G3 X53.320 Y20.114 Z-0.300 I27.733 J-32.442
G2 X48.360 Y15.296 Z-0.300 I-166.806 J166.743
G2 X45.870 Y13.090 Z-0.300 I-21.860 J22.165
G2 X43.235 Y11.940 Z-0.300 I-3.430 J4.266
G2 X40.606 Y13.348 Z-0.300 I-0.348 J2.509
G2 X40.460 Y15.111 Z-0.300 I4.295 J1.243
G2 X38.210 Y12.974 Z-0.300 I-12.960 J11.395
G2 X33.646 Y12.294 Z-0.300 I-2.887 J3.723
G2 X31.726 Y14.652 Z-0.300 I1.568 J3.238
G2 X31.755 Y16.872 Z-0.300 I7.520 J1.011
G2 X28.786 Y14.051 Z-0.300 I-189.641 J196.622
G2 X26.115 Y12.163 Z-0.300 I-7.232 J7.398
G2 X23.275 Y12.679 Z-0.300 I-1.053 J2.277
G2 X22.186 Y15.906 Z-0.300 I3.676 J3.038
G2 X22.984 Y19.528 Z-0.300 I13.836 J-1.149
G2 X25.801 Y25.066 Z-0.300 I33.473 J-13.545
G2 X31.477 Y33.648 Z-0.300 I219.459 J-138.971
G3 X28.447 Y30.181 Z-0.300 I25.096 J-24.989
G3 X18.826 Y15.059 Z-0.300 I91.659 J-68.938
G2 X17.222 Y12.633 Z-0.300 I-10.901 J5.466
G2 X16.029 Y11.990 Z-0.300 I-1.316 J1.013
G2 X14.533 Y12.859 Z-0.300 I0.135 J1.955
G2 X13.974 Y17.148 Z-0.300 I5.163 J2.853
G2 X15.281 Y20.615 Z-0.300 I25.062 J-7.465
G2 X22.278 Y32.959 Z-0.300 I112.849 J-55.812
G3 X20.121 Y30.288 Z-0.300 I24.365 J-21.885
G3 X12.067 Y18.261 Z-0.300 I218.767 J-155.214
G2 X8.899 Y14.172 Z-0.300 I-22.367 J14.058
G2 X7.098 Y12.694 Z-0.300 I-6.420 J5.982
G2 X5.522 Y12.005 Z-0.300 I-2.710 J4.050
G2 X1.105 Y14.205 Z-0.300 I-0.859 J3.810
G2 X2.050 Y18.771 Z-0.300 I4.061 J1.540
G2 X5.188 Y19.647 Z-0.300 I2.229 J-1.926
G2 X6.270 Y18.784 Z-0.300 I-0.362 J-1.564
G2 X6.265 Y16.746 Z-0.300 I-3.060 J-1.012
G2 X5.323 Y15.901 Z-0.300 I-1.668 J0.912
G3 X3.280 Y15.240 Z-0.300 I3.570 J-14.529
G3 X3.015 Y13.719 Z-0.300 I0.354 J-0.845
G3 X5.289 Y13.226 Z-0.300 I1.623 J1.996
G3 X7.519 Y14.739 Z-0.300 I-2.985 J6.798
G3 X11.285 Y19.601 Z-0.300 I-30.245 J27.318
G2 X19.490 Y31.501 Z-0.300 I135.646 J-84.741
G2 X23.349 Y35.893 Z-0.300 I27.633 J-20.391
G2 X24.126 Y36.482 Z-0.300 I2.249 J-2.161
G2 X25.014 Y36.696 Z-0.300 I0.691 J-0.916
G2 X25.536 Y35.668 Z-0.300 I-0.213 J-0.755
G2 X25.049 Y34.158 Z-0.300 I-23.175 J6.640
G2 X20.593 Y23.342 Z-0.300 I-553.877 J221.880
G3 X17.824 Y15.929 Z-0.300 I79.864 J-34.048
G2 X27.614 Y30.985 Z-0.300 I104.084 J-56.964
G2 X31.359 Y35.296 Z-0.300 I31.377 J-23.479
G2 X32.743 Y36.442 Z-0.300 I5.299 J-4.990
G2 X33.569 Y36.696 Z-0.300 I0.744 J-0.949
G2 X34.249 Y35.885 Z-0.300 I0.055 J-0.645
G2 X33.492 Y34.020 Z-0.300 I-51.706 J19.902
G3 X27.766 Y20.046 Z-0.300 I171.821 J-78.560
G3 X26.249 Y14.970 Z-0.300 I34.733 J-13.147
G3 X26.132 Y13.803 Z-0.300 I3.369 J-0.927
G3 X26.144 Y13.725 Z-0.300 I0.027 J-0.036
G3 X26.700 Y14.038 Z-0.300 I-0.730 J1.943
G3 X28.677 Y15.799 Z-0.300 I-17.878 J22.064
G2 X34.068 Y20.992 Z-0.300 I154.438 J-154.923
G2 X39.818 Y24.369 Z-0.300 I10.503 J-11.300
G2 X43.017 Y24.260 Z-0.300 I1.427 J-5.144
G2 X44.336 Y23.031 Z-0.300 I-0.897 J-2.286
G1 X44.486 Y23.324 Z-0.300
G2 X45.193 Y24.259 Z-0.300 I1.690 J-0.543
G2 X48.794 Y24.546 Z-0.300 I3.198 J-17.396
G2 X49.096 Y24.381 Z-0.300 I0.005 J-0.350
G2 X49.054 Y23.880 Z-0.300 I-0.517 J-0.210
G2 X44.542 Y14.438 Z-0.300 I-1914.691 J909.370
G3 X44.268 Y13.712 Z-0.300 I3.985 J-1.915
G3 X44.302 Y13.606 Z-0.300 I0.041 J-0.045
G3 X45.210 Y14.183 Z-0.300 I-1.644 J3.589
G3 X46.676 Y15.548 Z-0.300 I-19.997 J22.940
G3 X53.791 Y22.564 Z-0.300 I-288.674 J299.889
G2 X54.641 Y25.007 Z-0.300 I13.042 J-3.170
G2 X55.806 Y25.113 Z-0.300 I0.614 J-0.295
G2 X56.032 Y23.810 Z-0.300 I-17.154 J-3.643
G3 X56.184 Y23.618 Z-0.300 I0.295 J0.078
G2 X59.312 Y23.055 Z-0.300 I-39.766 J-229.955
G2 X61.011 Y22.028 Z-0.300 I-0.393 J-2.570
G2 X61.043 Y20.075 Z-0.300 I-2.207 J-1.013
G2 X59.131 Y17.027 Z-0.300 I-22.616 J12.066
G3 X57.163 Y14.253 Z-0.300 I29.027 J-22.676
G3 X56.906 Y13.638 Z-0.300 I0.963 J-0.765
G3 X57.157 Y13.749 Z-0.300 I-0.125 J0.621
G3 X58.559 Y14.809 Z-0.300 I-10.239 J15.004
G3 X68.393 Y24.222 Z-0.300 I-193.995 J212.509
G2 X68.608 Y24.322 Z-0.300 I0.247 J-0.248
G2 X72.280 Y24.548 Z-0.300 I4.800 J-48.163
G2 X72.590 Y23.855 Z-0.300 I-0.047 J-0.437
G2 X71.747 Y22.169 Z-0.300 I-47.945 J22.916
G3 X67.535 Y14.292 Z-0.300 I178.506 J-100.508
G3 X67.219 Y13.454 Z-0.300 I1.920 J-1.203
G3 X67.854 Y13.706 Z-0.300 I-0.766 J2.849
G3 X69.669 Y15.151 Z-0.300 I-6.152 J9.586
G3 X75.818 Y21.063 Z-0.300 I-2121.627 J2213.123
G2 X80.913 Y24.200 Z-0.300 I9.538 J-9.785
G2 X84.198 Y24.580 Z-0.300 I2.350 J-5.932
G2 X86.907 Y22.366 Z-0.300 I-0.391 J-3.242
G2 X86.417 Y18.257 Z-0.300 I-5.522 J-1.426
G2 X84.657 Y15.813 Z-0.300 I-14.796 J8.803
G3 X86.206 Y16.884 Z-0.300 I-4.163 J7.679
G2 X91.082 Y21.441 Z-0.300 I191.931 J-200.482
G2 X92.886 Y22.794 Z-0.300 I6.835 J-7.231
G2 X94.163 Y23.069 Z-0.300 I1.035 J-1.702
G2 X94.495 Y22.720 Z-0.300 I-0.018 J-0.350
G0 X94.495 Y22.720 Z5.000
G0 X74.364 Y28.032 Z5.000
G0 X74.364 Y28.032 Z2.700
G1 X74.364 Y28.032 Z-0.300
G2 X72.835 Y26.418 Z-0.300 I-2.239 J0.591
G1 X72.434 Y26.330 Z-0.300
G2 X70.621 Y26.902 Z-0.300 I-0.363 J2.006
G2 X70.259 Y28.494 Z-0.300 I1.660 J1.216
G2 X73.092 Y30.323 Z-0.300 I2.316 J-0.478
G2 X74.422 Y28.913 Z-0.300 I-0.365 J-1.677
G2 X74.364 Y28.032 Z-0.300 I-2.298 J-0.290
G1 X74.364 Y28.032 Z-0.600
G2 X72.835 Y26.418 Z-0.600 I-2.239 J0.591
G1 X72.434 Y26.330 Z-0.600
G2 X70.621 Y26.902 Z-0.600 I-0.363 J2.006
G2 X70.259 Y28.494 Z-0.600 I1.660 J1.216
G2 X73.092 Y30.323 Z-0.600 I2.316 J-0.478
G2 X74.422 Y28.913 Z-0.600 I-0.365 J-1.677
G2 X74.364 Y28.032 Z-0.600 I-2.298 J-0.290
G0 X74.364 Y28.032 Z5.000
G0 X72.443 Y24.497 Z5.000
G0 X72.443 Y24.497 Z2.400
G1 X72.443 Y24.497 Z-0.600
G2 X72.590 Y23.855 Z-0.600 I-0.210 J-0.386
G2 X71.747 Y22.169 Z-0.600 I-47.945 J22.916
G3 X67.535 Y14.292 Z-0.600 I178.506 J-100.508
G3 X67.219 Y13.454 Z-0.600 I1.920 J-1.203
G3 X67.854 Y13.706 Z-0.600 I-0.766 J2.849
G3 X69.669 Y15.151 Z-0.600 I-6.152 J9.586
G3 X75.818 Y21.063 Z-0.600 I-2121.627 J2213.123
G2 X80.913 Y24.200 Z-0.600 I9.538 J-9.785
G2 X84.198 Y24.580 Z-0.600 I2.350 J-5.932
G2 X86.907 Y22.366 Z-0.600 I-0.391 J-3.242
G2 X86.417 Y18.257 Z-0.600 I-5.522 J-1.426
G2 X84.657 Y15.813 Z-0.600 I-14.796 J8.803
G3 X86.206 Y16.884 Z-0.600 I-4.163 J7.679
G2 X91.082 Y21.441 Z-0.600 I191.931 J-200.482
G2 X92.886 Y22.794 Z-0.600 I6.835 J-7.231
G2 X94.163 Y23.069 Z-0.600 I1.035 J-1.702
G2 X94.332 Y22.424 Z-0.600 I-0.018 J-0.350
G3 X92.935 Y21.421 Z-0.600 I5.093 J-8.576
G3 X86.640 Y15.420 Z-0.600 I75187.576 J-78855.478
G2 X82.580 Y13.735 Z-0.600 I-4.280 J4.580
G3 X82.166 Y13.550 Z-0.600 I0.381 J-1.409
G2 X80.176 Y12.391 Z-0.600 I-4.805 J5.966
G2 X76.439 Y12.072 Z-0.600 I-2.380 J5.819
G2 X73.713 Y14.861 Z-0.600 I0.999 J3.704
G2 X73.740 Y17.174 Z-0.600 I7.494 J1.068
G2 X71.079 Y14.580 Z-0.600 I-188.699 J190.910
G2 X69.773 Y13.422 Z-0.600 I-7.812 J7.500
G2 X67.052 Y12.012 Z-0.600 I-4.866 J6.058
G2 X64.268 Y12.713 Z-0.600 I-0.802 J2.693
G2 X63.664 Y14.698 Z-0.600 I2.689 J1.903
G2 X64.087 Y16.502 Z-0.600 I5.614 J-0.366
G2 X65.602 Y19.640 Z-0.600 I36.064 J-15.475
G1 X65.130 Y19.177 Z-0.600
G2 X59.892 Y14.157 Z-0.600 I-89.521 J88.167
G2 X57.167 Y12.271 Z-0.600 I-8.952 J10.020
G2 X53.964 Y12.688 Z-0.600 I-1.287 J2.616
G2 X53.259 Y13.967 Z-0.600 I2.045 J1.963
G2 X53.623 Y17.197 Z-0.600 I5.497 J1.015
G2 X57.184 Y21.691 Z-0.600 I10.502 J-4.662
G2 X54.989 Y21.619 Z-0.600 I-1.844 J22.638
G3 X53.320 Y20.114 Z-0.600 I27.733 J-32.442
G2 X48.360 Y15.296 Z-0.600 I-166.806 J166.743
G2 X45.870 Y13.090 Z-0.600 I-21.860 J22.165
G2 X43.235 Y11.940 Z-0.600 I-3.430 J4.266
G2 X40.606 Y13.348 Z-0.600 I-0.348 J2.509
G2 X40.460 Y15.111 Z-0.600 I4.295 J1.243
G2 X38.210 Y12.974 Z-0.600 I-12.960 J11.395
G2 X33.646 Y12.294 Z-0.600 I-2.887 J3.723
G2 X31.726 Y14.652 Z-0.600 I1.568 J3.238
G2 X31.755 Y16.872 Z-0.600 I7.520 J1.011
G2 X28.786 Y14.051 Z-0.600 I-189.641 J196.622
G2 X26.115 Y12.163 Z-0.600 I-7.232 J7.398
G2 X23.275 Y12.679 Z-0.600 I-1.053 J2.277
G2 X22.186 Y15.906 Z-0.600 I3.676 J3.038
G2 X22.984 Y19.528 Z-0.600 I13.836 J-1.149
G2 X25.801 Y25.066 Z-0.600 I33.473 J-13.545
G2 X31.477 Y33.648 Z-0.600 I219.459 J-138.971
G3 X28.447 Y30.181 Z-0.600 I25.096 J-24.989
G3 X18.826 Y15.059 Z-0.600 I91.659 J-68.938
G2 X17.222 Y12.633 Z-0.600 I-10.901 J5.466
G2 X16.029 Y11.990 Z-0.600 I-1.316 J1.013
G2 X14.533 Y12.859 Z-0.600 I0.135 J1.955
G2 X13.974 Y17.148 Z-0.600 I5.163 J2.853
G2 X15.281 Y20.615 Z-0.600 I25.062 J-7.465
G2 X22.278 Y32.959 Z-0.600 I112.849 J-55.812
G3 X20.121 Y30.288 Z-0.600 I24.365 J-21.885
G3 X12.067 Y18.261 Z-0.600 I218.767 J-155.214
G2 X8.899 Y14.172 Z-0.600 I-22.367 J14.058
G2 X7.098 Y12.694 Z-0.600 I-6.420 J5.982
G2 X5.522 Y12.005 Z-0.600 I-2.710 J4.050
G2 X1.105 Y14.205 Z-0.600 I-0.859 J3.810
G2 X2.050 Y18.771 Z-0.600 I4.061 J1.540
G2 X5.188 Y19.647 Z-0.600 I2.229 J-1.926
G2 X6.270 Y18.784 Z-0.600 I-0.362 J-1.564
G2 X6.265 Y16.746 Z-0.600 I-3.060 J-1.012
G2 X5.323 Y15.901 Z-0.600 I-1.668 J0.912
G3 X3.280 Y15.240 Z-0.600 I3.570 J-14.529
G3 X3.015 Y13.719 Z-0.600 I0.354 J-0.845
G3 X5.289 Y13.226 Z-0.600 I1.623 J1.996
G3 X7.519 Y14.739 Z-0.600 I-2.985 J6.798
G3 X11.285 Y19.601 Z-0.600 I-30.245 J27.318
G2 X19.490 Y31.501 Z-0.600 I135.646 J-84.741
G2 X23.349 Y35.893 Z-0.600 I27.633 J-20.391
G2 X24.126 Y36.482 Z-0.600 I2.249 J-2.161
G2 X25.014 Y36.696 Z-0.600 I0.691 J-0.916
G2 X25.536 Y35.668 Z-0.600 I-0.213 J-0.755
G2 X25.049 Y34.158 Z-0.600 I-23.175 J6.640
G2 X20.593 Y23.342 Z-0.600 I-553.877 J221.880
G3 X17.824 Y15.929 Z-0.600 I79.864 J-34.048
G2 X27.614 Y30.985 Z-0.600 I104.084 J-56.964
G2 X31.359 Y35.296 Z-0.600 I31.377 J-23.479
G2 X32.743 Y36.442 Z-0.600 I5.299 J-4.990
G2 X33.569 Y36.696 Z-0.600 I0.744 J-0.949
G2 X34.249 Y35.885 Z-0.600 I0.055 J-0.645
G2 X33.492 Y34.020 Z-0.600 I-51.706 J19.902
G3 X27.766 Y20.046 Z-0.600 I171.821 J-78.560
G3 X26.249 Y14.970 Z-0.600 I34.733 J-13.147
G3 X26.132 Y13.803 Z-0.600 I3.369 J-0.927
G3 X26.144 Y13.725 Z-0.600 I0.027 J-0.036
G3 X26.700 Y14.038 Z-0.600 I-0.730 J1.943
G3 X28.677 Y15.799 Z-0.600 I-17.878 J22.064
G2 X34.068 Y20.992 Z-0.600 I154.438 J-154.923
G2 X39.818 Y24.369 Z-0.600 I10.503 J-11.300
G2 X43.017 Y24.260 Z-0.600 I1.427 J-5.144
G2 X44.336 Y23.031 Z-0.600 I-0.897 J-2.286
G1 X44.486 Y23.324 Z-0.600
G2 X45.193 Y24.259 Z-0.600 I1.690 J-0.543
G2 X48.794 Y24.546 Z-0.600 I3.198 J-17.396
G2 X49.096 Y24.381 Z-0.600 I0.005 J-0.350
G2 X49.054 Y23.880 Z-0.600 I-0.517 J-0.210
G2 X44.542 Y14.438 Z-0.600 I-1914.691 J909.370
G3 X44.268 Y13.712 Z-0.600 I3.985 J-1.915
G3 X44.302 Y13.606 Z-0.600 I0.041 J-0.045
G3 X45.210 Y14.183 Z-0.600 I-1.644 J3.589
G3 X46.676 Y15.548 Z-0.600 I-19.997 J22.940
G3 X53.791 Y22.564 Z-0.600 I-288.674 J299.889
G2 X54.641 Y25.007 Z-0.600 I13.042 J-3.170
G2 X55.806 Y25.113 Z-0.600 I0.614 J-0.295
G2 X56.032 Y23.810 Z-0.600 I-17.154 J-3.643
G3 X56.184 Y23.618 Z-0.600 I0.295 J0.078
G2 X59.312 Y23.055 Z-0.600 I-39.766 J-229.955
G2 X61.011 Y22.028 Z-0.600 I-0.393 J-2.570
G2 X61.043 Y20.075 Z-0.600 I-2.207 J-1.013
G2 X59.131 Y17.027 Z-0.600 I-22.616 J12.066
G3 X57.163 Y14.253 Z-0.600 I29.027 J-22.676
G3 X56.906 Y13.638 Z-0.600 I0.963 J-0.765
G3 X57.157 Y13.749 Z-0.600 I-0.125 J0.621
G3 X58.559 Y14.809 Z-0.600 I-10.239 J15.004
G3 X68.393 Y24.222 Z-0.600 I-193.995 J212.509
G2 X68.608 Y24.322 Z-0.600 I0.247 J-0.248
G2 X72.280 Y24.548 Z-0.600 I4.800 J-48.163
G2 X72.443 Y24.497 Z-0.600 I-0.047 J-0.437
G0 X72.443 Y24.497 Z5.000
G0 X97.747 Y19.854 Z5.000
G0 X97.747 Y19.854 Z2.400
G1 X97.747 Y19.854 Z-0.600
G2 X97.765 Y19.922 Z-0.600 I0.442 J-0.081
G2 X98.079 Y20.447 Z-0.600 I1.315 J-0.430
G2 X101.517 Y23.796 Z-0.600 I17.127 J-14.146
G2 X102.748 Y24.450 Z-0.600 I2.083 J-2.436
G2 X104.821 Y23.917 Z-0.600 I0.611 J-1.920
G2 X105.572 Y21.085 Z-0.600 I-2.787 J-2.255
G2 X103.777 Y16.912 Z-0.600 I-13.586 J3.371
G3 X102.280 Y14.395 Z-0.600 I32.848 J-21.246
G3 X101.752 Y13.364 Z-0.600 I5.996 J-3.716
G3 X102.725 Y13.931 Z-0.600 I-0.941 J2.730
G3 X108.631 Y20.857 Z-0.600 I-28.652 J30.416
G3 X110.637 Y23.973 Z-0.600 I-311.382 J202.685
G2 X111.025 Y24.221 Z-0.600 I0.581 J-0.481
G2 X114.987 Y24.519 Z-0.600 I4.231 J-29.756
G2 X115.347 Y24.173 Z-0.600 I0.010 J-0.350
G2 X115.125 Y23.617 Z-0.600 I-1.328 J0.208
G2 X110.045 Y14.327 Z-0.600 I-33017.556 J18049.910
G3 X112.401 Y15.906 Z-0.600 I-8.386 J15.059
G3 X119.105 Y21.869 Z-0.600 I-198.140 J229.533
G2 X120.157 Y22.677 Z-0.600 I4.243 J-4.433
G2 X121.596 Y23.069 Z-0.600 I1.268 J-1.813
G2 X121.808 Y22.447 Z-0.600 I-0.008 J-0.350
G3 X117.998 Y19.187 Z-0.600 I34.735 J-44.465
G2 X113.353 Y15.013 Z-0.600 I-34.614 J33.844
G2 X108.724 Y12.199 Z-0.600 I-13.442 J16.896
G2 X104.213 Y5.353 Z-0.600 I-54.987 J31.319
G2 X101.691 Y2.692 Z-0.600 I-12.264 J9.096
G2 X98.158 Y0.856 Z-0.600 I-5.387 J6.051
G2 X96.124 Y0.684 Z-0.600 I-1.577 J6.521
G2 X93.317 Y2.475 Z-0.600 I0.194 J3.399
G2 X93.326 Y5.551 Z-0.600 I3.371 J1.528
G2 X95.008 Y7.713 Z-0.600 I6.674 J-3.454
G2 X97.993 Y9.711 Z-0.600 I10.500 J-12.464
G2 X104.233 Y12.329 Z-0.600 I20.984 J-41.263
G3 X105.660 Y14.922 Z-0.600 I-97.157 J55.169
G2 X103.672 Y13.020 Z-0.600 I-14.027 J12.671
G2 X101.646 Y11.992 Z-0.600 I-3.139 J3.676
G2 X98.675 Y13.767 Z-0.600 I-0.567 J2.425
G2 X99.196 Y17.659 Z-0.600 I6.200 J1.152
G2 X101.090 Y21.371 Z-0.600 I404.592 J-204.139
G3 X100.628 Y21.093 Z-0.600 I0.711 J-1.702
G2 X98.814 Y19.570 Z-0.600 I-13.478 J14.218
G2 X98.301 Y19.338 Z-0.600 I-0.566 J0.568
G2 X97.747 Y19.854 Z-0.600 I-0.112 J0.435
G0 X97.747 Y19.854 Z5.000
G0 X122.734 Y12.358 Z5.000
G0 X122.734 Y12.358 Z2.400
G1 X122.734 Y12.358 Z-0.600
G2 X122.762 Y12.424 Z-0.600 I0.342 J-0.103
G3 X126.687 Y19.702 Z-0.600 I-1611.417 J873.777
G2 X125.464 Y18.643 Z-0.600 I-5.636 J5.277
G2 X124.701 Y18.638 Z-0.600 I-0.385 J0.524
G2 X124.610 Y19.348 Z-0.600 I0.338 J0.404
G2 X125.419 Y20.341 Z-0.600 I6.369 J-4.360
G3 X128.263 Y23.439 Z-0.600 I-33.852 J33.927
G3 X132.262 Y30.462 Z-0.600 I-115.182 J70.241
G2 X134.552 Y34.462 Z-0.600 I53.170 J-27.793
G2 X135.064 Y34.882 Z-0.600 I0.706 J-0.338
G2 X138.371 Y35.216 Z-0.600 I17.716 J-158.843
G2 X138.715 Y34.708 Z-0.600 I0.032 J-0.348
G2 X131.024 Y19.959 Z-0.600 I-1794.588 J926.474
G1 X131.086 Y19.985 Z-0.600
G2 X132.433 Y20.267 Z-0.600 I5.365 J-22.226
G3 X133.561 Y20.850 Z-0.600 I-0.150 J1.675
G3 X134.848 Y22.648 Z-0.600 I-341.297 J245.447
G2 X136.178 Y24.082 Z-0.600 I4.122 J-2.492
G2 X139.896 Y22.976 Z-0.600 I1.452 J-1.920
G2 X137.631 Y20.500 Z-0.600 I-1.760 J-0.664
G2 X136.401 Y22.429 Z-0.600 I0.423 J1.626
G3 X136.023 Y21.930 Z-0.600 I5.580 J-4.622
G2 X134.376 Y19.836 Z-0.600 I-8.961 J5.351
G2 X136.182 Y17.643 Z-0.600 I-0.870 J-2.556
G2 X135.612 Y14.586 Z-0.600 I-6.835 J-0.307
G3 X135.871 Y14.793 Z-0.600 I-1.924 J2.679
G3 X142.267 Y20.953 Z-0.600 I-1143.354 J1193.599
G2 X147.735 Y24.235 Z-0.600 I10.533 J-11.351
G2 X151.047 Y24.347 Z-0.600 I1.811 J-4.544
G2 X152.621 Y23.043 Z-0.600 I-0.700 J-2.447
G2 X153.157 Y23.988 Z-0.600 I7.536 J-3.644
G2 X153.531 Y24.283 Z-0.600 I0.647 J-0.436
G2 X157.126 Y24.555 Z-0.600 I3.579 J-23.388
G2 X157.484 Y24.229 Z-0.600 I0.009 J-0.350
G2 X157.331 Y23.752 Z-0.600 I-1.121 J0.098
G2 X153.150 Y15.095 Z-0.600 I-5474.505 J2638.028
G3 X152.578 Y13.701 Z-0.600 I9.606 J-4.759
G3 X152.583 Y13.618 Z-0.600 I0.037 J-0.039
G3 X153.152 Y13.908 Z-0.600 I-0.595 J1.866
G3 X154.421 Y15.014 Z-0.600 I-8.896 J11.488
G3 X162.773 Y23.226 Z-0.600 I-170.869 J182.127
G3 X164.107 Y24.964 Z-0.600 I-13.575 J11.802
G3 X169.730 Y34.128 Z-0.600 I-397.357 J250.118
G2 X170.006 Y34.297 Z-0.600 I0.300 J-0.181
G2 X173.779 Y34.363 Z-0.600 I2.382 J-27.919
G2 X174.067 Y33.832 Z-0.600 I-0.012 J-0.350
G3 X171.590 Y29.550 Z-0.600 I69.693 J-43.182
G1 X171.842 Y29.545 Z-0.600
G1 X171.842 Y29.545 Z-0.600
G3 X173.609 Y29.537 Z-0.600 I1.127 J49.737
G2 X173.952 Y29.271 Z-0.600 I0.002 J-0.350
G2 X173.815 Y28.379 Z-0.600 I-8.346 J0.817
G2 X173.332 Y28.125 Z-0.600 I-0.478 J0.323
G3 X170.565 Y28.031 Z-0.600 I-0.092 J-38.112
G3 X165.282 Y18.944 Z-0.600 I458.262 J-272.474
G3 X163.016 Y14.107 Z-0.600 I28.926 J-16.505
G3 X162.905 Y13.670 Z-0.600 I1.159 J-0.526
G3 X163.011 Y13.496 Z-0.600 I0.109 J-0.053
G3 X163.785 Y13.858 Z-0.600 I-0.700 J2.507
G3 X167.322 Y16.921 Z-0.600 I-27.585 J35.421
G2 X172.458 Y21.724 Z-0.600 I60.485 J-59.544
G2 X177.562 Y24.427 Z-0.600 I8.603 J-10.074
G2 X179.826 Y24.464 Z-0.600 I1.211 J-4.821
G2 X181.795 Y22.997 Z-0.600 I-0.420 J-2.619
G2 X182.326 Y23.925 Z-0.600 I8.124 J-4.032
G2 X182.739 Y24.292 Z-0.600 I0.741 J-0.416
G2 X186.276 Y24.555 Z-0.600 I3.527 J-23.591
G2 X186.635 Y24.229 Z-0.600 I0.009 J-0.350
G2 X186.488 Y23.767 Z-0.600 I-1.087 J0.090
G2 X182.312 Y15.109 Z-0.600 I-3523.577 J1694.427
G3 X181.739 Y13.749 Z-0.600 I12.344 J-5.999
G3 X181.811 Y13.596 Z-0.600 I0.052 J-0.069
G3 X182.930 Y14.413 Z-0.600 I-3.859 J6.465
G3 X189.386 Y20.586 Z-0.600 I-3088.951 J3236.942
G2 X191.704 Y22.500 Z-0.600 I12.910 J-13.270
G2 X192.701 Y22.984 Z-0.600 I1.641 J-2.110
G2 X193.501 Y22.726 Z-0.600 I0.244 J-0.612
G2 X193.301 Y22.218 Z-0.600 I-0.530 J-0.084
G3 X191.802 Y21.051 Z-0.600 I9.074 J-13.192
G3 X184.949 Y14.420 Z-0.600 I479.554 J-502.526
G2 X181.810 Y12.224 Z-0.600 I-7.552 J7.452
G2 X179.855 Y11.977 Z-0.600 I-1.337 J2.727
G2 X178.083 Y13.317 Z-0.600 I0.382 J2.347
G2 X177.909 Y15.048 Z-0.600 I3.592 J1.236
G2 X175.164 Y12.671 Z-0.600 I-8.959 J7.576
G2 X172.370 Y11.990 Z-0.600 I-2.420 J3.857
G2 X169.355 Y14.211 Z-0.600 I0.142 J3.349
G2 X169.207 Y16.830 Z-0.600 I5.213 J1.610
G2 X166.353 Y14.206 Z-0.600 I-73.080 J76.614
G2 X163.697 Y12.383 Z-0.600 I-7.101 J7.503
G2 X162.130 Y11.983 Z-0.600 I-1.680 J3.308
G2 X159.820 Y13.374 Z-0.600 I-0.127 J2.404
G2 X159.626 Y15.536 Z-0.600 I3.200 J1.376
G2 X161.246 Y19.721 Z-0.600 I17.664 J-4.432
G3 X156.088 Y14.685 Z-0.600 I387.864 J-402.380
G2 X153.489 Y12.648 Z-0.600 I-10.476 J10.690
G2 X151.393 Y11.919 Z-0.600 I-2.493 J3.788
G2 X148.911 Y13.401 Z-0.600 I-0.204 J2.479
G2 X148.716 Y15.030 Z-0.600 I3.539 J1.249
G2 X148.072 Y14.326 Z-0.600 I-7.898 J6.591
G2 X145.818 Y12.545 Z-0.600 I-5.865 J5.103
G2 X142.801 Y12.040 Z-0.600 I-2.216 J3.974
G2 X140.095 Y14.488 Z-0.600 I0.587 J3.369
G2 X140.070 Y16.873 Z-0.600 I6.271 J1.258
G2 X137.248 Y14.043 Z-0.600 I-35.362 J32.443
G2 X134.133 Y12.028 Z-0.600 I-6.360 J6.416
G2 X131.353 Y13.419 Z-0.600 I-0.731 J2.012
G2 X131.595 Y15.815 Z-0.600 I3.815 J0.825
G3 X132.915 Y18.527 Z-0.600 I-46.429 J24.281
G3 X133.009 Y18.862 Z-0.600 I-0.854 J0.418
G3 X131.363 Y18.631 Z-0.600 I1.820 J-18.937
G2 X130.632 Y19.214 Z-0.600 I-0.048 J0.690
G2 X127.025 Y12.393 Z-0.600 I-1230.925 J646.458
G2 X126.757 Y12.210 Z-0.600 I-0.309 J0.164
G1 X126.088 Y12.130 Z-0.600
G3 X123.129 Y11.902 Z-0.600 I7.207 J-112.780
G2 X122.734 Y12.358 Z-0.600 I-0.053 J0.353
G1 X122.734 Y12.358 Z-0.900
G2 X122.762 Y12.424 Z-0.900 I0.342 J-0.103
G3 X126.687 Y19.702 Z-0.900 I-1611.417 J873.777
G2 X125.464 Y18.643 Z-0.900 I-5.636 J5.277
G2 X124.701 Y18.638 Z-0.900 I-0.385 J0.524
G2 X124.610 Y19.348 Z-0.900 I0.338 J0.404
G2 X125.419 Y20.341 Z-0.900 I6.369 J-4.360
G3 X128.263 Y23.439 Z-0.900 I-33.852 J33.927
G3 X132.262 Y30.462 Z-0.900 I-115.182 J70.241
G2 X134.552 Y34.462 Z-0.900 I53.170 J-27.793
G2 X135.064 Y34.882 Z-0.900 I0.706 J-0.338
G2 X138.371 Y35.216 Z-0.900 I17.716 J-158.843
G2 X138.715 Y34.708 Z-0.900 I0.032 J-0.348
G2 X131.024 Y19.959 Z-0.900 I-1794.588 J926.474
G1 X131.086 Y19.985 Z-0.900
G2 X132.433 Y20.267 Z-0.900 I5.365 J-22.226
G3 X133.561 Y20.850 Z-0.900 I-0.150 J1.675
G3 X134.848 Y22.648 Z-0.900 I-341.297 J245.447
G2 X136.178 Y24.082 Z-0.900 I4.122 J-2.492
G2 X139.896 Y22.976 Z-0.900 I1.452 J-1.920
G2 X137.631 Y20.500 Z-0.900 I-1.760 J-0.664
G2 X136.401 Y22.429 Z-0.900 I0.423 J1.626
G3 X136.023 Y21.930 Z-0.900 I5.580 J-4.622
G2 X134.376 Y19.836 Z-0.900 I-8.961 J5.351
G2 X136.182 Y17.643 Z-0.900 I-0.870 J-2.556
G2 X135.612 Y14.586 Z-0.900 I-6.835 J-0.307
G3 X135.871 Y14.793 Z-0.900 I-1.924 J2.679
G3 X142.267 Y20.953 Z-0.900 I-1143.354 J1193.599
G2 X147.735 Y24.235 Z-0.900 I10.533 J-11.351
G2 X151.047 Y24.347 Z-0.900 I1.811 J-4.544
G2 X152.621 Y23.043 Z-0.900 I-0.700 J-2.447
G2 X153.157 Y23.988 Z-0.900 I7.536 J-3.644
G2 X153.531 Y24.283 Z-0.900 I0.647 J-0.436
G2 X157.126 Y24.555 Z-0.900 I3.579 J-23.388
G2 X157.484 Y24.229 Z-0.900 I0.009 J-0.350
G2 X157.331 Y23.752 Z-0.900 I-1.121 J0.098
G2 X153.150 Y15.095 Z-0.900 I-5474.505 J2638.028
G3 X152.578 Y13.701 Z-0.900 I9.606 J-4.759
G3 X152.583 Y13.618 Z-0.900 I0.037 J-0.039
G3 X153.152 Y13.908 Z-0.900 I-0.595 J1.866
G3 X154.421 Y15.014 Z-0.900 I-8.896 J11.488
G3 X162.773 Y23.226 Z-0.900 I-170.869 J182.127
G3 X164.107 Y24.964 Z-0.900 I-13.575 J11.802
G3 X169.730 Y34.128 Z-0.900 I-397.357 J250.118
G2 X170.006 Y34.297 Z-0.900 I0.300 J-0.181
G2 X173.779 Y34.363 Z-0.900 I2.382 J-27.919
G2 X174.067 Y33.832 Z-0.900 I-0.012 J-0.350
G3 X171.590 Y29.550 Z-0.900 I69.693 J-43.182
G1 X171.842 Y29.545 Z-0.900
G1 X171.842 Y29.545 Z-0.900
G3 X173.609 Y29.537 Z-0.900 I1.127 J49.737
G2 X173.952 Y29.271 Z-0.900 I0.002 J-0.350
G2 X173.815 Y28.379 Z-0.900 I-8.346 J0.817
G2 X173.332 Y28.125 Z-0.900 I-0.478 J0.323
G3 X170.565 Y28.031 Z-0.900 I-0.092 J-38.112
G3 X165.282 Y18.944 Z-0.900 I458.262 J-272.474
G3 X163.016 Y14.107 Z-0.900 I28.926 J-16.505
G3 X162.905 Y13.670 Z-0.900 I1.159 J-0.526
G3 X163.011 Y13.496 Z-0.900 I0.109 J-0.053
G3 X163.785 Y13.858 Z-0.900 I-0.700 J2.507
G3 X167.322 Y16.921 Z-0.900 I-27.585 J35.421
G2 X172.458 Y21.724 Z-0.900 I60.485 J-59.544
G2 X177.562 Y24.427 Z-0.900 I8.603 J-10.074
G2 X179.826 Y24.464 Z-0.900 I1.211 J-4.821
G2 X181.795 Y22.997 Z-0.900 I-0.420 J-2.619
G2 X182.326 Y23.925 Z-0.900 I8.124 J-4.032
G2 X182.739 Y24.292 Z-0.900 I0.741 J-0.416
G2 X186.276 Y24.555 Z-0.900 I3.527 J-23.591
G2 X186.635 Y24.229 Z-0.900 I0.009 J-0.350
G2 X186.488 Y23.767 Z-0.900 I-1.087 J0.090
G2 X182.312 Y15.109 Z-0.900 I-3523.577 J1694.427
G3 X181.739 Y13.749 Z-0.900 I12.344 J-5.999
G3 X181.811 Y13.596 Z-0.900 I0.052 J-0.069
G3 X182.930 Y14.413 Z-0.900 I-3.859 J6.465
G3 X189.386 Y20.586 Z-0.900 I-3088.951 J3236.942
G2 X191.704 Y22.500 Z-0.900 I12.910 J-13.270
G2 X192.701 Y22.984 Z-0.900 I1.641 J-2.110
G2 X193.501 Y22.726 Z-0.900 I0.244 J-0.612
G2 X193.301 Y22.218 Z-0.900 I-0.530 J-0.084
G3 X191.802 Y21.051 Z-0.900 I9.074 J-13.192
G3 X184.949 Y14.420 Z-0.900 I479.554 J-502.526
G2 X181.810 Y12.224 Z-0.900 I-7.552 J7.452
G2 X179.855 Y11.977 Z-0.900 I-1.337 J2.727
G2 X178.083 Y13.317 Z-0.900 I0.382 J2.347
G2 X177.909 Y15.048 Z-0.900 I3.592 J1.236
G2 X175.164 Y12.671 Z-0.900 I-8.959 J7.576
G2 X172.370 Y11.990 Z-0.900 I-2.420 J3.857
G2 X169.355 Y14.211 Z-0.900 I0.142 J3.349
G2 X169.207 Y16.830 Z-0.900 I5.213 J1.610
G2 X166.353 Y14.206 Z-0.900 I-73.080 J76.614
G2 X163.697 Y12.383 Z-0.900 I-7.101 J7.503
G2 X162.130 Y11.983 Z-0.900 I-1.680 J3.308
G2 X159.820 Y13.374 Z-0.900 I-0.127 J2.404
G2 X159.626 Y15.536 Z-0.900 I3.200 J1.376
G2 X161.246 Y19.721 Z-0.900 I17.664 J-4.432
G3 X156.088 Y14.685 Z-0.900 I387.864 J-402.380
G2 X153.489 Y12.648 Z-0.900 I-10.476 J10.690
G2 X151.393 Y11.919 Z-0.900 I-2.493 J3.788
G2 X148.911 Y13.401 Z-0.900 I-0.204 J2.479
G2 X148.716 Y15.030 Z-0.900 I3.539 J1.249
G2 X148.072 Y14.326 Z-0.900 I-7.898 J6.591
G2 X145.818 Y12.545 Z-0.900 I-5.865 J5.103
G2 X142.801 Y12.040 Z-0.900 I-2.216 J3.974
G2 X140.095 Y14.488 Z-0.900 I0.587 J3.369
G2 X140.070 Y16.873 Z-0.900 I6.271 J1.258
G2 X137.248 Y14.043 Z-0.900 I-35.362 J32.443
G2 X134.133 Y12.028 Z-0.900 I-6.360 J6.416
G2 X131.353 Y13.419 Z-0.900 I-0.731 J2.012
G2 X131.595 Y15.815 Z-0.900 I3.815 J0.825
G3 X132.915 Y18.527 Z-0.900 I-46.429 J24.281
G3 X133.009 Y18.862 Z-0.900 I-0.854 J0.418
G3 X131.363 Y18.631 Z-0.900 I1.820 J-18.937
G2 X130.632 Y19.214 Z-0.900 I-0.048 J0.690
G2 X127.025 Y12.393 Z-0.900 I-1230.925 J646.458
G2 X126.757 Y12.210 Z-0.900 I-0.309 J0.164
G1 X126.088 Y12.130 Z-0.900
G3 X123.129 Y11.902 Z-0.900 I7.207 J-112.780
G2 X122.734 Y12.358 Z-0.900 I-0.053 J0.353
G0 X122.734 Y12.358 Z5.000
G0 X117.044 Y18.239 Z5.000
G0 X117.044 Y18.239 Z2.100
G1 X117.044 Y18.239 Z-0.900
G2 X113.353 Y15.013 Z-0.900 I-33.661 J34.792
G2 X108.724 Y12.199 Z-0.900 I-13.442 J16.896
G2 X104.213 Y5.353 Z-0.900 I-54.987 J31.319
G2 X101.691 Y2.692 Z-0.900 I-12.264 J9.096
G2 X98.158 Y0.856 Z-0.900 I-5.387 J6.051
G2 X96.124 Y0.684 Z-0.900 I-1.577 J6.521
G2 X93.317 Y2.475 Z-0.900 I0.194 J3.399
G2 X93.326 Y5.551 Z-0.900 I3.371 J1.528
G2 X95.008 Y7.713 Z-0.900 I6.674 J-3.454
G2 X97.993 Y9.711 Z-0.900 I10.500 J-12.464
G2 X104.233 Y12.329 Z-0.900 I20.984 J-41.263
G3 X105.660 Y14.922 Z-0.900 I-97.157 J55.169
G2 X103.672 Y13.020 Z-0.900 I-14.027 J12.671
G2 X101.646 Y11.992 Z-0.900 I-3.139 J3.676
G2 X98.675 Y13.767 Z-0.900 I-0.567 J2.425
G2 X99.196 Y17.659 Z-0.900 I6.200 J1.152
G2 X101.090 Y21.371 Z-0.900 I404.592 J-204.139
G3 X100.628 Y21.093 Z-0.900 I0.711 J-1.702
G2 X98.814 Y19.570 Z-0.900 I-13.478 J14.218
G2 X98.301 Y19.338 Z-0.900 I-0.566 J0.568
G2 X97.765 Y19.922 Z-0.900 I-0.112 J0.435
G2 X98.079 Y20.447 Z-0.900 I1.315 J-0.430
G2 X101.517 Y23.796 Z-0.900 I17.127 J-14.146
G2 X102.748 Y24.450 Z-0.900 I2.083 J-2.436
G2 X104.821 Y23.917 Z-0.900 I0.611 J-1.920
G2 X105.572 Y21.085 Z-0.900 I-2.787 J-2.255
G2 X103.777 Y16.912 Z-0.900 I-13.586 J3.371
G3 X102.280 Y14.395 Z-0.900 I32.848 J-21.246
G3 X101.752 Y13.364 Z-0.900 I5.996 J-3.716
G3 X102.725 Y13.931 Z-0.900 I-0.941 J2.730
G3 X108.631 Y20.857 Z-0.900 I-28.652 J30.416
G3 X110.637 Y23.973 Z-0.900 I-311.382 J202.685
G2 X111.025 Y24.221 Z-0.900 I0.581 J-0.481
G2 X114.987 Y24.519 Z-0.900 I4.231 J-29.756
G2 X115.347 Y24.173 Z-0.900 I0.010 J-0.350
G2 X115.125 Y23.617 Z-0.900 I-1.328 J0.208
G2 X110.045 Y14.327 Z-0.900 I-33017.556 J18049.910
G3 X112.401 Y15.906 Z-0.900 I-8.386 J15.059
G3 X119.105 Y21.869 Z-0.900 I-198.140 J229.533
G2 X120.157 Y22.677 Z-0.900 I4.243 J-4.433
G2 X121.596 Y23.069 Z-0.900 I1.268 J-1.813
G2 X121.808 Y22.447 Z-0.900 I-0.008 J-0.350
G3 X117.998 Y19.187 Z-0.900 I34.735 J-44.465
G2 X117.044 Y18.239 Z-0.900 I-34.614 J33.844
G0 X117.044 Y18.239 Z5.000
G0 X94.488 Y22.652 Z5.000
G0 X94.488 Y22.652 Z2.100
G1 X94.488 Y22.652 Z-0.900
G2 X94.332 Y22.424 Z-0.900 I-0.343 J0.067
G3 X92.935 Y21.421 Z-0.900 I5.093 J-8.576
G3 X86.640 Y15.420 Z-0.900 I75187.576 J-78855.478
G2 X82.580 Y13.735 Z-0.900 I-4.280 J4.580
G3 X82.166 Y13.550 Z-0.900 I0.381 J-1.409
G2 X80.176 Y12.391 Z-0.900 I-4.805 J5.966
G2 X76.439 Y12.072 Z-0.900 I-2.380 J5.819
G2 X73.713 Y14.861 Z-0.900 I0.999 J3.704
G2 X73.740 Y17.174 Z-0.900 I7.494 J1.068
G2 X71.079 Y14.580 Z-0.900 I-188.699 J190.910
G2 X69.773 Y13.422 Z-0.900 I-7.812 J7.500
G2 X67.052 Y12.012 Z-0.900 I-4.866 J6.058
G2 X64.268 Y12.713 Z-0.900 I-0.802 J2.693
G2 X63.664 Y14.698 Z-0.900 I2.689 J1.903
G2 X64.087 Y16.502 Z-0.900 I5.614 J-0.366
G2 X65.602 Y19.640 Z-0.900 I36.064 J-15.475
G1 X65.130 Y19.177 Z-0.900
G2 X59.892 Y14.157 Z-0.900 I-89.521 J88.167
G2 X57.167 Y12.271 Z-0.900 I-8.952 J10.020
G2 X53.964 Y12.688 Z-0.900 I-1.287 J2.616
G2 X53.259 Y13.967 Z-0.900 I2.045 J1.963
G2 X53.623 Y17.197 Z-0.900 I5.497 J1.015
G2 X57.184 Y21.691 Z-0.900 I10.502 J-4.662
G2 X54.989 Y21.619 Z-0.900 I-1.844 J22.638
G3 X53.320 Y20.114 Z-0.900 I27.733 J-32.442
G2 X48.360 Y15.296 Z-0.900 I-166.806 J166.743
G2 X45.870 Y13.090 Z-0.900 I-21.860 J22.165
G2 X43.235 Y11.940 Z-0.900 I-3.430 J4.266
G2 X40.606 Y13.348 Z-0.900 I-0.348 J2.509
G2 X40.460 Y15.111 Z-0.900 I4.295 J1.243
G2 X38.210 Y12.974 Z-0.900 I-12.960 J11.395
G2 X33.646 Y12.294 Z-0.900 I-2.887 J3.723
G2 X31.726 Y14.652 Z-0.900 I1.568 J3.238
G2 X31.755 Y16.872 Z-0.900 I7.520 J1.011
G2 X28.786 Y14.051 Z-0.900 I-189.641 J196.622
G2 X26.115 Y12.163 Z-0.900 I-7.232 J7.398
G2 X23.275 Y12.679 Z-0.900 I-1.053 J2.277
G2 X22.186 Y15.906 Z-0.900 I3.676 J3.038
G2 X22.984 Y19.528 Z-0.900 I13.836 J-1.149
G2 X25.801 Y25.066 Z-0.900 I33.473 J-13.545
G2 X31.477 Y33.648 Z-0.900 I219.459 J-138.971
G3 X28.447 Y30.181 Z-0.900 I25.096 J-24.989
G3 X18.826 Y15.059 Z-0.900 I91.659 J-68.938
G2 X17.222 Y12.633 Z-0.900 I-10.901 J5.466
G2 X16.029 Y11.990 Z-0.900 I-1.316 J1.013
G2 X14.533 Y12.859 Z-0.900 I0.135 J1.955
G2 X13.974 Y17.148 Z-0.900 I5.163 J2.853
G2 X15.281 Y20.615 Z-0.900 I25.062 J-7.465
G2 X22.278 Y32.959 Z-0.900 I112.849 J-55.812
G3 X20.121 Y30.288 Z-0.900 I24.365 J-21.885
G3 X12.067 Y18.261 Z-0.900 I218.767 J-155.214
G2 X8.899 Y14.172 Z-0.900 I-22.367 J14.058
G2 X7.098 Y12.694 Z-0.900 I-6.420 J5.982
G2 X5.522 Y12.005 Z-0.900 I-2.710 J4.050
G2 X1.105 Y14.205 Z-0.900 I-0.859 J3.810
G2 X2.050 Y18.771 Z-0.900 I4.061 J1.540
G2 X5.188 Y19.647 Z-0.900 I2.229 J-1.926
G2 X6.270 Y18.784 Z-0.900 I-0.362 J-1.564
G2 X6.265 Y16.746 Z-0.900 I-3.060 J-1.012
G2 X5.323 Y15.901 Z-0.900 I-1.668 J0.912
G3 X3.280 Y15.240 Z-0.900 I3.570 J-14.529
G3 X3.015 Y13.719 Z-0.900 I0.354 J-0.845
G3 X5.289 Y13.226 Z-0.900 I1.623 J1.996
G3 X7.519 Y14.739 Z-0.900 I-2.985 J6.798
G3 X11.285 Y19.601 Z-0.900 I-30.245 J27.318
G2 X19.490 Y31.501 Z-0.900 I135.646 J-84.741
G2 X23.349 Y35.893 Z-0.900 I27.633 J-20.391
G2 X24.126 Y36.482 Z-0.900 I2.249 J-2.161
G2 X25.014 Y36.696 Z-0.900 I0.691 J-0.916
G2 X25.536 Y35.668 Z-0.900 I-0.213 J-0.755
G2 X25.049 Y34.158 Z-0.900 I-23.175 J6.640
G2 X20.593 Y23.342 Z-0.900 I-553.877 J221.880
G3 X17.824 Y15.929 Z-0.900 I79.864 J-34.048
G2 X27.614 Y30.985 Z-0.900 I104.084 J-56.964
G2 X31.359 Y35.296 Z-0.900 I31.377 J-23.479
G2 X32.743 Y36.442 Z-0.900 I5.299 J-4.990
G2 X33.569 Y36.696 Z-0.900 I0.744 J-0.949
G2 X34.249 Y35.885 Z-0.900 I0.055 J-0.645
G2 X33.492 Y34.020 Z-0.900 I-51.706 J19.902
G3 X27.766 Y20.046 Z-0.900 I171.821 J-78.560
G3 X26.249 Y14.970 Z-0.900 I34.733 J-13.147
G3 X26.132 Y13.803 Z-0.900 I3.369 J-0.927
G3 X26.144 Y13.725 Z-0.900 I0.027 J-0.036
G3 X26.700 Y14.038 Z-0.900 I-0.730 J1.943
G3 X28.677 Y15.799 Z-0.900 I-17.878 J22.064
G2 X34.068 Y20.992 Z-0.900 I154.438 J-154.923
G2 X39.818 Y24.369 Z-0.900 I10.503 J-11.300
G2 X43.017 Y24.260 Z-0.900 I1.427 J-5.144
G2 X44.336 Y23.031 Z-0.900 I-0.897 J-2.286
G1 X44.486 Y23.324 Z-0.900
G2 X45.193 Y24.259 Z-0.900 I1.690 J-0.543
G2 X48.794 Y24.546 Z-0.900 I3.198 J-17.396
G2 X49.096 Y24.381 Z-0.900 I0.005 J-0.350
G2 X49.054 Y23.880 Z-0.900 I-0.517 J-0.210
G2 X44.542 Y14.438 Z-0.900 I-1914.691 J909.370
G3 X44.268 Y13.712 Z-0.900 I3.985 J-1.915
G3 X44.302 Y13.606 Z-0.900 I0.041 J-0.045
G3 X45.210 Y14.183 Z-0.900 I-1.644 J3.589
G3 X46.676 Y15.548 Z-0.900 I-19.997 J22.940
G3 X53.791 Y22.564 Z-0.900 I-288.674 J299.889
G2 X54.641 Y25.007 Z-0.900 I13.042 J-3.170
G2 X55.806 Y25.113 Z-0.900 I0.614 J-0.295
G2 X56.032 Y23.810 Z-0.900 I-17.154 J-3.643
G3 X56.184 Y23.618 Z-0.900 I0.295 J0.078
G2 X59.312 Y23.055 Z-0.900 I-39.766 J-229.955
G2 X61.011 Y22.028 Z-0.900 I-0.393 J-2.570
G2 X61.043 Y20.075 Z-0.900 I-2.207 J-1.013
G2 X59.131 Y17.027 Z-0.900 I-22.616 J12.066
G3 X57.163 Y14.253 Z-0.900 I29.027 J-22.676
G3 X56.906 Y13.638 Z-0.900 I0.963 J-0.765
G3 X57.157 Y13.749 Z-0.900 I-0.125 J0.621
G3 X58.559 Y14.809 Z-0.900 I-10.239 J15.004
G3 X68.393 Y24.222 Z-0.900 I-193.995 J212.509
G2 X68.608 Y24.322 Z-0.900 I0.247 J-0.248
G2 X72.280 Y24.548 Z-0.900 I4.800 J-48.163
G2 X72.590 Y23.855 Z-0.900 I-0.047 J-0.437
G2 X71.747 Y22.169 Z-0.900 I-47.945 J22.916
G3 X67.535 Y14.292 Z-0.900 I178.506 J-100.508
G3 X67.219 Y13.454 Z-0.900 I1.920 J-1.203
G3 X67.854 Y13.706 Z-0.900 I-0.766 J2.849
G3 X69.669 Y15.151 Z-0.900 I-6.152 J9.586
G3 X75.818 Y21.063 Z-0.900 I-2121.627 J2213.123
G2 X80.913 Y24.200 Z-0.900 I9.538 J-9.785
G2 X84.198 Y24.580 Z-0.900 I2.350 J-5.932
G2 X86.907 Y22.366 Z-0.900 I-0.391 J-3.242
G2 X86.417 Y18.257 Z-0.900 I-5.522 J-1.426
G2 X84.657 Y15.813 Z-0.900 I-14.796 J8.803
G3 X86.206 Y16.884 Z-0.900 I-4.163 J7.679
G2 X91.082 Y21.441 Z-0.900 I191.931 J-200.482
G2 X92.886 Y22.794 Z-0.900 I6.835 J-7.231
G2 X94.163 Y23.069 Z-0.900 I1.035 J-1.702
G2 X94.488 Y22.652 Z-0.900 I-0.018 J-0.350
G0 X94.488 Y22.652 Z5.000
G0 X74.362 Y28.025 Z5.000
G0 X74.362 Y28.025 Z2.100
G1 X74.362 Y28.025 Z-0.900
G2 X72.835 Y26.418 Z-0.900 I-2.238 J0.597
G1 X72.434 Y26.330 Z-0.900
G2 X70.621 Y26.902 Z-0.900 I-0.363 J2.006
G2 X70.259 Y28.494 Z-0.900 I1.660 J1.216
G2 X73.092 Y30.323 Z-0.900 I2.316 J-0.478
G2 X74.422 Y28.913 Z-0.900 I-0.365 J-1.677
G2 X74.362 Y28.025 Z-0.900 I-2.298 J-0.290
G1 X74.362 Y28.025 Z-1.200
G2 X72.835 Y26.418 Z-1.200 I-2.238 J0.597
G1 X72.434 Y26.330 Z-1.200
G2 X70.621 Y26.902 Z-1.200 I-0.363 J2.006
G2 X70.259 Y28.494 Z-1.200 I1.660 J1.216
G2 X73.092 Y30.323 Z-1.200 I2.316 J-0.478
G2 X74.422 Y28.913 Z-1.200 I-0.365 J-1.677
G2 X74.362 Y28.025 Z-1.200 I-2.298 J-0.290
G0 X74.362 Y28.025 Z5.000
G0 X72.443 Y24.497 Z5.000
G0 X72.443 Y24.497 Z1.800
G1 X72.443 Y24.497 Z-1.200
G2 X72.590 Y23.855 Z-1.200 I-0.210 J-0.386
G2 X71.747 Y22.169 Z-1.200 I-47.945 J22.916
G3 X67.535 Y14.292 Z-1.200 I178.506 J-100.508
G3 X67.219 Y13.454 Z-1.200 I1.920 J-1.203
G3 X67.854 Y13.706 Z-1.200 I-0.766 J2.849
G3 X69.669 Y15.151 Z-1.200 I-6.152 J9.586
G3 X75.818 Y21.063 Z-1.200 I-2121.627 J2213.123
G2 X80.913 Y24.200 Z-1.200 I9.538 J-9.785
G2 X84.198 Y24.580 Z-1.200 I2.350 J-5.932
G2 X86.907 Y22.366 Z-1.200 I-0.391 J-3.242
G2 X86.417 Y18.257 Z-1.200 I-5.522 J-1.426
G2 X84.657 Y15.813 Z-1.200 I-14.796 J8.803
G3 X86.206 Y16.884 Z-1.200 I-4.163 J7.679
G2 X91.082 Y21.441 Z-1.200 I191.931 J-200.482
G2 X92.886 Y22.794 Z-1.200 I6.835 J-7.231
G2 X94.163 Y23.069 Z-1.200 I1.035 J-1.702
G2 X94.332 Y22.424 Z-1.200 I-0.018 J-0.350
G3 X92.935 Y21.421 Z-1.200 I5.093 J-8.576
G3 X86.640 Y15.420 Z-1.200 I75187.576 J-78855.478
G2 X82.580 Y13.735 Z-1.200 I-4.280 J4.580
G3 X82.166 Y13.550 Z-1.200 I0.381 J-1.409
G2 X80.176 Y12.391 Z-1.200 I-4.805 J5.966
G2 X76.439 Y12.072 Z-1.200 I-2.380 J5.819
G2 X73.713 Y14.861 Z-1.200 I0.999 J3.704
G2 X73.740 Y17.174 Z-1.200 I7.494 J1.068
