(Exported by FreeCAD)
(Post Processor: linuxcnc_post)
(Output Time:2020-04-28 11:50:35.504203)
(begin preamble)
G17 G54 G40 G49 G80 G90
G21
(begin operation: Escariador)
(machine: not set, mm/min)
(Escariador)
M6 T1
M3 S0
(finish operation: Escariador)
(begin operation: MillFace)
(machine: not set, mm/min)
(MillFace)
G0 Z5.000
G0
G0 Z0.000
G1 X379.375 Y0.625 Z-1.250
G1 X379.375 Y429.375 Z-1.250
G1 X378.750 Y429.375 Z-1.250
G1 X378.750 Y0.625 Z-1.250
G1 X378.125 Y0.625 Z-1.250
G1 X378.125 Y429.375 Z-1.250
G1 X377.500 Y429.375 Z-1.250
G1 X377.500 Y0.625 Z-1.250
G1 X376.875 Y0.625 Z-1.250
G1 X376.875 Y429.375 Z-1.250
G1 X376.250 Y429.375 Z-1.250
G1 X376.250 Y0.625 Z-1.250
G1 X375.625 Y0.625 Z-1.250
G1 X375.625 Y429.375 Z-1.250
G1 X375.000 Y429.375 Z-1.250
G1 X375.000 Y0.625 Z-1.250
G1 X374.375 Y0.625 Z-1.250
G1 X374.375 Y429.375 Z-1.250
G1 X373.750 Y429.375 Z-1.250
G1 X373.750 Y0.625 Z-1.250
G1 X373.125 Y0.625 Z-1.250
G1 X373.125 Y429.375 Z-1.250
G1 X372.500 Y429.375 Z-1.250
G1 X372.500 Y0.625 Z-1.250
G1 X371.875 Y0.625 Z-1.250
G1 X371.875 Y429.375 Z-1.250
G1 X371.250 Y429.375 Z-1.250
G1 X371.250 Y0.625 Z-1.250
G1 X370.625 Y0.625 Z-1.250
G1 X370.625 Y429.375 Z-1.250
G1 X370.000 Y429.375 Z-1.250
G1 X370.000 Y0.625 Z-1.250
G1 X369.375 Y0.625 Z-1.250
G1 X369.375 Y429.375 Z-1.250
G1 X368.750 Y429.375 Z-1.250
G1 X368.750 Y0.625 Z-1.250
G1 X368.125 Y0.625 Z-1.250
G1 X368.125 Y429.375 Z-1.250
G1 X367.500 Y429.375 Z-1.250
G1 X367.500 Y0.625 Z-1.250
G1 X366.875 Y0.625 Z-1.250
G1 X366.875 Y429.375 Z-1.250
G1 X366.250 Y429.375 Z-1.250
G1 X366.250 Y0.625 Z-1.250
G1 X365.625 Y0.625 Z-1.250
G1 X365.625 Y429.375 Z-1.250
G1 X365.000 Y429.375 Z-1.250
G1 X365.000 Y0.625 Z-1.250
G1 X364.375 Y0.625 Z-1.250
G1 X364.375 Y429.375 Z-1.250
G1 X363.750 Y429.375 Z-1.250
G1 X363.750 Y0.625 Z-1.250
G1 X363.125 Y0.625 Z-1.250
G1 X363.125 Y429.375 Z-1.250
G1 X362.500 Y429.375 Z-1.250
G1 X362.500 Y0.625 Z-1.250
G1 X361.875 Y0.625 Z-1.250
G1 X361.875 Y429.375 Z-1.250
G1 X361.250 Y429.375 Z-1.250
G1 X361.250 Y0.625 Z-1.250
G1 X360.625 Y0.625 Z-1.250
G1 X360.625 Y429.375 Z-1.250
G1 X360.000 Y429.375 Z-1.250
G1 X360.000 Y0.625 Z-1.250
G1 X359.375 Y0.625 Z-1.250
G1 X359.375 Y429.375 Z-1.250
G1 X358.750 Y429.375 Z-1.250
G1 X358.750 Y0.625 Z-1.250
G1 X358.125 Y0.625 Z-1.250
G1 X358.125 Y429.375 Z-1.250
G1 X357.500 Y429.375 Z-1.250
G1 X357.500 Y0.625 Z-1.250
G1 X356.875 Y0.625 Z-1.250
G1 X356.875 Y429.375 Z-1.250
G1 X356.250 Y429.375 Z-1.250
G1 X356.250 Y0.625 Z-1.250
G1 X355.625 Y0.625 Z-1.250
G1 X355.625 Y429.375 Z-1.250
G1 X355.000 Y429.375 Z-1.250
G1 X355.000 Y0.625 Z-1.250
G1 X354.375 Y0.625 Z-1.250
G1 X354.375 Y429.375 Z-1.250
G1 X353.750 Y429.375 Z-1.250
G1 X353.750 Y0.625 Z-1.250
G1 X353.125 Y0.625 Z-1.250
G1 X353.125 Y429.375 Z-1.250
G1 X352.500 Y429.375 Z-1.250
G1 X352.500 Y0.625 Z-1.250
G1 X351.875 Y0.625 Z-1.250
G1 X351.875 Y429.375 Z-1.250
G1 X351.250 Y429.375 Z-1.250
G1 X351.250 Y0.625 Z-1.250
G1 X350.625 Y0.625 Z-1.250
G1 X350.625 Y429.375 Z-1.250
G1 X350.000 Y429.375 Z-1.250
G1 X350.000 Y0.625 Z-1.250
G1 X349.375 Y0.625 Z-1.250
G1 X349.375 Y429.375 Z-1.250
G1 X348.750 Y429.375 Z-1.250
G1 X348.750 Y0.625 Z-1.250
G1 X348.125 Y0.625 Z-1.250
G1 X348.125 Y429.375 Z-1.250
G1 X347.500 Y429.375 Z-1.250
G1 X347.500 Y0.625 Z-1.250
G1 X346.875 Y0.625 Z-1.250
G1 X346.875 Y429.375 Z-1.250
G1 X346.250 Y429.375 Z-1.250
G1 X346.250 Y0.625 Z-1.250
G1 X345.625 Y0.625 Z-1.250
G1 X345.625 Y429.375 Z-1.250
G1 X345.000 Y429.375 Z-1.250
G1 X345.000 Y0.625 Z-1.250
G1 X344.375 Y0.625 Z-1.250
G1 X344.375 Y429.375 Z-1.250
G1 X343.750 Y429.375 Z-1.250
G1 X343.750 Y0.625 Z-1.250
G1 X343.125 Y0.625 Z-1.250
G1 X343.125 Y429.375 Z-1.250
G1 X342.500 Y429.375 Z-1.250
G1 X342.500 Y0.625 Z-1.250
G1 X341.875 Y0.625 Z-1.250
G1 X341.875 Y429.375 Z-1.250
G1 X341.250 Y429.375 Z-1.250
G1 X341.250 Y0.625 Z-1.250
G1 X340.625 Y0.625 Z-1.250
G1 X340.625 Y429.375 Z-1.250
G1 X340.000 Y429.375 Z-1.250
G1 X340.000 Y0.625 Z-1.250
G1 X339.375 Y0.625 Z-1.250
G1 X339.375 Y429.375 Z-1.250
G1 X338.750 Y429.375 Z-1.250
G1 X338.750 Y0.625 Z-1.250
G1 X338.125 Y0.625 Z-1.250
G1 X338.125 Y429.375 Z-1.250
G1 X337.500 Y429.375 Z-1.250
G1 X337.500 Y0.625 Z-1.250
G1 X336.875 Y0.625 Z-1.250
G1 X336.875 Y429.375 Z-1.250
G1 X336.250 Y429.375 Z-1.250
G1 X336.250 Y0.625 Z-1.250
G1 X335.625 Y0.625 Z-1.250
G1 X335.625 Y429.375 Z-1.250
G1 X335.000 Y429.375 Z-1.250
G1 X335.000 Y0.625 Z-1.250
G1 X334.375 Y0.625 Z-1.250
G1 X334.375 Y429.375 Z-1.250
G1 X333.750 Y429.375 Z-1.250
G1 X333.750 Y0.625 Z-1.250
G1 X333.125 Y0.625 Z-1.250
G1 X333.125 Y429.375 Z-1.250
G1 X332.500 Y429.375 Z-1.250
G1 X332.500 Y0.625 Z-1.250
G1 X331.875 Y0.625 Z-1.250
G1 X331.875 Y429.375 Z-1.250
G1 X331.250 Y429.375 Z-1.250
G1 X331.250 Y0.625 Z-1.250
G1 X330.625 Y0.625 Z-1.250
G1 X330.625 Y429.375 Z-1.250
G1 X330.000 Y429.375 Z-1.250
G1 X330.000 Y0.625 Z-1.250
G1 X329.375 Y0.625 Z-1.250
G1 X329.375 Y429.375 Z-1.250
G1 X328.750 Y429.375 Z-1.250
G1 X328.750 Y0.625 Z-1.250
G1 X328.125 Y0.625 Z-1.250
G1 X328.125 Y429.375 Z-1.250
G1 X327.500 Y429.375 Z-1.250
G1 X327.500 Y0.625 Z-1.250
G1 X326.875 Y0.625 Z-1.250
G1 X326.875 Y429.375 Z-1.250
G1 X326.250 Y429.375 Z-1.250
G1 X326.250 Y0.625 Z-1.250
G1 X325.625 Y0.625 Z-1.250
G1 X325.625 Y429.375 Z-1.250
G1 X325.000 Y429.375 Z-1.250
G1 X325.000 Y0.625 Z-1.250
G1 X324.375 Y0.625 Z-1.250
G1 X324.375 Y429.375 Z-1.250
G1 X323.750 Y429.375 Z-1.250
G1 X323.750 Y0.625 Z-1.250
G1 X323.125 Y0.625 Z-1.250
G1 X323.125 Y429.375 Z-1.250
G1 X322.500 Y429.375 Z-1.250
G1 X322.500 Y0.625 Z-1.250
G1 X321.875 Y0.625 Z-1.250
G1 X321.875 Y429.375 Z-1.250
G1 X321.250 Y429.375 Z-1.250
G1 X321.250 Y0.625 Z-1.250
G1 X320.625 Y0.625 Z-1.250
G1 X320.625 Y429.375 Z-1.250
G1 X320.000 Y429.375 Z-1.250
G1 X320.000 Y0.625 Z-1.250
G1 X319.375 Y0.625 Z-1.250
G1 X319.375 Y429.375 Z-1.250
G1 X318.750 Y429.375 Z-1.250
G1 X318.750 Y0.625 Z-1.250
G1 X318.125 Y0.625 Z-1.250
G1 X318.125 Y429.375 Z-1.250
G1 X317.500 Y429.375 Z-1.250
G1 X317.500 Y0.625 Z-1.250
G1 X316.875 Y0.625 Z-1.250
G1 X316.875 Y429.375 Z-1.250
G1 X316.250 Y429.375 Z-1.250
G1 X316.250 Y0.625 Z-1.250
G1 X315.625 Y0.625 Z-1.250
G1 X315.625 Y429.375 Z-1.250
G1 X315.000 Y429.375 Z-1.250
G1 X315.000 Y0.625 Z-1.250
G1 X314.375 Y0.625 Z-1.250
G1 X314.375 Y429.375 Z-1.250
G1 X313.750 Y429.375 Z-1.250
G1 X313.750 Y0.625 Z-1.250
G1 X313.125 Y0.625 Z-1.250
G1 X313.125 Y429.375 Z-1.250
G1 X312.500 Y429.375 Z-1.250
G1 X312.500 Y0.625 Z-1.250
G1 X311.875 Y0.625 Z-1.250
G1 X311.875 Y429.375 Z-1.250
G1 X311.250 Y429.375 Z-1.250
G1 X311.250 Y0.625 Z-1.250
G1 X310.625 Y0.625 Z-1.250
G1 X310.625 Y429.375 Z-1.250
G1 X310.000 Y429.375 Z-1.250
G1 X310.000 Y0.625 Z-1.250
G1 X309.375 Y0.625 Z-1.250
G1 X309.375 Y429.375 Z-1.250
G1 X308.750 Y429.375 Z-1.250
G1 X308.750 Y0.625 Z-1.250
G1 X308.125 Y0.625 Z-1.250
G1 X308.125 Y429.375 Z-1.250
G1 X307.500 Y429.375 Z-1.250
G1 X307.500 Y0.625 Z-1.250
G1 X306.875 Y0.625 Z-1.250
G1 X306.875 Y429.375 Z-1.250
G1 X306.250 Y429.375 Z-1.250
G1 X306.250 Y0.625 Z-1.250
G1 X305.625 Y0.625 Z-1.250
G1 X305.625 Y429.375 Z-1.250
G1 X305.000 Y429.375 Z-1.250
G1 X305.000 Y0.625 Z-1.250
G1 X304.375 Y0.625 Z-1.250
G1 X304.375 Y429.375 Z-1.250
G1 X303.750 Y429.375 Z-1.250
G1 X303.750 Y0.625 Z-1.250
G1 X303.125 Y0.625 Z-1.250
G1 X303.125 Y429.375 Z-1.250
G1 X302.500 Y429.375 Z-1.250
G1 X302.500 Y0.625 Z-1.250
G1 X301.875 Y0.625 Z-1.250
G1 X301.875 Y429.375 Z-1.250
G1 X301.250 Y429.375 Z-1.250
G1 X301.250 Y0.625 Z-1.250
G1 X300.625 Y0.625 Z-1.250
G1 X300.625 Y429.375 Z-1.250
G1 X300.000 Y429.375 Z-1.250
G1 X300.000 Y0.625 Z-1.250
G1 X299.375 Y0.625 Z-1.250
G1 X299.375 Y429.375 Z-1.250
G1 X298.750 Y429.375 Z-1.250
G1 X298.750 Y0.625 Z-1.250
G1 X298.125 Y0.625 Z-1.250
G1 X298.125 Y429.375 Z-1.250
G1 X297.500 Y429.375 Z-1.250
G1 X297.500 Y0.625 Z-1.250
G1 X296.875 Y0.625 Z-1.250
G1 X296.875 Y429.375 Z-1.250
G1 X296.250 Y429.375 Z-1.250
G1 X296.250 Y0.625 Z-1.250
G1 X295.625 Y0.625 Z-1.250
G1 X295.625 Y429.375 Z-1.250
G1 X295.000 Y429.375 Z-1.250
G1 X295.000 Y0.625 Z-1.250
G1 X294.375 Y0.625 Z-1.250
G1 X294.375 Y429.375 Z-1.250
G1 X293.750 Y429.375 Z-1.250
G1 X293.750 Y0.625 Z-1.250
G1 X293.125 Y0.625 Z-1.250
G1 X293.125 Y429.375 Z-1.250
G1 X292.500 Y429.375 Z-1.250
G1 X292.500 Y0.625 Z-1.250
G1 X291.875 Y0.625 Z-1.250
G1 X291.875 Y429.375 Z-1.250
G1 X291.250 Y429.375 Z-1.250
G1 X291.250 Y0.625 Z-1.250
G1 X290.625 Y0.625 Z-1.250
G1 X290.625 Y429.375 Z-1.250
G1 X290.000 Y429.375 Z-1.250
G1 X290.000 Y0.625 Z-1.250
G1 X289.375 Y0.625 Z-1.250
G1 X289.375 Y429.375 Z-1.250
G1 X288.750 Y429.375 Z-1.250
G1 X288.750 Y0.625 Z-1.250
G1 X288.125 Y0.625 Z-1.250
G1 X288.125 Y429.375 Z-1.250
G1 X287.500 Y429.375 Z-1.250
G1 X287.500 Y0.625 Z-1.250
G1 X286.875 Y0.625 Z-1.250
G1 X286.875 Y429.375 Z-1.250
G1 X286.250 Y429.375 Z-1.250
G1 X286.250 Y0.625 Z-1.250
G1 X285.625 Y0.625 Z-1.250
G1 X285.625 Y429.375 Z-1.250
G1 X285.000 Y429.375 Z-1.250
G1 X285.000 Y0.625 Z-1.250
G1 X284.375 Y0.625 Z-1.250
G1 X284.375 Y429.375 Z-1.250
G1 X283.750 Y429.375 Z-1.250
G1 X283.750 Y0.625 Z-1.250
G1 X283.125 Y0.625 Z-1.250
G1 X283.125 Y429.375 Z-1.250
G1 X282.500 Y429.375 Z-1.250
G1 X282.500 Y0.625 Z-1.250
G1 X281.875 Y0.625 Z-1.250
G1 X281.875 Y429.375 Z-1.250
G1 X281.250 Y429.375 Z-1.250
G1 X281.250 Y0.625 Z-1.250
G1 X280.625 Y0.625 Z-1.250
G1 X280.625 Y429.375 Z-1.250
G1 X280.000 Y429.375 Z-1.250
G1 X280.000 Y0.625 Z-1.250
G1 X279.375 Y0.625 Z-1.250
G1 X279.375 Y429.375 Z-1.250
G1 X278.750 Y429.375 Z-1.250
G1 X278.750 Y0.625 Z-1.250
G1 X278.125 Y0.625 Z-1.250
G1 X278.125 Y429.375 Z-1.250
G1 X277.500 Y429.375 Z-1.250
G1 X277.500 Y0.625 Z-1.250
G1 X276.875 Y0.625 Z-1.250
G1 X276.875 Y429.375 Z-1.250
G1 X276.250 Y429.375 Z-1.250
G1 X276.250 Y0.625 Z-1.250
G1 X275.625 Y0.625 Z-1.250
G1 X275.625 Y429.375 Z-1.250
G1 X275.000 Y429.375 Z-1.250
G1 X275.000 Y0.625 Z-1.250
G1 X274.375 Y0.625 Z-1.250
G1 X274.375 Y429.375 Z-1.250
G1 X273.750 Y429.375 Z-1.250
G1 X273.750 Y0.625 Z-1.250
G1 X273.125 Y0.625 Z-1.250
G1 X273.125 Y429.375 Z-1.250
G1 X272.500 Y429.375 Z-1.250
G1 X272.500 Y0.625 Z-1.250
G1 X271.875 Y0.625 Z-1.250
G1 X271.875 Y429.375 Z-1.250
G1 X271.250 Y429.375 Z-1.250
G1 X271.250 Y0.625 Z-1.250
G1 X270.625 Y0.625 Z-1.250
G1 X270.625 Y429.375 Z-1.250
G1 X270.000 Y429.375 Z-1.250
G1 X270.000 Y0.625 Z-1.250
G1 X269.375 Y0.625 Z-1.250
G1 X269.375 Y429.375 Z-1.250
G1 X268.750 Y429.375 Z-1.250
G1 X268.750 Y0.625 Z-1.250
G1 X268.125 Y0.625 Z-1.250
G1 X268.125 Y429.375 Z-1.250
G1 X267.500 Y429.375 Z-1.250
G1 X267.500 Y0.625 Z-1.250
G1 X266.875 Y0.625 Z-1.250
G1 X266.875 Y429.375 Z-1.250
G1 X266.250 Y429.375 Z-1.250
G1 X266.250 Y0.625 Z-1.250
G1 X265.625 Y0.625 Z-1.250
G1 X265.625 Y429.375 Z-1.250
G1 X265.000 Y429.375 Z-1.250
G1 X265.000 Y0.625 Z-1.250
G1 X264.375 Y0.625 Z-1.250
G1 X264.375 Y429.375 Z-1.250
G1 X263.750 Y429.375 Z-1.250
G1 X263.750 Y0.625 Z-1.250
G1 X263.125 Y0.625 Z-1.250
G1 X263.125 Y429.375 Z-1.250
G1 X262.500 Y429.375 Z-1.250
G1 X262.500 Y0.625 Z-1.250
G1 X261.875 Y0.625 Z-1.250
G1 X261.875 Y429.375 Z-1.250
G1 X261.250 Y429.375 Z-1.250
G1 X261.250 Y0.625 Z-1.250
G1 X260.625 Y0.625 Z-1.250
G1 X260.625 Y429.375 Z-1.250
G1 X260.000 Y429.375 Z-1.250
G1 X260.000 Y0.625 Z-1.250
G1 X259.375 Y0.625 Z-1.250
G1 X259.375 Y429.375 Z-1.250
G1 X258.750 Y429.375 Z-1.250
G1 X258.750 Y0.625 Z-1.250
G1 X258.125 Y0.625 Z-1.250
G1 X258.125 Y429.375 Z-1.250
G1 X257.500 Y429.375 Z-1.250
G1 X257.500 Y0.625 Z-1.250
G1 X256.875 Y0.625 Z-1.250
G1 X256.875 Y429.375 Z-1.250
G1 X256.250 Y429.375 Z-1.250
G1 X256.250 Y0.625 Z-1.250
G1 X255.625 Y0.625 Z-1.250
G1 X255.625 Y429.375 Z-1.250
G1 X255.000 Y429.375 Z-1.250
G1 X255.000 Y0.625 Z-1.250
G1 X254.375 Y0.625 Z-1.250
G1 X254.375 Y429.375 Z-1.250
G1 X253.750 Y429.375 Z-1.250
G1 X253.750 Y0.625 Z-1.250
G1 X253.125 Y0.625 Z-1.250
G1 X253.125 Y429.375 Z-1.250
G1 X252.500 Y429.375 Z-1.250
G1 X252.500 Y0.625 Z-1.250
G1 X251.875 Y0.625 Z-1.250
G1 X251.875 Y429.375 Z-1.250
G1 X251.250 Y429.375 Z-1.250
G1 X251.250 Y0.625 Z-1.250
G1 X250.625 Y0.625 Z-1.250
G1 X250.625 Y429.375 Z-1.250
G1 X250.000 Y429.375 Z-1.250
G1 X250.000 Y0.625 Z-1.250
G1 X249.375 Y0.625 Z-1.250
G1 X249.375 Y429.375 Z-1.250
G1 X248.750 Y429.375 Z-1.250
G1 X248.750 Y0.625 Z-1.250
G1 X248.125 Y0.625 Z-1.250
G1 X248.125 Y429.375 Z-1.250
G1 X247.500 Y429.375 Z-1.250
G1 X247.500 Y0.625 Z-1.250
G1 X246.875 Y0.625 Z-1.250
G1 X246.875 Y429.375 Z-1.250
G1 X246.250 Y429.375 Z-1.250
G1 X246.250 Y0.625 Z-1.250
G1 X245.625 Y0.625 Z-1.250
G1 X245.625 Y429.375 Z-1.250
G1 X245.000 Y429.375 Z-1.250
G1 X245.000 Y0.625 Z-1.250
G1 X244.375 Y0.625 Z-1.250
G1 X244.375 Y429.375 Z-1.250
G1 X243.750 Y429.375 Z-1.250
G1 X243.750 Y0.625 Z-1.250
G1 X243.125 Y0.625 Z-1.250
G1 X243.125 Y429.375 Z-1.250
G1 X242.500 Y429.375 Z-1.250
G1 X242.500 Y0.625 Z-1.250
G1 X241.875 Y0.625 Z-1.250
G1 X241.875 Y429.375 Z-1.250
G1 X241.250 Y429.375 Z-1.250
G1 X241.250 Y0.625 Z-1.250
G1 X240.625 Y0.625 Z-1.250
G1 X240.625 Y429.375 Z-1.250
G1 X240.000 Y429.375 Z-1.250
G1 X240.000 Y0.625 Z-1.250
G1 X239.375 Y0.625 Z-1.250
G1 X239.375 Y429.375 Z-1.250
G1 X238.750 Y429.375 Z-1.250
G1 X238.750 Y0.625 Z-1.250
G1 X238.125 Y0.625 Z-1.250
G1 X238.125 Y429.375 Z-1.250
G1 X237.500 Y429.375 Z-1.250
G1 X237.500 Y0.625 Z-1.250
G1 X236.875 Y0.625 Z-1.250
G1 X236.875 Y429.375 Z-1.250
G1 X236.250 Y429.375 Z-1.250
G1 X236.250 Y0.625 Z-1.250
G1 X235.625 Y0.625 Z-1.250
G1 X235.625 Y429.375 Z-1.250
G1 X235.000 Y429.375 Z-1.250
G1 X235.000 Y0.625 Z-1.250
G1 X234.375 Y0.625 Z-1.250
G1 X234.375 Y429.375 Z-1.250
G1 X233.750 Y429.375 Z-1.250
G1 X233.750 Y0.625 Z-1.250
G1 X233.125 Y0.625 Z-1.250
G1 X233.125 Y429.375 Z-1.250
G1 X232.500 Y429.375 Z-1.250
G1 X232.500 Y0.625 Z-1.250
G1 X231.875 Y0.625 Z-1.250
G1 X231.875 Y429.375 Z-1.250
G1 X231.250 Y429.375 Z-1.250
G1 X231.250 Y0.625 Z-1.250
G1 X230.625 Y0.625 Z-1.250
G1 X230.625 Y429.375 Z-1.250
G1 X230.000 Y429.375 Z-1.250
G1 X230.000 Y0.625 Z-1.250
G1 X229.375 Y0.625 Z-1.250
G1 X229.375 Y429.375 Z-1.250
G1 X228.750 Y429.375 Z-1.250
G1 X228.750 Y0.625 Z-1.250
G1 X228.125 Y0.625 Z-1.250
G1 X228.125 Y429.375 Z-1.250
G1 X227.500 Y429.375 Z-1.250
G1 X227.500 Y0.625 Z-1.250
G1 X226.875 Y0.625 Z-1.250
G1 X226.875 Y429.375 Z-1.250
G1 X226.250 Y429.375 Z-1.250
G1 X226.250 Y0.625 Z-1.250
G1 X225.625 Y0.625 Z-1.250
G1 X225.625 Y429.375 Z-1.250
G1 X225.000 Y429.375 Z-1.250
G1 X225.000 Y0.625 Z-1.250
G1 X224.375 Y0.625 Z-1.250
G1 X224.375 Y429.375 Z-1.250
G1 X223.750 Y429.375 Z-1.250
G1 X223.750 Y0.625 Z-1.250
G1 X223.125 Y0.625 Z-1.250
G1 X223.125 Y429.375 Z-1.250
G1 X222.500 Y429.375 Z-1.250
G1 X222.500 Y0.625 Z-1.250
G1 X221.875 Y0.625 Z-1.250
G1 X221.875 Y429.375 Z-1.250
G1 X221.250 Y429.375 Z-1.250
G1 X221.250 Y0.625 Z-1.250
G1 X220.625 Y0.625 Z-1.250
G1 X220.625 Y429.375 Z-1.250
G1 X220.000 Y429.375 Z-1.250
G1 X220.000 Y0.625 Z-1.250
G1 X219.375 Y0.625 Z-1.250
G1 X219.375 Y429.375 Z-1.250
G1 X218.750 Y429.375 Z-1.250
G1 X218.750 Y0.625 Z-1.250
G1 X218.125 Y0.625 Z-1.250
G1 X218.125 Y429.375 Z-1.250
G1 X217.500 Y429.375 Z-1.250
G1 X217.500 Y0.625 Z-1.250
G1 X216.875 Y0.625 Z-1.250
G1 X216.875 Y429.375 Z-1.250
G1 X216.250 Y429.375 Z-1.250
G1 X216.250 Y0.625 Z-1.250
G1 X215.625 Y0.625 Z-1.250
G1 X215.625 Y429.375 Z-1.250
G1 X215.000 Y429.375 Z-1.250
G1 X215.000 Y0.625 Z-1.250
G1 X214.375 Y0.625 Z-1.250
G1 X214.375 Y429.375 Z-1.250
G1 X213.750 Y429.375 Z-1.250
G1 X213.750 Y0.625 Z-1.250
G1 X213.125 Y0.625 Z-1.250
G1 X213.125 Y429.375 Z-1.250
G1 X212.500 Y429.375 Z-1.250
G1 X212.500 Y0.625 Z-1.250
G1 X211.875 Y0.625 Z-1.250
G1 X211.875 Y429.375 Z-1.250
G1 X211.250 Y429.375 Z-1.250
G1 X211.250 Y0.625 Z-1.250
G1 X210.625 Y0.625 Z-1.250
G1 X210.625 Y429.375 Z-1.250
G1 X210.000 Y429.375 Z-1.250
G1 X210.000 Y0.625 Z-1.250
G1 X209.375 Y0.625 Z-1.250
G1 X209.375 Y429.375 Z-1.250
G1 X208.750 Y429.375 Z-1.250
G1 X208.750 Y0.625 Z-1.250
G1 X208.125 Y0.625 Z-1.250
G1 X208.125 Y429.375 Z-1.250
G1 X207.500 Y429.375 Z-1.250
G1 X207.500 Y0.625 Z-1.250
G1 X206.875 Y0.625 Z-1.250
G1 X206.875 Y429.375 Z-1.250
G1 X206.250 Y429.375 Z-1.250
G1 X206.250 Y0.625 Z-1.250
G1 X205.625 Y0.625 Z-1.250
G1 X205.625 Y429.375 Z-1.250
G1 X205.000 Y429.375 Z-1.250
G1 X205.000 Y0.625 Z-1.250
G1 X204.375 Y0.625 Z-1.250
G1 X204.375 Y429.375 Z-1.250
G1 X203.750 Y429.375 Z-1.250
G1 X203.750 Y0.625 Z-1.250
G1 X203.125 Y0.625 Z-1.250
G1 X203.125 Y429.375 Z-1.250
G1 X202.500 Y429.375 Z-1.250
G1 X202.500 Y0.625 Z-1.250
G1 X201.875 Y0.625 Z-1.250
G1 X201.875 Y429.375 Z-1.250
G1 X201.250 Y429.375 Z-1.250
G1 X201.250 Y0.625 Z-1.250
G1 X200.625 Y0.625 Z-1.250
G1 X200.625 Y429.375 Z-1.250
G1 X200.000 Y429.375 Z-1.250
G1 X200.000 Y0.625 Z-1.250
G1 X199.375 Y0.625 Z-1.250
G1 X199.375 Y429.375 Z-1.250
G1 X198.750 Y429.375 Z-1.250
G1 X198.750 Y0.625 Z-1.250
G1 X198.125 Y0.625 Z-1.250
G1 X198.125 Y429.375 Z-1.250
G1 X197.500 Y429.375 Z-1.250
G1 X197.500 Y0.625 Z-1.250
G1 X196.875 Y0.625 Z-1.250
G1 X196.875 Y429.375 Z-1.250
G1 X196.250 Y429.375 Z-1.250
G1 X196.250 Y0.625 Z-1.250
G1 X195.625 Y0.625 Z-1.250
G1 X195.625 Y429.375 Z-1.250
G1 X195.000 Y429.375 Z-1.250
G1 X195.000 Y0.625 Z-1.250
G1 X194.375 Y0.625 Z-1.250
G1 X194.375 Y429.375 Z-1.250
G1 X193.750 Y429.375 Z-1.250
G1 X193.750 Y0.625 Z-1.250
G1 X193.125 Y0.625 Z-1.250
G1 X193.125 Y429.375 Z-1.250
G1 X192.500 Y429.375 Z-1.250
G1 X192.500 Y0.625 Z-1.250
G1 X191.875 Y0.625 Z-1.250
G1 X191.875 Y429.375 Z-1.250
G1 X191.250 Y429.375 Z-1.250
G1 X191.250 Y0.625 Z-1.250
G1 X190.625 Y0.625 Z-1.250
G1 X190.625 Y429.375 Z-1.250
G1 X190.000 Y429.375 Z-1.250
G1 X190.000 Y0.625 Z-1.250
G1 X189.375 Y0.625 Z-1.250
G1 X189.375 Y429.375 Z-1.250
G1 X188.750 Y429.375 Z-1.250
G1 X188.750 Y0.625 Z-1.250
G1 X188.125 Y0.625 Z-1.250
G1 X188.125 Y429.375 Z-1.250
G1 X187.500 Y429.375 Z-1.250
G1 X187.500 Y0.625 Z-1.250
G1 X186.875 Y0.625 Z-1.250
G1 X186.875 Y429.375 Z-1.250
G1 X186.250 Y429.375 Z-1.250
G1 X186.250 Y0.625 Z-1.250
G1 X185.625 Y0.625 Z-1.250
G1 X185.625 Y429.375 Z-1.250
G1 X185.000 Y429.375 Z-1.250
G1 X185.000 Y0.625 Z-1.250
G1 X184.375 Y0.625 Z-1.250
G1 X184.375 Y429.375 Z-1.250
G1 X183.750 Y429.375 Z-1.250
G1 X183.750 Y0.625 Z-1.250
G1 X183.125 Y0.625 Z-1.250
G1 X183.125 Y429.375 Z-1.250
G1 X182.500 Y429.375 Z-1.250
G1 X182.500 Y0.625 Z-1.250
G1 X181.875 Y0.625 Z-1.250
G1 X181.875 Y429.375 Z-1.250
G1 X181.250 Y429.375 Z-1.250
G1 X181.250 Y0.625 Z-1.250
G1 X180.625 Y0.625 Z-1.250
G1 X180.625 Y429.375 Z-1.250
G1 X180.000 Y429.375 Z-1.250
G1 X180.000 Y0.625 Z-1.250
G1 X179.375 Y0.625 Z-1.250
G1 X179.375 Y429.375 Z-1.250
G1 X178.750 Y429.375 Z-1.250
G1 X178.750 Y0.625 Z-1.250
G1 X178.125 Y0.625 Z-1.250
G1 X178.125 Y429.375 Z-1.250
G1 X177.500 Y429.375 Z-1.250
G1 X177.500 Y0.625 Z-1.250
G1 X176.875 Y0.625 Z-1.250
G1 X176.875 Y429.375 Z-1.250
G1 X176.250 Y429.375 Z-1.250
G1 X176.250 Y0.625 Z-1.250
G1 X175.625 Y0.625 Z-1.250
G1 X175.625 Y429.375 Z-1.250
G1 X175.000 Y429.375 Z-1.250
G1 X175.000 Y0.625 Z-1.250
G1 X174.375 Y0.625 Z-1.250
G1 X174.375 Y429.375 Z-1.250
G1 X173.750 Y429.375 Z-1.250
G1 X173.750 Y0.625 Z-1.250
G1 X173.125 Y0.625 Z-1.250
G1 X173.125 Y429.375 Z-1.250
G1 X172.500 Y429.375 Z-1.250
G1 X172.500 Y0.625 Z-1.250
G1 X171.875 Y0.625 Z-1.250
G1 X171.875 Y429.375 Z-1.250
G1 X171.250 Y429.375 Z-1.250
G1 X171.250 Y0.625 Z-1.250
G1 X170.625 Y0.625 Z-1.250
G1 X170.625 Y429.375 Z-1.250
G1 X170.000 Y429.375 Z-1.250
G1 X170.000 Y0.625 Z-1.250
G1 X169.375 Y0.625 Z-1.250
G1 X169.375 Y429.375 Z-1.250
G1 X168.750 Y429.375 Z-1.250
G1 X168.750 Y0.625 Z-1.250
G1 X168.125 Y0.625 Z-1.250
G1 X168.125 Y429.375 Z-1.250
G1 X167.500 Y429.375 Z-1.250
G1 X167.500 Y0.625 Z-1.250
G1 X166.875 Y0.625 Z-1.250
G1 X166.875 Y429.375 Z-1.250
G1 X166.250 Y429.375 Z-1.250
G1 X166.250 Y0.625 Z-1.250
G1 X165.625 Y0.625 Z-1.250
G1 X165.625 Y429.375 Z-1.250
G1 X165.000 Y429.375 Z-1.250
G1 X165.000 Y0.625 Z-1.250
G1 X164.375 Y0.625 Z-1.250
G1 X164.375 Y429.375 Z-1.250
G1 X163.750 Y429.375 Z-1.250
G1 X163.750 Y0.625 Z-1.250
G1 X163.125 Y0.625 Z-1.250
G1 X163.125 Y429.375 Z-1.250
G1 X162.500 Y429.375 Z-1.250
G1 X162.500 Y0.625 Z-1.250
G1 X161.875 Y0.625 Z-1.250
G1 X161.875 Y429.375 Z-1.250
G1 X161.250 Y429.375 Z-1.250
G1 X161.250 Y0.625 Z-1.250
G1 X160.625 Y0.625 Z-1.250
G1 X160.625 Y429.375 Z-1.250
G1 X160.000 Y429.375 Z-1.250
G1 X160.000 Y0.625 Z-1.250
G1 X159.375 Y0.625 Z-1.250
G1 X159.375 Y429.375 Z-1.250
G1 X158.750 Y429.375 Z-1.250
G1 X158.750 Y0.625 Z-1.250
G1 X158.125 Y0.625 Z-1.250
G1 X158.125 Y429.375 Z-1.250
G1 X157.500 Y429.375 Z-1.250
G1 X157.500 Y0.625 Z-1.250
G1 X156.875 Y0.625 Z-1.250
G1 X156.875 Y429.375 Z-1.250
G1 X156.250 Y429.375 Z-1.250
G1 X156.250 Y0.625 Z-1.250
G1 X155.625 Y0.625 Z-1.250
G1 X155.625 Y429.375 Z-1.250
G1 X155.000 Y429.375 Z-1.250
G1 X155.000 Y0.625 Z-1.250
G1 X154.375 Y0.625 Z-1.250
G1 X154.375 Y429.375 Z-1.250
G1 X153.750 Y429.375 Z-1.250
G1 X153.750 Y0.625 Z-1.250
G1 X153.125 Y0.625 Z-1.250
G1 X153.125 Y429.375 Z-1.250
G1 X152.500 Y429.375 Z-1.250
G1 X152.500 Y0.625 Z-1.250
G1 X151.875 Y0.625 Z-1.250
G1 X151.875 Y429.375 Z-1.250
G1 X151.250 Y429.375 Z-1.250
G1 X151.250 Y0.625 Z-1.250
G1 X150.625 Y0.625 Z-1.250
G1 X150.625 Y429.375 Z-1.250
G1 X150.000 Y429.375 Z-1.250
G1 X150.000 Y0.625 Z-1.250
G1 X149.375 Y0.625 Z-1.250
G1 X149.375 Y429.375 Z-1.250
G1 X148.750 Y429.375 Z-1.250
G1 X148.750 Y0.625 Z-1.250
G1 X148.125 Y0.625 Z-1.250
G1 X148.125 Y429.375 Z-1.250
G1 X147.500 Y429.375 Z-1.250
G1 X147.500 Y0.625 Z-1.250
G1 X146.875 Y0.625 Z-1.250
G1 X146.875 Y429.375 Z-1.250
G1 X146.250 Y429.375 Z-1.250
G1 X146.250 Y0.625 Z-1.250
G1 X145.625 Y0.625 Z-1.250
G1 X145.625 Y429.375 Z-1.250
G1 X145.000 Y429.375 Z-1.250
G1 X145.000 Y0.625 Z-1.250
G1 X144.375 Y0.625 Z-1.250
G1 X144.375 Y429.375 Z-1.250
G1 X143.750 Y429.375 Z-1.250
G1 X143.750 Y0.625 Z-1.250
G1 X143.125 Y0.625 Z-1.250
G1 X143.125 Y429.375 Z-1.250
G1 X142.500 Y429.375 Z-1.250
G1 X142.500 Y0.625 Z-1.250
G1 X141.875 Y0.625 Z-1.250
G1 X141.875 Y429.375 Z-1.250
G1 X141.250 Y429.375 Z-1.250
G1 X141.250 Y0.625 Z-1.250
G1 X140.625 Y0.625 Z-1.250
G1 X140.625 Y429.375 Z-1.250
G1 X140.000 Y429.375 Z-1.250
G1 X140.000 Y0.625 Z-1.250
G1 X139.375 Y0.625 Z-1.250
G1 X139.375 Y429.375 Z-1.250
G1 X138.750 Y429.375 Z-1.250
G1 X138.750 Y0.625 Z-1.250
G1 X138.125 Y0.625 Z-1.250
G1 X138.125 Y429.375 Z-1.250
G1 X137.500 Y429.375 Z-1.250
G1 X137.500 Y0.625 Z-1.250
G1 X136.875 Y0.625 Z-1.250
G1 X136.875 Y429.375 Z-1.250
G1 X136.250 Y429.375 Z-1.250
G1 X136.250 Y0.625 Z-1.250
G1 X135.625 Y0.625 Z-1.250
G1 X135.625 Y429.375 Z-1.250
G1 X135.000 Y429.375 Z-1.250
G1 X135.000 Y0.625 Z-1.250
G1 X134.375 Y0.625 Z-1.250
G1 X134.375 Y429.375 Z-1.250
G1 X133.750 Y429.375 Z-1.250
G1 X133.750 Y0.625 Z-1.250
G1 X133.125 Y0.625 Z-1.250
G1 X133.125 Y429.375 Z-1.250
G1 X132.500 Y429.375 Z-1.250
G1 X132.500 Y0.625 Z-1.250
G1 X131.875 Y0.625 Z-1.250
G1 X131.875 Y429.375 Z-1.250
G1 X131.250 Y429.375 Z-1.250
G1 X131.250 Y0.625 Z-1.250
G1 X130.625 Y0.625 Z-1.250
G1 X130.625 Y429.375 Z-1.250
G1 X130.000 Y429.375 Z-1.250
G1 X130.000 Y0.625 Z-1.250
G1 X129.375 Y0.625 Z-1.250
G1 X129.375 Y429.375 Z-1.250
G1 X128.750 Y429.375 Z-1.250
G1 X128.750 Y0.625 Z-1.250
G1 X128.125 Y0.625 Z-1.250
G1 X128.125 Y429.375 Z-1.250
G1 X127.500 Y429.375 Z-1.250
G1 X127.500 Y0.625 Z-1.250
G1 X126.875 Y0.625 Z-1.250
G1 X126.875 Y429.375 Z-1.250
G1 X126.250 Y429.375 Z-1.250
G1 X126.250 Y0.625 Z-1.250
G1 X125.625 Y0.625 Z-1.250
G1 X125.625 Y429.375 Z-1.250
G1 X125.000 Y429.375 Z-1.250
G1 X125.000 Y0.625 Z-1.250
G1 X124.375 Y0.625 Z-1.250
G1 X124.375 Y429.375 Z-1.250
G1 X123.750 Y429.375 Z-1.250
G1 X123.750 Y0.625 Z-1.250
G1 X123.125 Y0.625 Z-1.250
G1 X123.125 Y429.375 Z-1.250
G1 X122.500 Y429.375 Z-1.250
G1 X122.500 Y0.625 Z-1.250
G1 X121.875 Y0.625 Z-1.250
G1 X121.875 Y429.375 Z-1.250
G1 X121.250 Y429.375 Z-1.250
G1 X121.250 Y0.625 Z-1.250
G1 X120.625 Y0.625 Z-1.250
G1 X120.625 Y429.375 Z-1.250
G1 X120.000 Y429.375 Z-1.250
G1 X120.000 Y0.625 Z-1.250
G1 X119.375 Y0.625 Z-1.250
G1 X119.375 Y429.375 Z-1.250
G1 X118.750 Y429.375 Z-1.250
G1 X118.750 Y0.625 Z-1.250
G1 X118.125 Y0.625 Z-1.250
G1 X118.125 Y429.375 Z-1.250
G1 X117.500 Y429.375 Z-1.250
G1 X117.500 Y0.625 Z-1.250
G1 X116.875 Y0.625 Z-1.250
G1 X116.875 Y429.375 Z-1.250
G1 X116.250 Y429.375 Z-1.250
G1 X116.250 Y0.625 Z-1.250
G1 X115.625 Y0.625 Z-1.250
G1 X115.625 Y429.375 Z-1.250
G1 X115.000 Y429.375 Z-1.250
G1 X115.000 Y0.625 Z-1.250
G1 X114.375 Y0.625 Z-1.250
G1 X114.375 Y429.375 Z-1.250
G1 X113.750 Y429.375 Z-1.250
G1 X113.750 Y0.625 Z-1.250
G1 X113.125 Y0.625 Z-1.250
G1 X113.125 Y429.375 Z-1.250
G1 X112.500 Y429.375 Z-1.250
G1 X112.500 Y0.625 Z-1.250
G1 X111.875 Y0.625 Z-1.250
G1 X111.875 Y429.375 Z-1.250
G1 X111.250 Y429.375 Z-1.250
G1 X111.250 Y0.625 Z-1.250
G1 X110.625 Y0.625 Z-1.250
G1 X110.625 Y429.375 Z-1.250
G1 X110.000 Y429.375 Z-1.250
G1 X110.000 Y0.625 Z-1.250
G1 X109.375 Y0.625 Z-1.250
G1 X109.375 Y429.375 Z-1.250
G1 X108.750 Y429.375 Z-1.250
G1 X108.750 Y0.625 Z-1.250
G1 X108.125 Y0.625 Z-1.250
G1 X108.125 Y429.375 Z-1.250
G1 X107.500 Y429.375 Z-1.250
G1 X107.500 Y0.625 Z-1.250
G1 X106.875 Y0.625 Z-1.250
G1 X106.875 Y429.375 Z-1.250
G1 X106.250 Y429.375 Z-1.250
G1 X106.250 Y0.625 Z-1.250
G1 X105.625 Y0.625 Z-1.250
G1 X105.625 Y429.375 Z-1.250
G1 X105.000 Y429.375 Z-1.250
G1 X105.000 Y0.625 Z-1.250
G1 X104.375 Y0.625 Z-1.250
G1 X104.375 Y429.375 Z-1.250
G1 X103.750 Y429.375 Z-1.250
G1 X103.750 Y0.625 Z-1.250
G1 X103.125 Y0.625 Z-1.250
G1 X103.125 Y429.375 Z-1.250
G1 X102.500 Y429.375 Z-1.250
G1 X102.500 Y0.625 Z-1.250
G1 X101.875 Y0.625 Z-1.250
G1 X101.875 Y429.375 Z-1.250
G1 X101.250 Y429.375 Z-1.250
G1 X101.250 Y0.625 Z-1.250
G1 X100.625 Y0.625 Z-1.250
G1 X100.625 Y429.375 Z-1.250
G1 X100.000 Y429.375 Z-1.250
G1 X100.000 Y0.625 Z-1.250
G1 X99.375 Y0.625 Z-1.250
G1 X99.375 Y429.375 Z-1.250
G1 X98.750 Y429.375 Z-1.250
G1 X98.750 Y0.625 Z-1.250
G1 X98.125 Y0.625 Z-1.250
G1 X98.125 Y429.375 Z-1.250
G1 X97.500 Y429.375 Z-1.250
G1 X97.500 Y0.625 Z-1.250
G1 X96.875 Y0.625 Z-1.250
G1 X96.875 Y429.375 Z-1.250
G1 X96.250 Y429.375 Z-1.250
G1 X96.250 Y0.625 Z-1.250
G1 X95.625 Y0.625 Z-1.250
G1 X95.625 Y429.375 Z-1.250
G1 X95.000 Y429.375 Z-1.250
G1 X95.000 Y0.625 Z-1.250
G1 X94.375 Y0.625 Z-1.250
G1 X94.375 Y429.375 Z-1.250
G1 X93.750 Y429.375 Z-1.250
G1 X93.750 Y0.625 Z-1.250
G1 X93.125 Y0.625 Z-1.250
G1 X93.125 Y429.375 Z-1.250
G1 X92.500 Y429.375 Z-1.250
G1 X92.500 Y0.625 Z-1.250
G1 X91.875 Y0.625 Z-1.250
G1 X91.875 Y429.375 Z-1.250
G1 X91.250 Y429.375 Z-1.250
G1 X91.250 Y0.625 Z-1.250
G1 X90.625 Y0.625 Z-1.250
G1 X90.625 Y429.375 Z-1.250
G1 X90.000 Y429.375 Z-1.250
G1 X90.000 Y0.625 Z-1.250
G1 X89.375 Y0.625 Z-1.250
G1 X89.375 Y429.375 Z-1.250
G1 X88.750 Y429.375 Z-1.250
G1 X88.750 Y0.625 Z-1.250
G1 X88.125 Y0.625 Z-1.250
G1 X88.125 Y429.375 Z-1.250
G1 X87.500 Y429.375 Z-1.250
G1 X87.500 Y0.625 Z-1.250
G1 X86.875 Y0.625 Z-1.250
G1 X86.875 Y429.375 Z-1.250
G1 X86.250 Y429.375 Z-1.250
G1 X86.250 Y0.625 Z-1.250
G1 X85.625 Y0.625 Z-1.250
G1 X85.625 Y429.375 Z-1.250
G1 X85.000 Y429.375 Z-1.250
G1 X85.000 Y0.625 Z-1.250
G1 X84.375 Y0.625 Z-1.250
G1 X84.375 Y429.375 Z-1.250
G1 X83.750 Y429.375 Z-1.250
G1 X83.750 Y0.625 Z-1.250
G1 X83.125 Y0.625 Z-1.250
G1 X83.125 Y429.375 Z-1.250
G1 X82.500 Y429.375 Z-1.250
G1 X82.500 Y0.625 Z-1.250
G1 X81.875 Y0.625 Z-1.250
G1 X81.875 Y429.375 Z-1.250
G1 X81.250 Y429.375 Z-1.250
G1 X81.250 Y0.625 Z-1.250
G1 X80.625 Y0.625 Z-1.250
G1 X80.625 Y429.375 Z-1.250
G1 X80.000 Y429.375 Z-1.250
G1 X80.000 Y0.625 Z-1.250
G1 X79.375 Y0.625 Z-1.250
G1 X79.375 Y429.375 Z-1.250
G1 X78.750 Y429.375 Z-1.250
G1 X78.750 Y0.625 Z-1.250
G1 X78.125 Y0.625 Z-1.250
G1 X78.125 Y429.375 Z-1.250
G1 X77.500 Y429.375 Z-1.250
G1 X77.500 Y0.625 Z-1.250
G1 X76.875 Y0.625 Z-1.250
G1 X76.875 Y429.375 Z-1.250
G1 X76.250 Y429.375 Z-1.250
G1 X76.250 Y0.625 Z-1.250
G1 X75.625 Y0.625 Z-1.250
G1 X75.625 Y429.375 Z-1.250
G1 X75.000 Y429.375 Z-1.250
G1 X75.000 Y0.625 Z-1.250
G1 X74.375 Y0.625 Z-1.250
G1 X74.375 Y429.375 Z-1.250
G1 X73.750 Y429.375 Z-1.250
G1 X73.750 Y0.625 Z-1.250
G1 X73.125 Y0.625 Z-1.250
G1 X73.125 Y429.375 Z-1.250
G1 X72.500 Y429.375 Z-1.250
G1 X72.500 Y0.625 Z-1.250
G1 X71.875 Y0.625 Z-1.250
G1 X71.875 Y429.375 Z-1.250
G1 X71.250 Y429.375 Z-1.250
G1 X71.250 Y0.625 Z-1.250
G1 X70.625 Y0.625 Z-1.250
G1 X70.625 Y429.375 Z-1.250
G1 X70.000 Y429.375 Z-1.250
G1 X70.000 Y0.625 Z-1.250
G1 X69.375 Y0.625 Z-1.250
G1 X69.375 Y429.375 Z-1.250
G1 X68.750 Y429.375 Z-1.250
G1 X68.750 Y0.625 Z-1.250
G1 X68.125 Y0.625 Z-1.250
G1 X68.125 Y429.375 Z-1.250
G1 X67.500 Y429.375 Z-1.250
G1 X67.500 Y0.625 Z-1.250
G1 X66.875 Y0.625 Z-1.250
G1 X66.875 Y429.375 Z-1.250
G1 X66.250 Y429.375 Z-1.250
G1 X66.250 Y0.625 Z-1.250
G1 X65.625 Y0.625 Z-1.250
G1 X65.625 Y429.375 Z-1.250
G1 X65.000 Y429.375 Z-1.250
G1 X65.000 Y0.625 Z-1.250
G1 X64.375 Y0.625 Z-1.250
G1 X64.375 Y429.375 Z-1.250
G1 X63.750 Y429.375 Z-1.250
G1 X63.750 Y0.625 Z-1.250
G1 X63.125 Y0.625 Z-1.250
G1 X63.125 Y429.375 Z-1.250
G1 X62.500 Y429.375 Z-1.250
G1 X62.500 Y0.625 Z-1.250
G1 X61.875 Y0.625 Z-1.250
G1 X61.875 Y429.375 Z-1.250
G1 X61.250 Y429.375 Z-1.250
G1 X61.250 Y0.625 Z-1.250
G1 X60.625 Y0.625 Z-1.250
G1 X60.625 Y429.375 Z-1.250
G1 X60.000 Y429.375 Z-1.250
G1 X60.000 Y0.625 Z-1.250
G1 X59.375 Y0.625 Z-1.250
G1 X59.375 Y429.375 Z-1.250
G1 X58.750 Y429.375 Z-1.250
G1 X58.750 Y0.625 Z-1.250
G1 X58.125 Y0.625 Z-1.250
G1 X58.125 Y429.375 Z-1.250
G1 X57.500 Y429.375 Z-1.250
G1 X57.500 Y0.625 Z-1.250
G1 X56.875 Y0.625 Z-1.250
G1 X56.875 Y429.375 Z-1.250
G1 X56.250 Y429.375 Z-1.250
G1 X56.250 Y0.625 Z-1.250
G1 X55.625 Y0.625 Z-1.250
G1 X55.625 Y429.375 Z-1.250
G1 X55.000 Y429.375 Z-1.250
G1 X55.000 Y0.625 Z-1.250
G1 X54.375 Y0.625 Z-1.250
G1 X54.375 Y429.375 Z-1.250
G1 X53.750 Y429.375 Z-1.250
G1 X53.750 Y0.625 Z-1.250
G1 X53.125 Y0.625 Z-1.250
G1 X53.125 Y429.375 Z-1.250
G1 X52.500 Y429.375 Z-1.250
G1 X52.500 Y0.625 Z-1.250
G1 X51.875 Y0.625 Z-1.250
G1 X51.875 Y429.375 Z-1.250
G1 X51.250 Y429.375 Z-1.250
G1 X51.250 Y0.625 Z-1.250
G1 X50.625 Y0.625 Z-1.250
G1 X50.625 Y429.375 Z-1.250
G1 X50.000 Y429.375 Z-1.250
G1 X50.000 Y0.625 Z-1.250
G1 X49.375 Y0.625 Z-1.250
G1 X49.375 Y429.375 Z-1.250
G1 X48.750 Y429.375 Z-1.250
G1 X48.750 Y0.625 Z-1.250
G1 X48.125 Y0.625 Z-1.250
G1 X48.125 Y429.375 Z-1.250
G1 X47.500 Y429.375 Z-1.250
G1 X47.500 Y0.625 Z-1.250
G1 X46.875 Y0.625 Z-1.250
G1 X46.875 Y429.375 Z-1.250
G1 X46.250 Y429.375 Z-1.250
G1 X46.250 Y0.625 Z-1.250
G1 X45.625 Y0.625 Z-1.250
G1 X45.625 Y429.375 Z-1.250
G1 X45.000 Y429.375 Z-1.250
G1 X45.000 Y0.625 Z-1.250
G1 X44.375 Y0.625 Z-1.250
G1 X44.375 Y429.375 Z-1.250
G1 X43.750 Y429.375 Z-1.250
G1 X43.750 Y0.625 Z-1.250
G1 X43.125 Y0.625 Z-1.250
G1 X43.125 Y429.375 Z-1.250
G1 X42.500 Y429.375 Z-1.250
G1 X42.500 Y0.625 Z-1.250
G1 X41.875 Y0.625 Z-1.250
G1 X41.875 Y429.375 Z-1.250
G1 X41.250 Y429.375 Z-1.250
G1 X41.250 Y0.625 Z-1.250
G1 X40.625 Y0.625 Z-1.250
G1 X40.625 Y429.375 Z-1.250
G1 X40.000 Y429.375 Z-1.250
G1 X40.000 Y0.625 Z-1.250
G1 X39.375 Y0.625 Z-1.250
G1 X39.375 Y429.375 Z-1.250
G1 X38.750 Y429.375 Z-1.250
G1 X38.750 Y0.625 Z-1.250
G1 X38.125 Y0.625 Z-1.250
G1 X38.125 Y429.375 Z-1.250
G1 X37.500 Y429.375 Z-1.250
G1 X37.500 Y0.625 Z-1.250
G1 X36.875 Y0.625 Z-1.250
G1 X36.875 Y429.375 Z-1.250
G1 X36.250 Y429.375 Z-1.250
G1 X36.250 Y0.625 Z-1.250
G1 X35.625 Y0.625 Z-1.250
G1 X35.625 Y429.375 Z-1.250
G1 X35.000 Y429.375 Z-1.250
G1 X35.000 Y0.625 Z-1.250
G1 X34.375 Y0.625 Z-1.250
G1 X34.375 Y429.375 Z-1.250
G1 X33.750 Y429.375 Z-1.250
G1 X33.750 Y0.625 Z-1.250
G1 X33.125 Y0.625 Z-1.250
G1 X33.125 Y429.375 Z-1.250
G1 X32.500 Y429.375 Z-1.250
G1 X32.500 Y0.625 Z-1.250
G1 X31.875 Y0.625 Z-1.250
G1 X31.875 Y429.375 Z-1.250
G1 X31.250 Y429.375 Z-1.250
G1 X31.250 Y0.625 Z-1.250
G1 X30.625 Y0.625 Z-1.250
G1 X30.625 Y429.375 Z-1.250
G1 X30.000 Y429.375 Z-1.250
G1 X30.000 Y0.625 Z-1.250
G1 X29.375 Y0.625 Z-1.250
G1 X29.375 Y429.375 Z-1.250
G1 X28.750 Y429.375 Z-1.250
G1 X28.750 Y0.625 Z-1.250
G1 X28.125 Y0.625 Z-1.250
G1 X28.125 Y429.375 Z-1.250
G1 X27.500 Y429.375 Z-1.250
G1 X27.500 Y0.625 Z-1.250
G1 X26.875 Y0.625 Z-1.250
G1 X26.875 Y429.375 Z-1.250
G1 X26.250 Y429.375 Z-1.250
G1 X26.250 Y0.625 Z-1.250
G1 X25.625 Y0.625 Z-1.250
G1 X25.625 Y429.375 Z-1.250
G1 X25.000 Y429.375 Z-1.250
G1 X25.000 Y0.625 Z-1.250
G1 X24.375 Y0.625 Z-1.250
G1 X24.375 Y429.375 Z-1.250
G1 X23.750 Y429.375 Z-1.250
G1 X23.750 Y0.625 Z-1.250
G1 X23.125 Y0.625 Z-1.250
G1 X23.125 Y429.375 Z-1.250
G1 X22.500 Y429.375 Z-1.250
G1 X22.500 Y0.625 Z-1.250
G1 X21.875 Y0.625 Z-1.250
G1 X21.875 Y429.375 Z-1.250
G1 X21.250 Y429.375 Z-1.250
G1 X21.250 Y0.625 Z-1.250
G1 X20.625 Y0.625 Z-1.250
G1 X20.625 Y429.375 Z-1.250
G1 X20.000 Y429.375 Z-1.250
G1 X20.000 Y0.625 Z-1.250
G1 X19.375 Y0.625 Z-1.250
G1 X19.375 Y429.375 Z-1.250
G1 X18.750 Y429.375 Z-1.250
G1 X18.750 Y0.625 Z-1.250
G1 X18.125 Y0.625 Z-1.250
G1 X18.125 Y429.375 Z-1.250
G1 X17.500 Y429.375 Z-1.250
G1 X17.500 Y0.625 Z-1.250
G1 X16.875 Y0.625 Z-1.250
G1 X16.875 Y429.375 Z-1.250
G1 X16.250 Y429.375 Z-1.250
G1 X16.250 Y0.625 Z-1.250
G1 X15.625 Y0.625 Z-1.250
G1 X15.625 Y429.375 Z-1.250
G1 X15.000 Y429.375 Z-1.250
G1 X15.000 Y0.625 Z-1.250
G1 X14.375 Y0.625 Z-1.250
G1 X14.375 Y429.375 Z-1.250
G1 X13.750 Y429.375 Z-1.250
G1 X13.750 Y0.625 Z-1.250
G1 X13.125 Y0.625 Z-1.250
G1 X13.125 Y429.375 Z-1.250
G1 X12.500 Y429.375 Z-1.250
G1 X12.500 Y0.625 Z-1.250
G1 X11.875 Y0.625 Z-1.250
G1 X11.875 Y429.375 Z-1.250
G1 X11.250 Y429.375 Z-1.250
G1 X11.250 Y0.625 Z-1.250
G1 X10.625 Y0.625 Z-1.250
G1 X10.625 Y429.375 Z-1.250
G1 X10.000 Y429.375 Z-1.250
G1 X10.000 Y0.625 Z-1.250
G1 X9.375 Y0.625 Z-1.250
G1 X9.375 Y429.375 Z-1.250
G1 X8.750 Y429.375 Z-1.250
G1 X8.750 Y0.625 Z-1.250
G1 X8.125 Y0.625 Z-1.250
G1 X8.125 Y429.375 Z-1.250
G1 X7.500 Y429.375 Z-1.250
G1 X7.500 Y0.625 Z-1.250
G1 X6.875 Y0.625 Z-1.250
G1 X6.875 Y429.375 Z-1.250
G1 X6.250 Y429.375 Z-1.250
G1 X6.250 Y0.625 Z-1.250
G1 X5.625 Y0.625 Z-1.250
G1 X5.625 Y429.375 Z-1.250
G1 X5.000 Y429.375 Z-1.250
G1 X5.000 Y0.625 Z-1.250
G1 X4.375 Y0.625 Z-1.250
G1 X4.375 Y429.375 Z-1.250
G1 X3.750 Y429.375 Z-1.250
G1 X3.750 Y0.625 Z-1.250
G1 X3.125 Y0.625 Z-1.250
G1 X3.125 Y429.375 Z-1.250
G1 X2.500 Y429.375 Z-1.250
G1 X2.500 Y0.625 Z-1.250
G1 X1.875 Y0.625 Z-1.250
G1 X1.875 Y429.375 Z-1.250
G1 X1.250 Y429.375 Z-1.250
G1 X1.250 Y0.625 Z-1.250
G1 X0.625 Y0.625 Z-1.250
G1 X0.625 Y429.375 Z-1.250
G1 X0.625 Y429.375 Z-2.000
G1 X0.625 Y0.625 Z-2.000
G1 X1.250 Y0.625 Z-2.000
G1 X1.250 Y429.375 Z-2.000
G1 X1.875 Y429.375 Z-2.000
G1 X1.875 Y0.625 Z-2.000
G1 X2.500 Y0.625 Z-2.000
G1 X2.500 Y429.375 Z-2.000
G1 X3.125 Y429.375 Z-2.000
G1 X3.125 Y0.625 Z-2.000
G1 X3.750 Y0.625 Z-2.000
G1 X3.750 Y429.375 Z-2.000
G1 X4.375 Y429.375 Z-2.000
G1 X4.375 Y0.625 Z-2.000
G1 X5.000 Y0.625 Z-2.000
G1 X5.000 Y429.375 Z-2.000
G1 X5.625 Y429.375 Z-2.000
G1 X5.625 Y0.625 Z-2.000
G1 X6.250 Y0.625 Z-2.000
G1 X6.250 Y429.375 Z-2.000
G1 X6.875 Y429.375 Z-2.000
G1 X6.875 Y0.625 Z-2.000
G1 X7.500 Y0.625 Z-2.000
G1 X7.500 Y429.375 Z-2.000
G1 X8.125 Y429.375 Z-2.000
G1 X8.125 Y0.625 Z-2.000
G1 X8.750 Y0.625 Z-2.000
G1 X8.750 Y429.375 Z-2.000
G1 X9.375 Y429.375 Z-2.000
G1 X9.375 Y0.625 Z-2.000
G1 X10.000 Y0.625 Z-2.000
G1 X10.000 Y429.375 Z-2.000
G1 X10.625 Y429.375 Z-2.000
G1 X10.625 Y0.625 Z-2.000
G1 X11.250 Y0.625 Z-2.000
G1 X11.250 Y429.375 Z-2.000
G1 X11.875 Y429.375 Z-2.000
G1 X11.875 Y0.625 Z-2.000
G1 X12.500 Y0.625 Z-2.000
G1 X12.500 Y429.375 Z-2.000
G1 X13.125 Y429.375 Z-2.000
G1 X13.125 Y0.625 Z-2.000
G1 X13.750 Y0.625 Z-2.000
G1 X13.750 Y429.375 Z-2.000
G1 X14.375 Y429.375 Z-2.000
G1 X14.375 Y0.625 Z-2.000
G1 X15.000 Y0.625 Z-2.000
G1 X15.000 Y429.375 Z-2.000
G1 X15.625 Y429.375 Z-2.000
G1 X15.625 Y0.625 Z-2.000
G1 X16.250 Y0.625 Z-2.000
G1 X16.250 Y429.375 Z-2.000
G1 X16.875 Y429.375 Z-2.000
G1 X16.875 Y0.625 Z-2.000
G1 X17.500 Y0.625 Z-2.000
G1 X17.500 Y429.375 Z-2.000
G1 X18.125 Y429.375 Z-2.000
G1 X18.125 Y0.625 Z-2.000
G1 X18.750 Y0.625 Z-2.000
G1 X18.750 Y429.375 Z-2.000
G1 X19.375 Y429.375 Z-2.000
G1 X19.375 Y0.625 Z-2.000
G1 X20.000 Y0.625 Z-2.000
G1 X20.000 Y429.375 Z-2.000
G1 X20.625 Y429.375 Z-2.000
G1 X20.625 Y0.625 Z-2.000
G1 X21.250 Y0.625 Z-2.000
G1 X21.250 Y429.375 Z-2.000
G1 X21.875 Y429.375 Z-2.000
G1 X21.875 Y0.625 Z-2.000
G1 X22.500 Y0.625 Z-2.000
G1 X22.500 Y429.375 Z-2.000
G1 X23.125 Y429.375 Z-2.000
G1 X23.125 Y0.625 Z-2.000
G1 X23.750 Y0.625 Z-2.000
G1 X23.750 Y429.375 Z-2.000
G1 X24.375 Y429.375 Z-2.000
G1 X24.375 Y0.625 Z-2.000
G1 X25.000 Y0.625 Z-2.000
G1 X25.000 Y429.375 Z-2.000
G1 X25.625 Y429.375 Z-2.000
G1 X25.625 Y0.625 Z-2.000
G1 X26.250 Y0.625 Z-2.000
G1 X26.250 Y429.375 Z-2.000
G1 X26.875 Y429.375 Z-2.000
G1 X26.875 Y0.625 Z-2.000
G1 X27.500 Y0.625 Z-2.000
G1 X27.500 Y429.375 Z-2.000
G1 X28.125 Y429.375 Z-2.000
G1 X28.125 Y0.625 Z-2.000
G1 X28.750 Y0.625 Z-2.000
G1 X28.750 Y429.375 Z-2.000
G1 X29.375 Y429.375 Z-2.000
G1 X29.375 Y0.625 Z-2.000
G1 X30.000 Y0.625 Z-2.000
G1 X30.000 Y429.375 Z-2.000
G1 X30.625 Y429.375 Z-2.000
G1 X30.625 Y0.625 Z-2.000
G1 X31.250 Y0.625 Z-2.000
G1 X31.250 Y429.375 Z-2.000
G1 X31.875 Y429.375 Z-2.000
G1 X31.875 Y0.625 Z-2.000
G1 X32.500 Y0.625 Z-2.000
G1 X32.500 Y429.375 Z-2.000
G1 X33.125 Y429.375 Z-2.000
G1 X33.125 Y0.625 Z-2.000
G1 X33.750 Y0.625 Z-2.000
G1 X33.750 Y429.375 Z-2.000
G1 X34.375 Y429.375 Z-2.000
G1 X34.375 Y0.625 Z-2.000
G1 X35.000 Y0.625 Z-2.000
G1 X35.000 Y429.375 Z-2.000
G1 X35.625 Y429.375 Z-2.000
G1 X35.625 Y0.625 Z-2.000
G1 X36.250 Y0.625 Z-2.000
G1 X36.250 Y429.375 Z-2.000
G1 X36.875 Y429.375 Z-2.000
G1 X36.875 Y0.625 Z-2.000
G1 X37.500 Y0.625 Z-2.000
G1 X37.500 Y429.375 Z-2.000
G1 X38.125 Y429.375 Z-2.000
G1 X38.125 Y0.625 Z-2.000
G1 X38.750 Y0.625 Z-2.000
G1 X38.750 Y429.375 Z-2.000
G1 X39.375 Y429.375 Z-2.000
G1 X39.375 Y0.625 Z-2.000
G1 X40.000 Y0.625 Z-2.000
G1 X40.000 Y429.375 Z-2.000
G1 X40.625 Y429.375 Z-2.000
G1 X40.625 Y0.625 Z-2.000
G1 X41.250 Y0.625 Z-2.000
G1 X41.250 Y429.375 Z-2.000
G1 X41.875 Y429.375 Z-2.000
G1 X41.875 Y0.625 Z-2.000
G1 X42.500 Y0.625 Z-2.000
G1 X42.500 Y429.375 Z-2.000
G1 X43.125 Y429.375 Z-2.000
G1 X43.125 Y0.625 Z-2.000
G1 X43.750 Y0.625 Z-2.000
G1 X43.750 Y429.375 Z-2.000
G1 X44.375 Y429.375 Z-2.000
G1 X44.375 Y0.625 Z-2.000
G1 X45.000 Y0.625 Z-2.000
G1 X45.000 Y429.375 Z-2.000
G1 X45.625 Y429.375 Z-2.000
G1 X45.625 Y0.625 Z-2.000
G1 X46.250 Y0.625 Z-2.000
G1 X46.250 Y429.375 Z-2.000
G1 X46.875 Y429.375 Z-2.000
G1 X46.875 Y0.625 Z-2.000
G1 X47.500 Y0.625 Z-2.000
G1 X47.500 Y429.375 Z-2.000
G1 X48.125 Y429.375 Z-2.000
G1 X48.125 Y0.625 Z-2.000
G1 X48.750 Y0.625 Z-2.000
G1 X48.750 Y429.375 Z-2.000
G1 X49.375 Y429.375 Z-2.000
G1 X49.375 Y0.625 Z-2.000
G1 X50.000 Y0.625 Z-2.000
G1 X50.000 Y429.375 Z-2.000
G1 X50.625 Y429.375 Z-2.000
G1 X50.625 Y0.625 Z-2.000
G1 X51.250 Y0.625 Z-2.000
G1 X51.250 Y429.375 Z-2.000
G1 X51.875 Y429.375 Z-2.000
G1 X51.875 Y0.625 Z-2.000
G1 X52.500 Y0.625 Z-2.000
G1 X52.500 Y429.375 Z-2.000
G1 X53.125 Y429.375 Z-2.000
G1 X53.125 Y0.625 Z-2.000
G1 X53.750 Y0.625 Z-2.000
G1 X53.750 Y429.375 Z-2.000
G1 X54.375 Y429.375 Z-2.000
G1 X54.375 Y0.625 Z-2.000
G1 X55.000 Y0.625 Z-2.000
G1 X55.000 Y429.375 Z-2.000
G1 X55.625 Y429.375 Z-2.000
G1 X55.625 Y0.625 Z-2.000
G1 X56.250 Y0.625 Z-2.000
G1 X56.250 Y429.375 Z-2.000
G1 X56.875 Y429.375 Z-2.000
G1 X56.875 Y0.625 Z-2.000
G1 X57.500 Y0.625 Z-2.000
G1 X57.500 Y429.375 Z-2.000
G1 X58.125 Y429.375 Z-2.000
G1 X58.125 Y0.625 Z-2.000
G1 X58.750 Y0.625 Z-2.000
G1 X58.750 Y429.375 Z-2.000
G1 X59.375 Y429.375 Z-2.000
G1 X59.375 Y0.625 Z-2.000
G1 X60.000 Y0.625 Z-2.000
G1 X60.000 Y429.375 Z-2.000
G1 X60.625 Y429.375 Z-2.000
G1 X60.625 Y0.625 Z-2.000
G1 X61.250 Y0.625 Z-2.000
G1 X61.250 Y429.375 Z-2.000
G1 X61.875 Y429.375 Z-2.000
G1 X61.875 Y0.625 Z-2.000
G1 X62.500 Y0.625 Z-2.000
G1 X62.500 Y429.375 Z-2.000
G1 X63.125 Y429.375 Z-2.000
G1 X63.125 Y0.625 Z-2.000
G1 X63.750 Y0.625 Z-2.000
G1 X63.750 Y429.375 Z-2.000
G1 X64.375 Y429.375 Z-2.000
G1 X64.375 Y0.625 Z-2.000
G1 X65.000 Y0.625 Z-2.000
G1 X65.000 Y429.375 Z-2.000
G1 X65.625 Y429.375 Z-2.000
G1 X65.625 Y0.625 Z-2.000
G1 X66.250 Y0.625 Z-2.000
G1 X66.250 Y429.375 Z-2.000
G1 X66.875 Y429.375 Z-2.000
G1 X66.875 Y0.625 Z-2.000
G1 X67.500 Y0.625 Z-2.000
G1 X67.500 Y429.375 Z-2.000
G1 X68.125 Y429.375 Z-2.000
G1 X68.125 Y0.625 Z-2.000
G1 X68.750 Y0.625 Z-2.000
G1 X68.750 Y429.375 Z-2.000
G1 X69.375 Y429.375 Z-2.000
G1 X69.375 Y0.625 Z-2.000
G1 X70.000 Y0.625 Z-2.000
G1 X70.000 Y429.375 Z-2.000
G1 X70.625 Y429.375 Z-2.000
G1 X70.625 Y0.625 Z-2.000
G1 X71.250 Y0.625 Z-2.000
G1 X71.250 Y429.375 Z-2.000
G1 X71.875 Y429.375 Z-2.000
G1 X71.875 Y0.625 Z-2.000
G1 X72.500 Y0.625 Z-2.000
G1 X72.500 Y429.375 Z-2.000
G1 X73.125 Y429.375 Z-2.000
G1 X73.125 Y0.625 Z-2.000
G1 X73.750 Y0.625 Z-2.000
G1 X73.750 Y429.375 Z-2.000
G1 X74.375 Y429.375 Z-2.000
G1 X74.375 Y0.625 Z-2.000
G1 X75.000 Y0.625 Z-2.000
G1 X75.000 Y429.375 Z-2.000
G1 X75.625 Y429.375 Z-2.000
G1 X75.625 Y0.625 Z-2.000
G1 X76.250 Y0.625 Z-2.000
G1 X76.250 Y429.375 Z-2.000
G1 X76.875 Y429.375 Z-2.000
G1 X76.875 Y0.625 Z-2.000
G1 X77.500 Y0.625 Z-2.000
G1 X77.500 Y429.375 Z-2.000
G1 X78.125 Y429.375 Z-2.000
G1 X78.125 Y0.625 Z-2.000
G1 X78.750 Y0.625 Z-2.000
G1 X78.750 Y429.375 Z-2.000
G1 X79.375 Y429.375 Z-2.000
G1 X79.375 Y0.625 Z-2.000
G1 X80.000 Y0.625 Z-2.000
G1 X80.000 Y429.375 Z-2.000
G1 X80.625 Y429.375 Z-2.000
G1 X80.625 Y0.625 Z-2.000
G1 X81.250 Y0.625 Z-2.000
G1 X81.250 Y429.375 Z-2.000
G1 X81.875 Y429.375 Z-2.000
G1 X81.875 Y0.625 Z-2.000
G1 X82.500 Y0.625 Z-2.000
G1 X82.500 Y429.375 Z-2.000
G1 X83.125 Y429.375 Z-2.000
G1 X83.125 Y0.625 Z-2.000
G1 X83.750 Y0.625 Z-2.000
G1 X83.750 Y429.375 Z-2.000
G1 X84.375 Y429.375 Z-2.000
G1 X84.375 Y0.625 Z-2.000
G1 X85.000 Y0.625 Z-2.000
G1 X85.000 Y429.375 Z-2.000
G1 X85.625 Y429.375 Z-2.000
G1 X85.625 Y0.625 Z-2.000
G1 X86.250 Y0.625 Z-2.000
G1 X86.250 Y429.375 Z-2.000
G1 X86.875 Y429.375 Z-2.000
G1 X86.875 Y0.625 Z-2.000
G1 X87.500 Y0.625 Z-2.000
G1 X87.500 Y429.375 Z-2.000
G1 X88.125 Y429.375 Z-2.000
G1 X88.125 Y0.625 Z-2.000
G1 X88.750 Y0.625 Z-2.000
G1 X88.750 Y429.375 Z-2.000
G1 X89.375 Y429.375 Z-2.000
G1 X89.375 Y0.625 Z-2.000
G1 X90.000 Y0.625 Z-2.000
G1 X90.000 Y429.375 Z-2.000
G1 X90.625 Y429.375 Z-2.000
G1 X90.625 Y0.625 Z-2.000
G1 X91.250 Y0.625 Z-2.000
G1 X91.250 Y429.375 Z-2.000
G1 X91.875 Y429.375 Z-2.000
G1 X91.875 Y0.625 Z-2.000
G1 X92.500 Y0.625 Z-2.000
G1 X92.500 Y429.375 Z-2.000
G1 X93.125 Y429.375 Z-2.000
G1 X93.125 Y0.625 Z-2.000
G1 X93.750 Y0.625 Z-2.000
G1 X93.750 Y429.375 Z-2.000
G1 X94.375 Y429.375 Z-2.000
G1 X94.375 Y0.625 Z-2.000
G1 X95.000 Y0.625 Z-2.000
G1 X95.000 Y429.375 Z-2.000
G1 X95.625 Y429.375 Z-2.000
G1 X95.625 Y0.625 Z-2.000
G1 X96.250 Y0.625 Z-2.000
G1 X96.250 Y429.375 Z-2.000
G1 X96.875 Y429.375 Z-2.000
G1 X96.875 Y0.625 Z-2.000
G1 X97.500 Y0.625 Z-2.000
G1 X97.500 Y429.375 Z-2.000
G1 X98.125 Y429.375 Z-2.000
G1 X98.125 Y0.625 Z-2.000
G1 X98.750 Y0.625 Z-2.000
G1 X98.750 Y429.375 Z-2.000
G1 X99.375 Y429.375 Z-2.000
G1 X99.375 Y0.625 Z-2.000
G1 X100.000 Y0.625 Z-2.000
G1 X100.000 Y429.375 Z-2.000
G1 X100.625 Y429.375 Z-2.000
G1 X100.625 Y0.625 Z-2.000
G1 X101.250 Y0.625 Z-2.000
G1 X101.250 Y429.375 Z-2.000
G1 X101.875 Y429.375 Z-2.000
G1 X101.875 Y0.625 Z-2.000
G1 X102.500 Y0.625 Z-2.000
G1 X102.500 Y429.375 Z-2.000
G1 X103.125 Y429.375 Z-2.000
G1 X103.125 Y0.625 Z-2.000
G1 X103.750 Y0.625 Z-2.000
G1 X103.750 Y429.375 Z-2.000
G1 X104.375 Y429.375 Z-2.000
G1 X104.375 Y0.625 Z-2.000
G1 X105.000 Y0.625 Z-2.000
G1 X105.000 Y429.375 Z-2.000
G1 X105.625 Y429.375 Z-2.000
G1 X105.625 Y0.625 Z-2.000
G1 X106.250 Y0.625 Z-2.000
G1 X106.250 Y429.375 Z-2.000
G1 X106.875 Y429.375 Z-2.000
G1 X106.875 Y0.625 Z-2.000
G1 X107.500 Y0.625 Z-2.000
G1 X107.500 Y429.375 Z-2.000
G1 X108.125 Y429.375 Z-2.000
G1 X108.125 Y0.625 Z-2.000
G1 X108.750 Y0.625 Z-2.000
G1 X108.750 Y429.375 Z-2.000
G1 X109.375 Y429.375 Z-2.000
G1 X109.375 Y0.625 Z-2.000
G1 X110.000 Y0.625 Z-2.000
G1 X110.000 Y429.375 Z-2.000
G1 X110.625 Y429.375 Z-2.000
G1 X110.625 Y0.625 Z-2.000
G1 X111.250 Y0.625 Z-2.000
G1 X111.250 Y429.375 Z-2.000
G1 X111.875 Y429.375 Z-2.000
G1 X111.875 Y0.625 Z-2.000
G1 X112.500 Y0.625 Z-2.000
G1 X112.500 Y429.375 Z-2.000
G1 X113.125 Y429.375 Z-2.000
G1 X113.125 Y0.625 Z-2.000
G1 X113.750 Y0.625 Z-2.000
G1 X113.750 Y429.375 Z-2.000
G1 X114.375 Y429.375 Z-2.000
G1 X114.375 Y0.625 Z-2.000
G1 X115.000 Y0.625 Z-2.000
G1 X115.000 Y429.375 Z-2.000
G1 X115.625 Y429.375 Z-2.000
G1 X115.625 Y0.625 Z-2.000
G1 X116.250 Y0.625 Z-2.000
G1 X116.250 Y429.375 Z-2.000
G1 X116.875 Y429.375 Z-2.000
G1 X116.875 Y0.625 Z-2.000
G1 X117.500 Y0.625 Z-2.000
G1 X117.500 Y429.375 Z-2.000
G1 X118.125 Y429.375 Z-2.000
G1 X118.125 Y0.625 Z-2.000
G1 X118.750 Y0.625 Z-2.000
G1 X118.750 Y429.375 Z-2.000
G1 X119.375 Y429.375 Z-2.000
G1 X119.375 Y0.625 Z-2.000
G1 X120.000 Y0.625 Z-2.000
G1 X120.000 Y429.375 Z-2.000
G1 X120.625 Y429.375 Z-2.000
G1 X120.625 Y0.625 Z-2.000
G1 X121.250 Y0.625 Z-2.000
G1 X121.250 Y429.375 Z-2.000
G1 X121.875 Y429.375 Z-2.000
G1 X121.875 Y0.625 Z-2.000
G1 X122.500 Y0.625 Z-2.000
G1 X122.500 Y429.375 Z-2.000
G1 X123.125 Y429.375 Z-2.000
G1 X123.125 Y0.625 Z-2.000
G1 X123.750 Y0.625 Z-2.000
G1 X123.750 Y429.375 Z-2.000
G1 X124.375 Y429.375 Z-2.000
G1 X124.375 Y0.625 Z-2.000
G1 X125.000 Y0.625 Z-2.000
G1 X125.000 Y429.375 Z-2.000
G1 X125.625 Y429.375 Z-2.000
G1 X125.625 Y0.625 Z-2.000
G1 X126.250 Y0.625 Z-2.000
G1 X126.250 Y429.375 Z-2.000
G1 X126.875 Y429.375 Z-2.000
G1 X126.875 Y0.625 Z-2.000
G1 X127.500 Y0.625 Z-2.000
G1 X127.500 Y429.375 Z-2.000
G1 X128.125 Y429.375 Z-2.000
G1 X128.125 Y0.625 Z-2.000
G1 X128.750 Y0.625 Z-2.000
G1 X128.750 Y429.375 Z-2.000
G1 X129.375 Y429.375 Z-2.000
G1 X129.375 Y0.625 Z-2.000
G1 X130.000 Y0.625 Z-2.000
G1 X130.000 Y429.375 Z-2.000
G1 X130.625 Y429.375 Z-2.000
G1 X130.625 Y0.625 Z-2.000
G1 X131.250 Y0.625 Z-2.000
G1 X131.250 Y429.375 Z-2.000
G1 X131.875 Y429.375 Z-2.000
G1 X131.875 Y0.625 Z-2.000
G1 X132.500 Y0.625 Z-2.000
G1 X132.500 Y429.375 Z-2.000
G1 X133.125 Y429.375 Z-2.000
G1 X133.125 Y0.625 Z-2.000
G1 X133.750 Y0.625 Z-2.000
G1 X133.750 Y429.375 Z-2.000
G1 X134.375 Y429.375 Z-2.000
G1 X134.375 Y0.625 Z-2.000
G1 X135.000 Y0.625 Z-2.000
G1 X135.000 Y429.375 Z-2.000
G1 X135.625 Y429.375 Z-2.000
G1 X135.625 Y0.625 Z-2.000
G1 X136.250 Y0.625 Z-2.000
G1 X136.250 Y429.375 Z-2.000
G1 X136.875 Y429.375 Z-2.000
G1 X136.875 Y0.625 Z-2.000
G1 X137.500 Y0.625 Z-2.000
G1 X137.500 Y429.375 Z-2.000
G1 X138.125 Y429.375 Z-2.000
G1 X138.125 Y0.625 Z-2.000
G1 X138.750 Y0.625 Z-2.000
G1 X138.750 Y429.375 Z-2.000
G1 X139.375 Y429.375 Z-2.000
G1 X139.375 Y0.625 Z-2.000
G1 X140.000 Y0.625 Z-2.000
G1 X140.000 Y429.375 Z-2.000
G1 X140.625 Y429.375 Z-2.000
G1 X140.625 Y0.625 Z-2.000
G1 X141.250 Y0.625 Z-2.000
G1 X141.250 Y429.375 Z-2.000
G1 X141.875 Y429.375 Z-2.000
G1 X141.875 Y0.625 Z-2.000
G1 X142.500 Y0.625 Z-2.000
G1 X142.500 Y429.375 Z-2.000
G1 X143.125 Y429.375 Z-2.000
G1 X143.125 Y0.625 Z-2.000
G1 X143.750 Y0.625 Z-2.000
G1 X143.750 Y429.375 Z-2.000
G1 X144.375 Y429.375 Z-2.000
G1 X144.375 Y0.625 Z-2.000
G1 X145.000 Y0.625 Z-2.000
G1 X145.000 Y429.375 Z-2.000
G1 X145.625 Y429.375 Z-2.000
G1 X145.625 Y0.625 Z-2.000
G1 X146.250 Y0.625 Z-2.000
G1 X146.250 Y429.375 Z-2.000
G1 X146.875 Y429.375 Z-2.000
G1 X146.875 Y0.625 Z-2.000
G1 X147.500 Y0.625 Z-2.000
G1 X147.500 Y429.375 Z-2.000
G1 X148.125 Y429.375 Z-2.000
G1 X148.125 Y0.625 Z-2.000
G1 X148.750 Y0.625 Z-2.000
G1 X148.750 Y429.375 Z-2.000
G1 X149.375 Y429.375 Z-2.000
G1 X149.375 Y0.625 Z-2.000
G1 X150.000 Y0.625 Z-2.000
G1 X150.000 Y429.375 Z-2.000
G1 X150.625 Y429.375 Z-2.000
G1 X150.625 Y0.625 Z-2.000
G1 X151.250 Y0.625 Z-2.000
G1 X151.250 Y429.375 Z-2.000
G1 X151.875 Y429.375 Z-2.000
G1 X151.875 Y0.625 Z-2.000
G1 X152.500 Y0.625 Z-2.000
G1 X152.500 Y429.375 Z-2.000
G1 X153.125 Y429.375 Z-2.000
G1 X153.125 Y0.625 Z-2.000
G1 X153.750 Y0.625 Z-2.000
G1 X153.750 Y429.375 Z-2.000
G1 X154.375 Y429.375 Z-2.000
G1 X154.375 Y0.625 Z-2.000
G1 X155.000 Y0.625 Z-2.000
G1 X155.000 Y429.375 Z-2.000
G1 X155.625 Y429.375 Z-2.000
G1 X155.625 Y0.625 Z-2.000
G1 X156.250 Y0.625 Z-2.000
G1 X156.250 Y429.375 Z-2.000
G1 X156.875 Y429.375 Z-2.000
G1 X156.875 Y0.625 Z-2.000
G1 X157.500 Y0.625 Z-2.000
G1 X157.500 Y429.375 Z-2.000
G1 X158.125 Y429.375 Z-2.000
G1 X158.125 Y0.625 Z-2.000
G1 X158.750 Y0.625 Z-2.000
G1 X158.750 Y429.375 Z-2.000
G1 X159.375 Y429.375 Z-2.000
G1 X159.375 Y0.625 Z-2.000
G1 X160.000 Y0.625 Z-2.000
G1 X160.000 Y429.375 Z-2.000
G1 X160.625 Y429.375 Z-2.000
G1 X160.625 Y0.625 Z-2.000
G1 X161.250 Y0.625 Z-2.000
G1 X161.250 Y429.375 Z-2.000
G1 X161.875 Y429.375 Z-2.000
G1 X161.875 Y0.625 Z-2.000
G1 X162.500 Y0.625 Z-2.000
G1 X162.500 Y429.375 Z-2.000
G1 X163.125 Y429.375 Z-2.000
G1 X163.125 Y0.625 Z-2.000
G1 X163.750 Y0.625 Z-2.000
G1 X163.750 Y429.375 Z-2.000
G1 X164.375 Y429.375 Z-2.000
G1 X164.375 Y0.625 Z-2.000
G1 X165.000 Y0.625 Z-2.000
G1 X165.000 Y429.375 Z-2.000
G1 X165.625 Y429.375 Z-2.000
G1 X165.625 Y0.625 Z-2.000
G1 X166.250 Y0.625 Z-2.000
G1 X166.250 Y429.375 Z-2.000
G1 X166.875 Y429.375 Z-2.000
G1 X166.875 Y0.625 Z-2.000
G1 X167.500 Y0.625 Z-2.000
G1 X167.500 Y429.375 Z-2.000
G1 X168.125 Y429.375 Z-2.000
G1 X168.125 Y0.625 Z-2.000
G1 X168.750 Y0.625 Z-2.000
G1 X168.750 Y429.375 Z-2.000
G1 X169.375 Y429.375 Z-2.000
G1 X169.375 Y0.625 Z-2.000
G1 X170.000 Y0.625 Z-2.000
G1 X170.000 Y429.375 Z-2.000
G1 X170.625 Y429.375 Z-2.000
G1 X170.625 Y0.625 Z-2.000
G1 X171.250 Y0.625 Z-2.000
G1 X171.250 Y429.375 Z-2.000
G1 X171.875 Y429.375 Z-2.000
G1 X171.875 Y0.625 Z-2.000
G1 X172.500 Y0.625 Z-2.000
G1 X172.500 Y429.375 Z-2.000
G1 X173.125 Y429.375 Z-2.000
G1 X173.125 Y0.625 Z-2.000
G1 X173.750 Y0.625 Z-2.000
G1 X173.750 Y429.375 Z-2.000
G1 X174.375 Y429.375 Z-2.000
G1 X174.375 Y0.625 Z-2.000
G1 X175.000 Y0.625 Z-2.000
G1 X175.000 Y429.375 Z-2.000
G1 X175.625 Y429.375 Z-2.000
G1 X175.625 Y0.625 Z-2.000
G1 X176.250 Y0.625 Z-2.000
G1 X176.250 Y429.375 Z-2.000
G1 X176.875 Y429.375 Z-2.000
G1 X176.875 Y0.625 Z-2.000
G1 X177.500 Y0.625 Z-2.000
G1 X177.500 Y429.375 Z-2.000
G1 X178.125 Y429.375 Z-2.000
G1 X178.125 Y0.625 Z-2.000
G1 X178.750 Y0.625 Z-2.000
G1 X178.750 Y429.375 Z-2.000
G1 X179.375 Y429.375 Z-2.000
G1 X179.375 Y0.625 Z-2.000
G1 X180.000 Y0.625 Z-2.000
G1 X180.000 Y429.375 Z-2.000
G1 X180.625 Y429.375 Z-2.000
G1 X180.625 Y0.625 Z-2.000
G1 X181.250 Y0.625 Z-2.000
G1 X181.250 Y429.375 Z-2.000
G1 X181.875 Y429.375 Z-2.000
G1 X181.875 Y0.625 Z-2.000
G1 X182.500 Y0.625 Z-2.000
G1 X182.500 Y429.375 Z-2.000
G1 X183.125 Y429.375 Z-2.000
G1 X183.125 Y0.625 Z-2.000
G1 X183.750 Y0.625 Z-2.000
G1 X183.750 Y429.375 Z-2.000
G1 X184.375 Y429.375 Z-2.000
G1 X184.375 Y0.625 Z-2.000
G1 X185.000 Y0.625 Z-2.000
G1 X185.000 Y429.375 Z-2.000
G1 X185.625 Y429.375 Z-2.000
G1 X185.625 Y0.625 Z-2.000
G1 X186.250 Y0.625 Z-2.000
G1 X186.250 Y429.375 Z-2.000
G1 X186.875 Y429.375 Z-2.000
G1 X186.875 Y0.625 Z-2.000
G1 X187.500 Y0.625 Z-2.000
G1 X187.500 Y429.375 Z-2.000
G1 X188.125 Y429.375 Z-2.000
G1 X188.125 Y0.625 Z-2.000
G1 X188.750 Y0.625 Z-2.000
G1 X188.750 Y429.375 Z-2.000
G1 X189.375 Y429.375 Z-2.000
G1 X189.375 Y0.625 Z-2.000
G1 X190.000 Y0.625 Z-2.000
G1 X190.000 Y429.375 Z-2.000
G1 X190.625 Y429.375 Z-2.000
G1 X190.625 Y0.625 Z-2.000
G1 X191.250 Y0.625 Z-2.000
G1 X191.250 Y429.375 Z-2.000
G1 X191.875 Y429.375 Z-2.000
G1 X191.875 Y0.625 Z-2.000
G1 X192.500 Y0.625 Z-2.000
G1 X192.500 Y429.375 Z-2.000
G1 X193.125 Y429.375 Z-2.000
G1 X193.125 Y0.625 Z-2.000
G1 X193.750 Y0.625 Z-2.000
G1 X193.750 Y429.375 Z-2.000
G1 X194.375 Y429.375 Z-2.000
G1 X194.375 Y0.625 Z-2.000
G1 X195.000 Y0.625 Z-2.000
G1 X195.000 Y429.375 Z-2.000
G1 X195.625 Y429.375 Z-2.000
G1 X195.625 Y0.625 Z-2.000
G1 X196.250 Y0.625 Z-2.000
G1 X196.250 Y429.375 Z-2.000
G1 X196.875 Y429.375 Z-2.000
G1 X196.875 Y0.625 Z-2.000
G1 X197.500 Y0.625 Z-2.000
G1 X197.500 Y429.375 Z-2.000
G1 X198.125 Y429.375 Z-2.000
G1 X198.125 Y0.625 Z-2.000
G1 X198.750 Y0.625 Z-2.000
G1 X198.750 Y429.375 Z-2.000
G1 X199.375 Y429.375 Z-2.000
G1 X199.375 Y0.625 Z-2.000
G1 X200.000 Y0.625 Z-2.000
G1 X200.000 Y429.375 Z-2.000
G1 X200.625 Y429.375 Z-2.000
G1 X200.625 Y0.625 Z-2.000
G1 X201.250 Y0.625 Z-2.000
G1 X201.250 Y429.375 Z-2.000
G1 X201.875 Y429.375 Z-2.000
G1 X201.875 Y0.625 Z-2.000
G1 X202.500 Y0.625 Z-2.000
G1 X202.500 Y429.375 Z-2.000
G1 X203.125 Y429.375 Z-2.000
G1 X203.125 Y0.625 Z-2.000
G1 X203.750 Y0.625 Z-2.000
G1 X203.750 Y429.375 Z-2.000
G1 X204.375 Y429.375 Z-2.000
G1 X204.375 Y0.625 Z-2.000
G1 X205.000 Y0.625 Z-2.000
G1 X205.000 Y429.375 Z-2.000
G1 X205.625 Y429.375 Z-2.000
G1 X205.625 Y0.625 Z-2.000
G1 X206.250 Y0.625 Z-2.000
G1 X206.250 Y429.375 Z-2.000
G1 X206.875 Y429.375 Z-2.000
G1 X206.875 Y0.625 Z-2.000
G1 X207.500 Y0.625 Z-2.000
G1 X207.500 Y429.375 Z-2.000
G1 X208.125 Y429.375 Z-2.000
G1 X208.125 Y0.625 Z-2.000
G1 X208.750 Y0.625 Z-2.000
G1 X208.750 Y429.375 Z-2.000
G1 X209.375 Y429.375 Z-2.000
G1 X209.375 Y0.625 Z-2.000
G1 X210.000 Y0.625 Z-2.000
G1 X210.000 Y429.375 Z-2.000
G1 X210.625 Y429.375 Z-2.000
G1 X210.625 Y0.625 Z-2.000
G1 X211.250 Y0.625 Z-2.000
G1 X211.250 Y429.375 Z-2.000
G1 X211.875 Y429.375 Z-2.000
G1 X211.875 Y0.625 Z-2.000
G1 X212.500 Y0.625 Z-2.000
G1 X212.500 Y429.375 Z-2.000
G1 X213.125 Y429.375 Z-2.000
G1 X213.125 Y0.625 Z-2.000
G1 X213.750 Y0.625 Z-2.000
G1 X213.750 Y429.375 Z-2.000
G1 X214.375 Y429.375 Z-2.000
G1 X214.375 Y0.625 Z-2.000
G1 X215.000 Y0.625 Z-2.000
G1 X215.000 Y429.375 Z-2.000
G1 X215.625 Y429.375 Z-2.000
G1 X215.625 Y0.625 Z-2.000
G1 X216.250 Y0.625 Z-2.000
G1 X216.250 Y429.375 Z-2.000
G1 X216.875 Y429.375 Z-2.000
G1 X216.875 Y0.625 Z-2.000
G1 X217.500 Y0.625 Z-2.000
G1 X217.500 Y429.375 Z-2.000
G1 X218.125 Y429.375 Z-2.000
G1 X218.125 Y0.625 Z-2.000
G1 X218.750 Y0.625 Z-2.000
G1 X218.750 Y429.375 Z-2.000
G1 X219.375 Y429.375 Z-2.000
G1 X219.375 Y0.625 Z-2.000
G1 X220.000 Y0.625 Z-2.000
G1 X220.000 Y429.375 Z-2.000
G1 X220.625 Y429.375 Z-2.000
G1 X220.625 Y0.625 Z-2.000
G1 X221.250 Y0.625 Z-2.000
G1 X221.250 Y429.375 Z-2.000
G1 X221.875 Y429.375 Z-2.000
G1 X221.875 Y0.625 Z-2.000
G1 X222.500 Y0.625 Z-2.000
G1 X222.500 Y429.375 Z-2.000
G1 X223.125 Y429.375 Z-2.000
G1 X223.125 Y0.625 Z-2.000
G1 X223.750 Y0.625 Z-2.000
G1 X223.750 Y429.375 Z-2.000
G1 X224.375 Y429.375 Z-2.000
G1 X224.375 Y0.625 Z-2.000
G1 X225.000 Y0.625 Z-2.000
G1 X225.000 Y429.375 Z-2.000
G1 X225.625 Y429.375 Z-2.000
G1 X225.625 Y0.625 Z-2.000
G1 X226.250 Y0.625 Z-2.000
G1 X226.250 Y429.375 Z-2.000
G1 X226.875 Y429.375 Z-2.000
G1 X226.875 Y0.625 Z-2.000
G1 X227.500 Y0.625 Z-2.000
G1 X227.500 Y429.375 Z-2.000
G1 X228.125 Y429.375 Z-2.000
G1 X228.125 Y0.625 Z-2.000
G1 X228.750 Y0.625 Z-2.000
G1 X228.750 Y429.375 Z-2.000
G1 X229.375 Y429.375 Z-2.000
G1 X229.375 Y0.625 Z-2.000
G1 X230.000 Y0.625 Z-2.000
G1 X230.000 Y429.375 Z-2.000
G1 X230.625 Y429.375 Z-2.000
G1 X230.625 Y0.625 Z-2.000
G1 X231.250 Y0.625 Z-2.000
G1 X231.250 Y429.375 Z-2.000
G1 X231.875 Y429.375 Z-2.000
G1 X231.875 Y0.625 Z-2.000
G1 X232.500 Y0.625 Z-2.000
G1 X232.500 Y429.375 Z-2.000
G1 X233.125 Y429.375 Z-2.000
G1 X233.125 Y0.625 Z-2.000
G1 X233.750 Y0.625 Z-2.000
G1 X233.750 Y429.375 Z-2.000
G1 X234.375 Y429.375 Z-2.000
G1 X234.375 Y0.625 Z-2.000
G1 X235.000 Y0.625 Z-2.000
G1 X235.000 Y429.375 Z-2.000
G1 X235.625 Y429.375 Z-2.000
G1 X235.625 Y0.625 Z-2.000
G1 X236.250 Y0.625 Z-2.000
G1 X236.250 Y429.375 Z-2.000
G1 X236.875 Y429.375 Z-2.000
G1 X236.875 Y0.625 Z-2.000
G1 X237.500 Y0.625 Z-2.000
G1 X237.500 Y429.375 Z-2.000
G1 X238.125 Y429.375 Z-2.000
G1 X238.125 Y0.625 Z-2.000
G1 X238.750 Y0.625 Z-2.000
G1 X238.750 Y429.375 Z-2.000
G1 X239.375 Y429.375 Z-2.000
G1 X239.375 Y0.625 Z-2.000
G1 X240.000 Y0.625 Z-2.000
G1 X240.000 Y429.375 Z-2.000
G1 X240.625 Y429.375 Z-2.000
G1 X240.625 Y0.625 Z-2.000
G1 X241.250 Y0.625 Z-2.000
G1 X241.250 Y429.375 Z-2.000
G1 X241.875 Y429.375 Z-2.000
G1 X241.875 Y0.625 Z-2.000
G1 X242.500 Y0.625 Z-2.000
G1 X242.500 Y429.375 Z-2.000
G1 X243.125 Y429.375 Z-2.000
G1 X243.125 Y0.625 Z-2.000
G1 X243.750 Y0.625 Z-2.000
G1 X243.750 Y429.375 Z-2.000
G1 X244.375 Y429.375 Z-2.000
G1 X244.375 Y0.625 Z-2.000
G1 X245.000 Y0.625 Z-2.000
G1 X245.000 Y429.375 Z-2.000
G1 X245.625 Y429.375 Z-2.000
G1 X245.625 Y0.625 Z-2.000
G1 X246.250 Y0.625 Z-2.000
G1 X246.250 Y429.375 Z-2.000
G1 X246.875 Y429.375 Z-2.000
G1 X246.875 Y0.625 Z-2.000
G1 X247.500 Y0.625 Z-2.000
G1 X247.500 Y429.375 Z-2.000
G1 X248.125 Y429.375 Z-2.000
G1 X248.125 Y0.625 Z-2.000
G1 X248.750 Y0.625 Z-2.000
G1 X248.750 Y429.375 Z-2.000
G1 X249.375 Y429.375 Z-2.000
G1 X249.375 Y0.625 Z-2.000
G1 X250.000 Y0.625 Z-2.000
G1 X250.000 Y429.375 Z-2.000
G1 X250.625 Y429.375 Z-2.000
G1 X250.625 Y0.625 Z-2.000
G1 X251.250 Y0.625 Z-2.000
G1 X251.250 Y429.375 Z-2.000
G1 X251.875 Y429.375 Z-2.000
G1 X251.875 Y0.625 Z-2.000
G1 X252.500 Y0.625 Z-2.000
G1 X252.500 Y429.375 Z-2.000
G1 X253.125 Y429.375 Z-2.000
G1 X253.125 Y0.625 Z-2.000
G1 X253.750 Y0.625 Z-2.000
G1 X253.750 Y429.375 Z-2.000
G1 X254.375 Y429.375 Z-2.000
G1 X254.375 Y0.625 Z-2.000
G1 X255.000 Y0.625 Z-2.000
G1 X255.000 Y429.375 Z-2.000
G1 X255.625 Y429.375 Z-2.000
G1 X255.625 Y0.625 Z-2.000
G1 X256.250 Y0.625 Z-2.000
G1 X256.250 Y429.375 Z-2.000
G1 X256.875 Y429.375 Z-2.000
G1 X256.875 Y0.625 Z-2.000
G1 X257.500 Y0.625 Z-2.000
G1 X257.500 Y429.375 Z-2.000
G1 X258.125 Y429.375 Z-2.000
G1 X258.125 Y0.625 Z-2.000
G1 X258.750 Y0.625 Z-2.000
G1 X258.750 Y429.375 Z-2.000
G1 X259.375 Y429.375 Z-2.000
G1 X259.375 Y0.625 Z-2.000
G1 X260.000 Y0.625 Z-2.000
G1 X260.000 Y429.375 Z-2.000
G1 X260.625 Y429.375 Z-2.000
G1 X260.625 Y0.625 Z-2.000
G1 X261.250 Y0.625 Z-2.000
G1 X261.250 Y429.375 Z-2.000
G1 X261.875 Y429.375 Z-2.000
G1 X261.875 Y0.625 Z-2.000
G1 X262.500 Y0.625 Z-2.000
G1 X262.500 Y429.375 Z-2.000
G1 X263.125 Y429.375 Z-2.000
G1 X263.125 Y0.625 Z-2.000
G1 X263.750 Y0.625 Z-2.000
G1 X263.750 Y429.375 Z-2.000
G1 X264.375 Y429.375 Z-2.000
G1 X264.375 Y0.625 Z-2.000
G1 X265.000 Y0.625 Z-2.000
G1 X265.000 Y429.375 Z-2.000
G1 X265.625 Y429.375 Z-2.000
G1 X265.625 Y0.625 Z-2.000
G1 X266.250 Y0.625 Z-2.000
G1 X266.250 Y429.375 Z-2.000
G1 X266.875 Y429.375 Z-2.000
G1 X266.875 Y0.625 Z-2.000
G1 X267.500 Y0.625 Z-2.000
G1 X267.500 Y429.375 Z-2.000
G1 X268.125 Y429.375 Z-2.000
G1 X268.125 Y0.625 Z-2.000
G1 X268.750 Y0.625 Z-2.000
G1 X268.750 Y429.375 Z-2.000
G1 X269.375 Y429.375 Z-2.000
G1 X269.375 Y0.625 Z-2.000
G1 X270.000 Y0.625 Z-2.000
G1 X270.000 Y429.375 Z-2.000
G1 X270.625 Y429.375 Z-2.000
G1 X270.625 Y0.625 Z-2.000
G1 X271.250 Y0.625 Z-2.000
G1 X271.250 Y429.375 Z-2.000
G1 X271.875 Y429.375 Z-2.000
G1 X271.875 Y0.625 Z-2.000
G1 X272.500 Y0.625 Z-2.000
G1 X272.500 Y429.375 Z-2.000
G1 X273.125 Y429.375 Z-2.000
G1 X273.125 Y0.625 Z-2.000
G1 X273.750 Y0.625 Z-2.000
G1 X273.750 Y429.375 Z-2.000
G1 X274.375 Y429.375 Z-2.000
G1 X274.375 Y0.625 Z-2.000
G1 X275.000 Y0.625 Z-2.000
G1 X275.000 Y429.375 Z-2.000
G1 X275.625 Y429.375 Z-2.000
G1 X275.625 Y0.625 Z-2.000
G1 X276.250 Y0.625 Z-2.000
G1 X276.250 Y429.375 Z-2.000
G1 X276.875 Y429.375 Z-2.000
G1 X276.875 Y0.625 Z-2.000
G1 X277.500 Y0.625 Z-2.000
G1 X277.500 Y429.375 Z-2.000
G1 X278.125 Y429.375 Z-2.000
G1 X278.125 Y0.625 Z-2.000
G1 X278.750 Y0.625 Z-2.000
G1 X278.750 Y429.375 Z-2.000
G1 X279.375 Y429.375 Z-2.000
G1 X279.375 Y0.625 Z-2.000
G1 X280.000 Y0.625 Z-2.000
G1 X280.000 Y429.375 Z-2.000
G1 X280.625 Y429.375 Z-2.000
G1 X280.625 Y0.625 Z-2.000
G1 X281.250 Y0.625 Z-2.000
G1 X281.250 Y429.375 Z-2.000
G1 X281.875 Y429.375 Z-2.000
G1 X281.875 Y0.625 Z-2.000
G1 X282.500 Y0.625 Z-2.000
G1 X282.500 Y429.375 Z-2.000
G1 X283.125 Y429.375 Z-2.000
G1 X283.125 Y0.625 Z-2.000
G1 X283.750 Y0.625 Z-2.000
G1 X283.750 Y429.375 Z-2.000
G1 X284.375 Y429.375 Z-2.000
G1 X284.375 Y0.625 Z-2.000
G1 X285.000 Y0.625 Z-2.000
G1 X285.000 Y429.375 Z-2.000
G1 X285.625 Y429.375 Z-2.000
G1 X285.625 Y0.625 Z-2.000
G1 X286.250 Y0.625 Z-2.000
G1 X286.250 Y429.375 Z-2.000
G1 X286.875 Y429.375 Z-2.000
G1 X286.875 Y0.625 Z-2.000
G1 X287.500 Y0.625 Z-2.000
G1 X287.500 Y429.375 Z-2.000
G1 X288.125 Y429.375 Z-2.000
G1 X288.125 Y0.625 Z-2.000
G1 X288.750 Y0.625 Z-2.000
G1 X288.750 Y429.375 Z-2.000
G1 X289.375 Y429.375 Z-2.000
G1 X289.375 Y0.625 Z-2.000
G1 X290.000 Y0.625 Z-2.000
G1 X290.000 Y429.375 Z-2.000
G1 X290.625 Y429.375 Z-2.000
G1 X290.625 Y0.625 Z-2.000
G1 X291.250 Y0.625 Z-2.000
G1 X291.250 Y429.375 Z-2.000
G1 X291.875 Y429.375 Z-2.000
G1 X291.875 Y0.625 Z-2.000
G1 X292.500 Y0.625 Z-2.000
G1 X292.500 Y429.375 Z-2.000
G1 X293.125 Y429.375 Z-2.000
G1 X293.125 Y0.625 Z-2.000
G1 X293.750 Y0.625 Z-2.000
G1 X293.750 Y429.375 Z-2.000
G1 X294.375 Y429.375 Z-2.000
G1 X294.375 Y0.625 Z-2.000
G1 X295.000 Y0.625 Z-2.000
G1 X295.000 Y429.375 Z-2.000
G1 X295.625 Y429.375 Z-2.000
G1 X295.625 Y0.625 Z-2.000
G1 X296.250 Y0.625 Z-2.000
G1 X296.250 Y429.375 Z-2.000
G1 X296.875 Y429.375 Z-2.000
G1 X296.875 Y0.625 Z-2.000
G1 X297.500 Y0.625 Z-2.000
G1 X297.500 Y429.375 Z-2.000
G1 X298.125 Y429.375 Z-2.000
G1 X298.125 Y0.625 Z-2.000
G1 X298.750 Y0.625 Z-2.000
G1 X298.750 Y429.375 Z-2.000
G1 X299.375 Y429.375 Z-2.000
G1 X299.375 Y0.625 Z-2.000
G1 X300.000 Y0.625 Z-2.000
G1 X300.000 Y429.375 Z-2.000
G1 X300.625 Y429.375 Z-2.000
G1 X300.625 Y0.625 Z-2.000
G1 X301.250 Y0.625 Z-2.000
G1 X301.250 Y429.375 Z-2.000
G1 X301.875 Y429.375 Z-2.000
G1 X301.875 Y0.625 Z-2.000
G1 X302.500 Y0.625 Z-2.000
G1 X302.500 Y429.375 Z-2.000
G1 X303.125 Y429.375 Z-2.000
G1 X303.125 Y0.625 Z-2.000
G1 X303.750 Y0.625 Z-2.000
G1 X303.750 Y429.375 Z-2.000
G1 X304.375 Y429.375 Z-2.000
G1 X304.375 Y0.625 Z-2.000
G1 X305.000 Y0.625 Z-2.000
G1 X305.000 Y429.375 Z-2.000
G1 X305.625 Y429.375 Z-2.000
G1 X305.625 Y0.625 Z-2.000
G1 X306.250 Y0.625 Z-2.000
G1 X306.250 Y429.375 Z-2.000
G1 X306.875 Y429.375 Z-2.000
G1 X306.875 Y0.625 Z-2.000
G1 X307.500 Y0.625 Z-2.000
G1 X307.500 Y429.375 Z-2.000
G1 X308.125 Y429.375 Z-2.000
G1 X308.125 Y0.625 Z-2.000
G1 X308.750 Y0.625 Z-2.000
G1 X308.750 Y429.375 Z-2.000
G1 X309.375 Y429.375 Z-2.000
G1 X309.375 Y0.625 Z-2.000
G1 X310.000 Y0.625 Z-2.000
G1 X310.000 Y429.375 Z-2.000
G1 X310.625 Y429.375 Z-2.000
G1 X310.625 Y0.625 Z-2.000
G1 X311.250 Y0.625 Z-2.000
G1 X311.250 Y429.375 Z-2.000
G1 X311.875 Y429.375 Z-2.000
G1 X311.875 Y0.625 Z-2.000
G1 X312.500 Y0.625 Z-2.000
G1 X312.500 Y429.375 Z-2.000
G1 X313.125 Y429.375 Z-2.000
G1 X313.125 Y0.625 Z-2.000
G1 X313.750 Y0.625 Z-2.000
G1 X313.750 Y429.375 Z-2.000
G1 X314.375 Y429.375 Z-2.000
G1 X314.375 Y0.625 Z-2.000
G1 X315.000 Y0.625 Z-2.000
G1 X315.000 Y429.375 Z-2.000
G1 X315.625 Y429.375 Z-2.000
G1 X315.625 Y0.625 Z-2.000
G1 X316.250 Y0.625 Z-2.000
G1 X316.250 Y429.375 Z-2.000
G1 X316.875 Y429.375 Z-2.000
G1 X316.875 Y0.625 Z-2.000
G1 X317.500 Y0.625 Z-2.000
G1 X317.500 Y429.375 Z-2.000
G1 X318.125 Y429.375 Z-2.000
G1 X318.125 Y0.625 Z-2.000
G1 X318.750 Y0.625 Z-2.000
G1 X318.750 Y429.375 Z-2.000
G1 X319.375 Y429.375 Z-2.000
G1 X319.375 Y0.625 Z-2.000
G1 X320.000 Y0.625 Z-2.000
G1 X320.000 Y429.375 Z-2.000
G1 X320.625 Y429.375 Z-2.000
G1 X320.625 Y0.625 Z-2.000
G1 X321.250 Y0.625 Z-2.000
G1 X321.250 Y429.375 Z-2.000
G1 X321.875 Y429.375 Z-2.000
G1 X321.875 Y0.625 Z-2.000
G1 X322.500 Y0.625 Z-2.000
G1 X322.500 Y429.375 Z-2.000
G1 X323.125 Y429.375 Z-2.000
G1 X323.125 Y0.625 Z-2.000
G1 X323.750 Y0.625 Z-2.000
G1 X323.750 Y429.375 Z-2.000
G1 X324.375 Y429.375 Z-2.000
G1 X324.375 Y0.625 Z-2.000
G1 X325.000 Y0.625 Z-2.000
G1 X325.000 Y429.375 Z-2.000
G1 X325.625 Y429.375 Z-2.000
G1 X325.625 Y0.625 Z-2.000
G1 X326.250 Y0.625 Z-2.000
G1 X326.250 Y429.375 Z-2.000
G1 X326.875 Y429.375 Z-2.000
G1 X326.875 Y0.625 Z-2.000
G1 X327.500 Y0.625 Z-2.000
G1 X327.500 Y429.375 Z-2.000
G1 X328.125 Y429.375 Z-2.000
G1 X328.125 Y0.625 Z-2.000
G1 X328.750 Y0.625 Z-2.000
G1 X328.750 Y429.375 Z-2.000
G1 X329.375 Y429.375 Z-2.000
G1 X329.375 Y0.625 Z-2.000
G1 X330.000 Y0.625 Z-2.000
G1 X330.000 Y429.375 Z-2.000
G1 X330.625 Y429.375 Z-2.000
G1 X330.625 Y0.625 Z-2.000
G1 X331.250 Y0.625 Z-2.000
G1 X331.250 Y429.375 Z-2.000
G1 X331.875 Y429.375 Z-2.000
G1 X331.875 Y0.625 Z-2.000
G1 X332.500 Y0.625 Z-2.000
G1 X332.500 Y429.375 Z-2.000
G1 X333.125 Y429.375 Z-2.000
G1 X333.125 Y0.625 Z-2.000
G1 X333.750 Y0.625 Z-2.000
G1 X333.750 Y429.375 Z-2.000
G1 X334.375 Y429.375 Z-2.000
G1 X334.375 Y0.625 Z-2.000
G1 X335.000 Y0.625 Z-2.000
G1 X335.000 Y429.375 Z-2.000
G1 X335.625 Y429.375 Z-2.000
G1 X335.625 Y0.625 Z-2.000
G1 X336.250 Y0.625 Z-2.000
G1 X336.250 Y429.375 Z-2.000
G1 X336.875 Y429.375 Z-2.000
G1 X336.875 Y0.625 Z-2.000
G1 X337.500 Y0.625 Z-2.000
G1 X337.500 Y429.375 Z-2.000
G1 X338.125 Y429.375 Z-2.000
G1 X338.125 Y0.625 Z-2.000
G1 X338.750 Y0.625 Z-2.000
G1 X338.750 Y429.375 Z-2.000
G1 X339.375 Y429.375 Z-2.000
G1 X339.375 Y0.625 Z-2.000
G1 X340.000 Y0.625 Z-2.000
G1 X340.000 Y429.375 Z-2.000
G1 X340.625 Y429.375 Z-2.000
G1 X340.625 Y0.625 Z-2.000
G1 X341.250 Y0.625 Z-2.000
G1 X341.250 Y429.375 Z-2.000
G1 X341.875 Y429.375 Z-2.000
G1 X341.875 Y0.625 Z-2.000
G1 X342.500 Y0.625 Z-2.000
G1 X342.500 Y429.375 Z-2.000
G1 X343.125 Y429.375 Z-2.000
G1 X343.125 Y0.625 Z-2.000
G1 X343.750 Y0.625 Z-2.000
G1 X343.750 Y429.375 Z-2.000
G1 X344.375 Y429.375 Z-2.000
G1 X344.375 Y0.625 Z-2.000
G1 X345.000 Y0.625 Z-2.000
G1 X345.000 Y429.375 Z-2.000
G1 X345.625 Y429.375 Z-2.000
G1 X345.625 Y0.625 Z-2.000
G1 X346.250 Y0.625 Z-2.000
G1 X346.250 Y429.375 Z-2.000
G1 X346.875 Y429.375 Z-2.000
G1 X346.875 Y0.625 Z-2.000
G1 X347.500 Y0.625 Z-2.000
G1 X347.500 Y429.375 Z-2.000
G1 X348.125 Y429.375 Z-2.000
G1 X348.125 Y0.625 Z-2.000
G1 X348.750 Y0.625 Z-2.000
G1 X348.750 Y429.375 Z-2.000
G1 X349.375 Y429.375 Z-2.000
G1 X349.375 Y0.625 Z-2.000
G1 X350.000 Y0.625 Z-2.000
G1 X350.000 Y429.375 Z-2.000
G1 X350.625 Y429.375 Z-2.000
G1 X350.625 Y0.625 Z-2.000
G1 X351.250 Y0.625 Z-2.000
G1 X351.250 Y429.375 Z-2.000
G1 X351.875 Y429.375 Z-2.000
G1 X351.875 Y0.625 Z-2.000
G1 X352.500 Y0.625 Z-2.000
G1 X352.500 Y429.375 Z-2.000
G1 X353.125 Y429.375 Z-2.000
G1 X353.125 Y0.625 Z-2.000
G1 X353.750 Y0.625 Z-2.000
G1 X353.750 Y429.375 Z-2.000
G1 X354.375 Y429.375 Z-2.000
G1 X354.375 Y0.625 Z-2.000
G1 X355.000 Y0.625 Z-2.000
G1 X355.000 Y429.375 Z-2.000
G1 X355.625 Y429.375 Z-2.000
G1 X355.625 Y0.625 Z-2.000
G1 X356.250 Y0.625 Z-2.000
G1 X356.250 Y429.375 Z-2.000
G1 X356.875 Y429.375 Z-2.000
G1 X356.875 Y0.625 Z-2.000
G1 X357.500 Y0.625 Z-2.000
G1 X357.500 Y429.375 Z-2.000
G1 X358.125 Y429.375 Z-2.000
G1 X358.125 Y0.625 Z-2.000
G1 X358.750 Y0.625 Z-2.000
G1 X358.750 Y429.375 Z-2.000
G1 X359.375 Y429.375 Z-2.000
G1 X359.375 Y0.625 Z-2.000
G1 X360.000 Y0.625 Z-2.000
G1 X360.000 Y429.375 Z-2.000
G1 X360.625 Y429.375 Z-2.000
G1 X360.625 Y0.625 Z-2.000
G1 X361.250 Y0.625 Z-2.000
G1 X361.250 Y429.375 Z-2.000
G1 X361.875 Y429.375 Z-2.000
G1 X361.875 Y0.625 Z-2.000
G1 X362.500 Y0.625 Z-2.000
G1 X362.500 Y429.375 Z-2.000
G1 X363.125 Y429.375 Z-2.000
G1 X363.125 Y0.625 Z-2.000
G1 X363.750 Y0.625 Z-2.000
G1 X363.750 Y429.375 Z-2.000
G1 X364.375 Y429.375 Z-2.000
G1 X364.375 Y0.625 Z-2.000
G1 X365.000 Y0.625 Z-2.000
G1 X365.000 Y429.375 Z-2.000
G1 X365.625 Y429.375 Z-2.000
G1 X365.625 Y0.625 Z-2.000
G1 X366.250 Y0.625 Z-2.000
G1 X366.250 Y429.375 Z-2.000
G1 X366.875 Y429.375 Z-2.000
G1 X366.875 Y0.625 Z-2.000
G1 X367.500 Y0.625 Z-2.000
G1 X367.500 Y429.375 Z-2.000
G1 X368.125 Y429.375 Z-2.000
G1 X368.125 Y0.625 Z-2.000
G1 X368.750 Y0.625 Z-2.000
G1 X368.750 Y429.375 Z-2.000
G1 X369.375 Y429.375 Z-2.000
G1 X369.375 Y0.625 Z-2.000
G1 X370.000 Y0.625 Z-2.000
G1 X370.000 Y429.375 Z-2.000
G1 X370.625 Y429.375 Z-2.000
G1 X370.625 Y0.625 Z-2.000
G1 X371.250 Y0.625 Z-2.000
G1 X371.250 Y429.375 Z-2.000
G1 X371.875 Y429.375 Z-2.000
G1 X371.875 Y0.625 Z-2.000
G1 X372.500 Y0.625 Z-2.000
G1 X372.500 Y429.375 Z-2.000
G1 X373.125 Y429.375 Z-2.000
G1 X373.125 Y0.625 Z-2.000
G1 X373.750 Y0.625 Z-2.000
G1 X373.750 Y429.375 Z-2.000
G1 X374.375 Y429.375 Z-2.000
G1 X374.375 Y0.625 Z-2.000
G1 X375.000 Y0.625 Z-2.000
G1 X375.000 Y429.375 Z-2.000
G1 X375.625 Y429.375 Z-2.000
G1 X375.625 Y0.625 Z-2.000
G1 X376.250 Y0.625 Z-2.000
G1 X376.250 Y429.375 Z-2.000
G1 X376.875 Y429.375 Z-2.000
G1 X376.875 Y0.625 Z-2.000
G1 X377.500 Y0.625 Z-2.000
G1 X377.500 Y429.375 Z-2.000
G1 X378.125 Y429.375 Z-2.000
G1 X378.125 Y0.625 Z-2.000
G1 X378.750 Y0.625 Z-2.000
G1 X378.750 Y429.375 Z-2.000
G1 X379.375 Y429.375 Z-2.000
G1 X379.375 Y0.625 Z-2.000
G0 Z5.000
(finish operation: MillFace)
(begin postamble)
M05
G17 G54 G90 G80 G40
M2
