(Exported by FreeCAD)
(Post Processor: linuxcnc_post)
(Output Time:2020-04-08 08:12:00.062990)
(begin preamble)
G17 G54 G40 G49 G80 G90
G21
(begin operation: Default Tool)
(machine: not set, mm/min)
(Default Tool)
M6 T1
M3 S2
(finish operation: Default Tool)
(begin operation: Contour)
(machine: not set, mm/min)
(Contour)
(Compensated Tool Path. Diameter: 1.0)
G0 Z3.000
G0
G0 Z0.000
G1 X2.751 Y10.881 Z-0.500
G2 X0.063 Y13.138 Z-0.500 I0.988 J3.907
G2 X1.029 Y17.870 Z-0.500 I4.191 J1.609
G2 X4.316 Y18.793 Z-0.500 I2.342 J-2.026
G2 X5.492 Y17.859 Z-0.500 I-0.402 J-1.714
G2 X5.672 Y16.465 Z-0.500 I-2.553 J-1.038
G2 X4.486 Y14.769 Z-0.500 I-1.886 J0.056
G3 X2.439 Y14.106 Z-0.500 I3.879 J-15.466
G3 X2.086 Y12.975 Z-0.500 I0.290 J-0.711
G3 X4.333 Y12.370 Z-0.500 I1.640 J1.617
G3 X6.506 Y13.847 Z-0.500 I-2.926 J6.642
G3 X10.252 Y18.684 Z-0.500 I-30.161 J27.227
G2 X18.462 Y30.592 Z-0.500 I135.756 J-84.814
G2 X22.335 Y35.000 Z-0.500 I27.756 J-20.483
G2 X23.141 Y35.611 Z-0.500 I2.361 J-2.275
G2 X24.160 Y35.837 Z-0.500 I0.768 J-1.056
G2 X24.775 Y34.640 Z-0.500 I-0.269 J-0.895
G2 X24.283 Y33.110 Z-0.500 I-22.881 J6.518
G2 X20.801 Y24.623 Z-0.500 I-242.802 J94.651
G3 X17.573 Y16.415 Z-0.500 I103.064 J-45.273
G2 X26.585 Y30.075 Z-0.500 I103.721 J-58.628
G2 X30.344 Y34.401 Z-0.500 I31.500 J-23.571
G2 X31.751 Y35.567 Z-0.500 I5.409 J-5.097
G2 X32.684 Y35.845 Z-0.500 I0.828 J-1.074
G2 X33.488 Y34.856 Z-0.500 I0.037 J-0.792
G2 X32.722 Y32.963 Z-0.500 I-46.986 J17.904
G3 X26.999 Y18.995 Z-0.500 I171.762 J-78.534
G3 X25.487 Y13.937 Z-0.500 I34.604 J-13.100
G3 X25.370 Y12.948 Z-0.500 I3.082 J-0.865
G3 X25.701 Y13.158 Z-0.500 I-0.745 J1.535
G3 X27.667 Y14.909 Z-0.500 I-17.771 J21.927
G2 X33.058 Y20.103 Z-0.500 I154.441 J-154.926
G2 X38.859 Y23.510 Z-0.500 I10.606 J-11.412
G2 X42.150 Y23.405 Z-0.500 I1.478 J-5.282
G2 X43.417 Y22.340 Z-0.500 I-0.902 J-2.360
G2 X43.626 Y22.743 Z-0.500 I32.102 J-16.404
G2 X44.358 Y23.445 Z-0.500 I1.178 J-0.496
G2 X47.884 Y23.696 Z-0.500 I3.334 J-21.878
G1 X48.057 Y23.668 Z-0.500
G2 X48.286 Y22.826 Z-0.500 I-0.221 J-0.512
G2 X43.769 Y13.376 Z-0.500 I-1826.865 J867.310
G3 X43.561 Y12.859 Z-0.500 I3.851 J-1.850
G3 X44.207 Y13.300 Z-0.500 I-1.702 J3.183
G3 X45.664 Y14.658 Z-0.500 I-19.889 J22.812
G3 X52.748 Y21.642 Z-0.500 I-287.278 J298.449
G2 X53.596 Y24.067 Z-0.500 I13.098 J-3.216
G2 X55.039 Y24.170 Z-0.500 I0.751 J-0.354
G2 X55.268 Y22.854 Z-0.500 I-16.701 J-3.590
G3 X55.346 Y22.753 Z-0.500 I0.153 J0.038
G2 X57.666 Y22.354 Z-0.500 I-29.102 J-175.924
G2 X59.437 Y21.836 Z-0.500 I-0.471 J-4.903
G2 X60.377 Y20.790 Z-0.500 I-0.799 J-1.664
G2 X60.277 Y19.027 Z-0.500 I-2.431 J-0.746
G2 X58.346 Y15.942 Z-0.500 I-22.383 J11.865
G3 X56.234 Y12.924 Z-0.500 I23.783 J-18.890
G3 X57.555 Y13.925 Z-0.500 I-9.671 J14.133
G3 X67.379 Y23.329 Z-0.500 I-194.092 J212.592
G2 X67.687 Y23.472 Z-0.500 I0.352 J-0.355
G2 X71.367 Y23.698 Z-0.500 I4.814 J-48.312
G2 X71.812 Y22.781 Z-0.500 I-0.041 J-0.587
G2 X70.973 Y21.101 Z-0.500 I-47.817 J22.860
G3 X66.761 Y13.224 Z-0.500 I178.647 J-100.583
G3 X66.517 Y12.679 Z-0.500 I1.832 J-1.145
G3 X66.876 Y12.840 Z-0.500 I-0.511 J1.617
G3 X68.661 Y14.264 Z-0.500 I-6.099 J9.475
G3 X74.808 Y20.174 Z-0.500 I-2156.584 J2249.455
G2 X79.952 Y23.341 Z-0.500 I9.641 J-9.896
G2 X83.306 Y23.730 Z-0.500 I2.404 J-6.078
G2 X86.138 Y21.424 Z-0.500 I-0.408 J-3.392
G2 X85.920 Y17.796 Z-0.500 I-5.627 J-1.484
G2 X84.423 Y15.409 Z-0.500 I-9.089 J4.037
G3 X85.200 Y15.998 Z-0.500 I-3.699 J5.679
G2 X90.073 Y20.552 Z-0.500 I191.236 J-199.740
G2 X91.898 Y21.922 Z-0.500 I6.937 J-7.344
G2 X93.263 Y22.219 Z-0.500 I1.114 J-1.833
G2 X93.504 Y21.298 Z-0.500 I-0.026 J-0.499
G3 X92.124 Y20.308 Z-0.500 I5.028 J-8.469
G2 X85.835 Y14.311 Z-0.500 I-204079.521 J214004.624
G2 X81.701 Y12.587 Z-0.500 I-4.381 J4.686
G3 X81.464 Y12.495 Z-0.500 I0.323 J-1.186
G2 X78.628 Y11.024 Z-0.500 I-5.324 J6.792
G2 X75.498 Y10.926 Z-0.500 I-1.754 J6.031
G2 X72.662 Y13.816 Z-0.500 I1.032 J3.850
G2 X72.625 Y15.760 Z-0.500 I7.430 J1.114
G2 X70.275 Y13.473 Z-0.500 I-166.398 J168.563
G2 X68.960 Y12.307 Z-0.500 I-7.917 J7.609
G2 X66.184 Y10.868 Z-0.500 I-4.970 J6.191
G1 X65.737 Y10.786 Z-0.500
G2 X63.151 Y11.741 Z-0.500 I-0.446 J2.773
G2 X62.886 Y15.131 Z-0.500 I3.213 J1.957
G2 X64.126 Y17.874 Z-0.500 I19.287 J-7.069
G2 X59.083 Y13.045 Z-0.500 I-86.220 J85.003
G2 X56.331 Y11.140 Z-0.500 I-9.056 J10.141
G2 X52.966 Y11.569 Z-0.500 I-1.359 J2.749
G2 X52.208 Y12.921 Z-0.500 I2.104 J2.069
G2 X52.573 Y16.247 Z-0.500 I5.616 J1.067
G2 X55.809 Y20.509 Z-0.500 I10.582 J-4.674
G2 X54.137 Y20.470 Z-0.500 I-1.352 J21.592
G3 X52.515 Y19.006 Z-0.500 I26.971 J-31.521
G2 X47.555 Y14.188 Z-0.500 I-166.779 J166.715
G2 X45.054 Y11.972 Z-0.500 I-21.993 J22.307
G2 X42.348 Y10.792 Z-0.500 I-3.528 J4.398
G2 X39.567 Y12.274 Z-0.500 I-0.368 J2.659
G2 X39.377 Y13.691 Z-0.500 I4.137 J1.279
G2 X37.398 Y11.860 Z-0.500 I-12.982 J12.041
G2 X33.289 Y10.969 Z-0.500 I-2.984 J3.840
G2 X30.675 Y13.606 Z-0.500 I0.871 J3.476
G2 X30.648 Y15.472 Z-0.500 I7.203 J1.039
G2 X27.981 Y12.942 Z-0.500 I-193.060 J200.853
G2 X25.278 Y11.032 Z-0.500 I-7.336 J7.510
G2 X22.269 Y11.566 Z-0.500 I-1.124 J2.410
G2 X21.128 Y14.903 Z-0.500 I3.760 J3.149
G2 X21.933 Y18.575 Z-0.500 I13.933 J-1.131
G2 X24.764 Y24.142 Z-0.500 I33.541 J-13.550
G2 X29.329 Y31.095 Z-0.500 I206.861 J-130.853
G3 X27.658 Y29.090 Z-0.500 I22.268 J-20.258
G3 X18.050 Y13.988 Z-0.500 I91.540 J-68.846
G2 X16.431 Y11.540 Z-0.500 I-11.032 J5.537
G2 X15.145 Y10.843 Z-0.500 I-1.434 J1.110
G2 X13.509 Y11.764 Z-0.500 I0.126 J2.136
G2 X12.919 Y16.176 Z-0.500 I5.256 J2.949
G2 X14.235 Y19.675 Z-0.500 I25.052 J-7.428
G2 X20.020 Y30.095 Z-0.500 I111.463 J-55.066
G1 X19.333 Y29.200 Z-0.500
G3 X11.285 Y17.181 Z-0.500 I218.665 J-155.137
G2 X8.102 Y13.073 Z-0.500 I-22.496 J14.142
G2 X6.274 Y11.570 Z-0.500 I-6.537 J6.090
G2 X4.172 Y10.782 Z-0.500 I-2.625 J3.800
G2 X2.751 Y10.881 Z-0.500 I-0.433 J4.006
G0 X2.751 Y10.881 Z3.000
G0 X69.224 Y26.612 Z3.000
G0 X69.224 Y26.612 Z2.500
G1 X69.224 Y26.612 Z-0.500
G2 X69.201 Y27.508 Z-0.500 I2.123 J0.502
G2 X71.739 Y29.528 Z-0.500 I2.461 J-0.488
G2 X73.658 Y27.954 Z-0.500 I0.044 J-1.904
G2 X71.118 Y25.165 Z-0.500 I-2.436 J-0.332
G2 X69.612 Y25.791 Z-0.500 I-0.066 J1.966
G2 X69.224 Y26.612 Z-0.500 I1.735 J1.323
G0 X69.224 Y26.612 Z3.000
G0 X96.704 Y18.935 Z3.000
G0 X96.704 Y18.935 Z2.500
G1 X96.704 Y18.935 Z-0.500
G2 X96.713 Y18.964 Z-0.500 I0.577 J-0.161
G2 X97.048 Y19.533 Z-0.500 I1.492 J-0.496
G2 X100.514 Y22.912 Z-0.500 I17.191 J-14.167
G2 X101.791 Y23.592 Z-0.500 I2.183 J-2.562
G2 X104.011 Y23.031 Z-0.500 I0.659 J-2.066
G2 X104.813 Y20.072 Z-0.500 I-2.780 J-2.342
G2 X102.999 Y15.838 Z-0.500 I-13.646 J3.341
G3 X101.157 Y12.668 Z-0.500 I31.665 J-20.525
G3 X101.719 Y13.045 Z-0.500 I-1.152 J2.324
G3 X107.599 Y19.942 Z-0.500 I-28.544 J30.294
G3 X109.603 Y23.054 Z-0.500 I-311.059 J202.474
G2 X110.264 Y23.411 Z-0.500 I0.800 J-0.690
G2 X114.074 Y23.669 Z-0.500 I4.680 J-40.870
G2 X114.588 Y23.147 Z-0.500 I0.014 J-0.500
G2 X114.353 Y22.554 Z-0.500 I-1.608 J0.295
G2 X109.521 Y13.727 Z-0.500 I-5195.595 J2838.271
G3 X111.400 Y15.025 Z-0.500 I-6.922 J12.032
G3 X118.096 Y20.981 Z-0.500 I-198.436 J229.848
G2 X119.166 Y21.803 Z-0.500 I4.346 J-4.547
G2 X120.692 Y22.220 Z-0.500 I1.350 J-1.938
G2 X120.994 Y21.331 Z-0.500 I-0.011 J-0.500
G3 X117.192 Y18.078 Z-0.500 I34.657 J-44.367
G2 X112.539 Y13.897 Z-0.500 I-34.716 J33.951
G2 X107.922 Y11.084 Z-0.500 I-13.505 J16.969
G2 X103.426 Y4.265 Z-0.500 I-54.956 J31.339
G2 X100.882 Y1.580 Z-0.500 I-12.388 J9.188
G2 X97.291 Y-0.288 Z-0.500 I-5.489 J6.170
G2 X95.206 Y-0.465 Z-0.500 I-1.620 J6.697
G2 X92.281 Y1.398 Z-0.500 I0.207 J3.553
G2 X92.277 Y4.604 Z-0.500 I3.385 J1.606
G2 X93.994 Y6.820 Z-0.500 I6.787 J-3.482
G2 X97.011 Y8.842 Z-0.500 I10.575 J-12.522
G2 X103.222 Y11.452 Z-0.500 I20.965 J-41.184
G3 X104.124 Y13.078 Z-0.500 I-65.821 J37.592
G2 X102.865 Y11.910 Z-0.500 I-12.649 J12.366
G2 X100.780 Y10.849 Z-0.500 I-3.241 J3.789
G2 X97.626 Y12.716 Z-0.500 I-0.609 J2.569
G2 X98.149 Y16.718 Z-0.500 I6.315 J1.209
G2 X99.810 Y19.972 Z-0.500 I234.011 J-117.336
G2 X98.000 Y18.454 Z-0.500 I-13.405 J14.135
G2 X97.416 Y18.190 Z-0.500 I-0.660 J0.683
G2 X96.704 Y18.935 Z-0.500 I-0.135 J0.584
G0 X96.704 Y18.935 Z3.000
G0 X121.683 Y11.403 Z3.000
G0 X121.683 Y11.403 Z2.500
G1 X121.683 Y11.403 Z-0.500
G2 X121.722 Y11.496 Z-0.500 I0.486 J-0.147
G3 X125.227 Y17.991 Z-0.500 I-1622.896 J879.938
G2 X124.482 Y17.441 Z-0.500 I-1.890 J1.780
G2 X123.567 Y18.413 Z-0.500 I-0.338 J0.598
G2 X124.398 Y19.440 Z-0.500 I5.951 J-3.966
G3 X127.232 Y22.527 Z-0.500 I-33.928 J33.997
G3 X131.222 Y29.534 Z-0.500 I-115.007 J70.126
G2 X133.522 Y33.549 Z-0.500 I53.146 J-27.779
G2 X134.140 Y34.032 Z-0.500 I0.819 J-0.411
G2 X137.449 Y34.366 Z-0.500 I17.732 J-158.992
G2 X137.941 Y33.641 Z-0.500 I0.046 J-0.498
G2 X130.409 Y19.195 Z-0.500 I-1791.609 J924.932
G2 X131.497 Y19.415 Z-0.500 I5.943 J-26.534
G3 X132.541 Y19.951 Z-0.500 I-0.127 J1.534
G3 X133.818 Y21.737 Z-0.500 I-395.622 J284.181
G2 X135.179 Y23.202 Z-0.500 I4.251 J-2.584
G2 X138.921 Y22.470 Z-0.500 I1.542 J-2.046
G2 X138.334 Y19.600 Z-0.500 I-1.742 J-1.139
G2 X135.326 Y20.966 Z-0.500 I-1.087 J1.602
G1 X135.238 Y20.845 Z-0.500
G2 X133.738 Y18.896 Z-0.500 I-9.050 J5.412
G2 X135.421 Y16.676 Z-0.500 I-1.162 J-2.629
G2 X135.049 Y14.071 Z-0.500 I-6.821 J-0.356
G2 X141.255 Y20.061 Z-0.500 I2576.980 J-2663.495
G2 X144.901 Y22.566 Z-0.500 I9.432 J-9.823
G1 X144.901 Y22.566 Z-0.500
G2 X146.776 Y23.377 Z-0.500 I5.225 J-9.515
G2 X150.178 Y23.492 Z-0.500 I1.862 J-4.688
G2 X151.707 Y22.362 Z-0.500 I-0.755 J-2.620
G2 X152.121 Y23.068 Z-0.500 I5.631 J-2.834
G2 X152.563 Y23.421 Z-0.500 I0.772 J-0.513
G2 X156.214 Y23.706 Z-0.500 I3.566 J-22.167
G2 X156.691 Y23.020 Z-0.500 I0.013 J-0.500
G2 X156.415 Y22.363 Z-0.500 I-9.919 J3.787
G3 X152.378 Y14.031 Z-0.500 I340.860 J-170.295
G3 X151.884 Y12.869 Z-0.500 I11.007 J-5.361
G3 X152.157 Y13.031 Z-0.500 I-0.685 J1.463
G3 X153.412 Y14.126 Z-0.500 I-8.808 J11.366
G3 X161.753 Y22.327 Z-0.500 I-170.806 J182.054
G3 X163.074 Y24.048 Z-0.500 I-13.448 J11.691
G3 X168.693 Y33.207 Z-0.500 I-397.735 J250.340
G2 X169.087 Y33.447 Z-0.500 I0.428 J-0.259
G2 X172.876 Y33.514 Z-0.500 I2.392 J-28.068
G2 X173.287 Y32.754 Z-0.500 I-0.016 J-0.500
G3 X170.931 Y28.696 Z-0.500 I68.704 J-42.589
G3 X170.936 Y28.696 Z-0.500 I0.002 J-0.000
G3 X172.700 Y28.687 Z-0.500 I1.124 J49.624
G2 X173.195 Y28.280 Z-0.500 I0.003 J-0.500
G2 X173.105 Y27.611 Z-0.500 I-4.507 J0.268
G2 X172.450 Y26.978 Z-0.500 I-0.611 J-0.024
G3 X169.746 Y26.888 Z-0.500 I0.009 J-40.991
G3 X164.505 Y17.872 Z-0.500 I456.527 J-271.384
G3 X162.248 Y13.053 Z-0.500 I28.805 J-16.437
G3 X162.147 Y12.663 Z-0.500 I1.038 J-0.475
G3 X162.794 Y12.983 Z-0.500 I-0.899 J2.624
G3 X166.310 Y16.030 Z-0.500 I-27.602 J35.407
G2 X171.452 Y20.838 Z-0.500 I60.578 J-59.641
G2 X176.610 Y23.571 Z-0.500 I8.702 J-10.189
G2 X178.941 Y23.613 Z-0.500 I1.256 J-4.964
G2 X180.886 Y22.314 Z-0.500 I-0.449 J-2.777
G2 X181.290 Y23.003 Z-0.500 I8.964 J-4.788
G2 X181.766 Y23.428 Z-0.500 I0.870 J-0.495
G2 X185.364 Y23.705 Z-0.500 I3.488 J-21.800
G2 X185.877 Y23.213 Z-0.500 I0.013 J-0.500
G2 X185.719 Y22.712 Z-0.500 I-1.338 J0.147
G2 X182.459 Y15.985 Z-0.500 I-879.519 J422.147
G3 X181.030 Y12.853 Z-0.500 I29.133 J-15.182
G3 X181.923 Y13.526 Z-0.500 I-3.844 J6.027
G3 X188.374 Y19.695 Z-0.500 I-3216.151 J3369.882
G2 X190.707 Y21.622 Z-0.500 I13.016 J-13.382
G2 X191.460 Y22.039 Z-0.500 I1.738 J-2.246
G2 X192.466 Y22.072 Z-0.500 I0.535 J-0.971
G2 X192.503 Y21.117 Z-0.500 I-0.269 J-0.488
G3 X190.994 Y19.939 Z-0.500 I11.331 J-16.072
G3 X184.146 Y13.314 Z-0.500 I480.701 J-503.698
G2 X180.969 Y11.091 Z-0.500 I-7.658 J7.562
G2 X178.927 Y10.829 Z-0.500 I-1.404 J2.865
G2 X177.287 Y11.825 Z-0.500 I0.410 J2.525
G2 X176.828 Y13.625 Z-0.500 I2.110 J1.496
G2 X174.340 Y11.548 Z-0.500 I-8.919 J8.153
G2 X171.459 Y10.841 Z-0.500 I-2.505 J3.983
G2 X168.311 Y13.149 Z-0.500 I0.145 J3.499
G2 X168.095 Y15.430 Z-0.500 I5.145 J1.636
G2 X165.545 Y13.095 Z-0.500 I-74.727 J79.059
G2 X162.858 Y11.251 Z-0.500 I-7.203 J7.617
G2 X161.237 Y10.834 Z-0.500 I-1.751 J3.451
G2 X158.782 Y12.299 Z-0.500 I-0.141 J2.553
G2 X158.569 Y14.557 Z-0.500 I3.312 J1.452
G2 X159.814 Y18.007 Z-0.500 I17.313 J-4.294
G3 X155.285 Y13.578 Z-0.500 I402.800 J-416.345
G2 X152.664 Y11.523 Z-0.500 I-10.584 J10.800
G2 X150.507 Y10.771 Z-0.500 I-2.576 J3.918
G2 X147.870 Y12.331 Z-0.500 I-0.225 J2.628
G2 X147.646 Y13.629 Z-0.500 I3.411 J1.256
G1 X147.274 Y13.225 Z-0.500
G2 X144.984 Y11.415 Z-0.500 I-5.985 J5.218
G2 X141.873 Y10.892 Z-0.500 I-2.292 J4.115
G2 X139.046 Y13.438 Z-0.500 I0.608 J3.519
G2 X138.960 Y15.432 Z-0.500 I5.845 J1.250
G2 X137.293 Y13.740 Z-0.500 I-25.242 J23.187
G2 X134.630 Y11.540 Z-0.500 I-10.198 J9.636
G2 X132.914 Y10.798 Z-0.500 I-2.691 J3.867
G2 X130.305 Y12.366 Z-0.500 I-0.440 J2.224
G2 X130.546 Y14.866 Z-0.500 I3.930 J0.883
G3 X131.912 Y17.693 Z-0.500 I-33.328 J17.851
G3 X130.480 Y17.484 Z-0.500 I2.354 J-21.116
G2 X129.717 Y17.880 Z-0.500 I-0.097 J0.746
G2 X126.250 Y11.324 Z-0.500 I-1183.259 J621.541
G2 X125.867 Y11.061 Z-0.500 I-0.442 J0.234
G1 X125.197 Y10.982 Z-0.500
G3 X122.240 Y10.753 Z-0.500 I7.029 J-110.164
G2 X121.683 Y11.403 Z-0.500 I-0.071 J0.503
G1 X121.683 Y11.403 Z-1.000
G2 X121.722 Y11.496 Z-1.000 I0.486 J-0.147
G3 X125.227 Y17.991 Z-1.000 I-1622.896 J879.938
G2 X124.482 Y17.441 Z-1.000 I-1.890 J1.780
G2 X123.567 Y18.413 Z-1.000 I-0.338 J0.598
G2 X124.398 Y19.440 Z-1.000 I5.951 J-3.966
G3 X127.232 Y22.527 Z-1.000 I-33.928 J33.997
G3 X131.222 Y29.534 Z-1.000 I-115.007 J70.126
G2 X133.522 Y33.549 Z-1.000 I53.146 J-27.779
G2 X134.140 Y34.032 Z-1.000 I0.819 J-0.411
G2 X137.449 Y34.366 Z-1.000 I17.732 J-158.992
G2 X137.941 Y33.641 Z-1.000 I0.046 J-0.498
G2 X130.409 Y19.195 Z-1.000 I-1791.609 J924.932
G2 X131.497 Y19.415 Z-1.000 I5.943 J-26.534
G3 X132.541 Y19.951 Z-1.000 I-0.127 J1.534
G3 X133.818 Y21.737 Z-1.000 I-395.622 J284.181
G2 X135.179 Y23.202 Z-1.000 I4.251 J-2.584
G2 X138.921 Y22.470 Z-1.000 I1.542 J-2.046
G2 X138.334 Y19.600 Z-1.000 I-1.742 J-1.139
G2 X135.326 Y20.966 Z-1.000 I-1.087 J1.602
G1 X135.238 Y20.845 Z-1.000
G2 X133.738 Y18.896 Z-1.000 I-9.050 J5.412
G2 X135.421 Y16.676 Z-1.000 I-1.162 J-2.629
G2 X135.049 Y14.071 Z-1.000 I-6.821 J-0.356
G2 X141.255 Y20.061 Z-1.000 I2576.980 J-2663.495
G2 X144.901 Y22.566 Z-1.000 I9.432 J-9.823
G1 X144.901 Y22.566 Z-1.000
G2 X146.776 Y23.377 Z-1.000 I5.225 J-9.515
G2 X150.178 Y23.492 Z-1.000 I1.862 J-4.688
G2 X151.707 Y22.362 Z-1.000 I-0.755 J-2.620
G2 X152.121 Y23.068 Z-1.000 I5.631 J-2.834
G2 X152.563 Y23.421 Z-1.000 I0.772 J-0.513
G2 X156.214 Y23.706 Z-1.000 I3.566 J-22.167
G2 X156.691 Y23.020 Z-1.000 I0.013 J-0.500
G2 X156.415 Y22.363 Z-1.000 I-9.919 J3.787
G3 X152.378 Y14.031 Z-1.000 I340.860 J-170.295
G3 X151.884 Y12.869 Z-1.000 I11.007 J-5.361
G3 X152.157 Y13.031 Z-1.000 I-0.685 J1.463
G3 X153.412 Y14.126 Z-1.000 I-8.808 J11.366
G3 X161.753 Y22.327 Z-1.000 I-170.806 J182.054
G3 X163.074 Y24.048 Z-1.000 I-13.448 J11.691
G3 X168.693 Y33.207 Z-1.000 I-397.735 J250.340
G2 X169.087 Y33.447 Z-1.000 I0.428 J-0.259
G2 X172.876 Y33.514 Z-1.000 I2.392 J-28.068
G2 X173.287 Y32.754 Z-1.000 I-0.016 J-0.500
G3 X170.931 Y28.696 Z-1.000 I68.704 J-42.589
G3 X170.936 Y28.696 Z-1.000 I0.002 J-0.000
G3 X172.700 Y28.687 Z-1.000 I1.124 J49.624
G2 X173.195 Y28.280 Z-1.000 I0.003 J-0.500
G2 X173.105 Y27.611 Z-1.000 I-4.507 J0.268
G2 X172.450 Y26.978 Z-1.000 I-0.611 J-0.024
G3 X169.746 Y26.888 Z-1.000 I0.009 J-40.991
G3 X164.505 Y17.872 Z-1.000 I456.527 J-271.384
G3 X162.248 Y13.053 Z-1.000 I28.805 J-16.437
G3 X162.147 Y12.663 Z-1.000 I1.038 J-0.475
G3 X162.794 Y12.983 Z-1.000 I-0.899 J2.624
G3 X166.310 Y16.030 Z-1.000 I-27.602 J35.407
G2 X171.452 Y20.838 Z-1.000 I60.578 J-59.641
G2 X176.610 Y23.571 Z-1.000 I8.702 J-10.189
G2 X178.941 Y23.613 Z-1.000 I1.256 J-4.964
G2 X180.886 Y22.314 Z-1.000 I-0.449 J-2.777
G2 X181.290 Y23.003 Z-1.000 I8.964 J-4.788
G2 X181.766 Y23.428 Z-1.000 I0.870 J-0.495
G2 X185.364 Y23.705 Z-1.000 I3.488 J-21.800
G2 X185.877 Y23.213 Z-1.000 I0.013 J-0.500
G2 X185.719 Y22.712 Z-1.000 I-1.338 J0.147
G2 X182.459 Y15.985 Z-1.000 I-879.519 J422.147
G3 X181.030 Y12.853 Z-1.000 I29.133 J-15.182
G3 X181.923 Y13.526 Z-1.000 I-3.844 J6.027
G3 X188.374 Y19.695 Z-1.000 I-3216.151 J3369.882
G2 X190.707 Y21.622 Z-1.000 I13.016 J-13.382
G2 X191.460 Y22.039 Z-1.000 I1.738 J-2.246
G2 X192.466 Y22.072 Z-1.000 I0.535 J-0.971
G2 X192.503 Y21.117 Z-1.000 I-0.269 J-0.488
G3 X190.994 Y19.939 Z-1.000 I11.331 J-16.072
G3 X184.146 Y13.314 Z-1.000 I480.701 J-503.698
G2 X180.969 Y11.091 Z-1.000 I-7.658 J7.562
G2 X178.927 Y10.829 Z-1.000 I-1.404 J2.865
G2 X177.287 Y11.825 Z-1.000 I0.410 J2.525
G2 X176.828 Y13.625 Z-1.000 I2.110 J1.496
G2 X174.340 Y11.548 Z-1.000 I-8.919 J8.153
G2 X171.459 Y10.841 Z-1.000 I-2.505 J3.983
G2 X168.311 Y13.149 Z-1.000 I0.145 J3.499
G2 X168.095 Y15.430 Z-1.000 I5.145 J1.636
G2 X165.545 Y13.095 Z-1.000 I-74.727 J79.059
G2 X162.858 Y11.251 Z-1.000 I-7.203 J7.617
G2 X161.237 Y10.834 Z-1.000 I-1.751 J3.451
G2 X158.782 Y12.299 Z-1.000 I-0.141 J2.553
G2 X158.569 Y14.557 Z-1.000 I3.312 J1.452
G2 X159.814 Y18.007 Z-1.000 I17.313 J-4.294
G3 X155.285 Y13.578 Z-1.000 I402.800 J-416.345
G2 X152.664 Y11.523 Z-1.000 I-10.584 J10.800
G2 X150.507 Y10.771 Z-1.000 I-2.576 J3.918
G2 X147.870 Y12.331 Z-1.000 I-0.225 J2.628
G2 X147.646 Y13.629 Z-1.000 I3.411 J1.256
G1 X147.274 Y13.225 Z-1.000
G2 X144.984 Y11.415 Z-1.000 I-5.985 J5.218
G2 X141.873 Y10.892 Z-1.000 I-2.292 J4.115
G2 X139.046 Y13.438 Z-1.000 I0.608 J3.519
G2 X138.960 Y15.432 Z-1.000 I5.845 J1.250
G2 X137.293 Y13.740 Z-1.000 I-25.242 J23.187
G2 X134.630 Y11.540 Z-1.000 I-10.198 J9.636
G2 X132.914 Y10.798 Z-1.000 I-2.691 J3.867
G2 X130.305 Y12.366 Z-1.000 I-0.440 J2.224
G2 X130.546 Y14.866 Z-1.000 I3.930 J0.883
G3 X131.912 Y17.693 Z-1.000 I-33.328 J17.851
G3 X130.480 Y17.484 Z-1.000 I2.354 J-21.116
G2 X129.717 Y17.880 Z-1.000 I-0.097 J0.746
G2 X126.250 Y11.324 Z-1.000 I-1183.259 J621.541
G2 X125.867 Y11.061 Z-1.000 I-0.442 J0.234
G1 X125.197 Y10.982 Z-1.000
G3 X122.240 Y10.753 Z-1.000 I7.029 J-110.164
G2 X121.683 Y11.403 Z-1.000 I-0.071 J0.503
G0 X121.683 Y11.403 Z3.000
G0 X116.196 Y17.089 Z3.000
G0 X116.196 Y17.089 Z2.000
G1 X116.196 Y17.089 Z-1.000
G2 X112.539 Y13.897 Z-1.000 I-33.720 J34.941
G2 X107.922 Y11.084 Z-1.000 I-13.505 J16.969
G2 X103.426 Y4.265 Z-1.000 I-54.956 J31.339
G2 X100.882 Y1.580 Z-1.000 I-12.388 J9.188
G2 X97.291 Y-0.288 Z-1.000 I-5.489 J6.170
G2 X95.206 Y-0.465 Z-1.000 I-1.620 J6.697
G2 X92.281 Y1.398 Z-1.000 I0.207 J3.553
G2 X92.277 Y4.604 Z-1.000 I3.385 J1.606
G2 X93.994 Y6.820 Z-1.000 I6.787 J-3.482
G2 X97.011 Y8.842 Z-1.000 I10.575 J-12.522
G2 X103.222 Y11.452 Z-1.000 I20.965 J-41.184
G3 X104.124 Y13.078 Z-1.000 I-65.821 J37.592
G2 X102.865 Y11.910 Z-1.000 I-12.649 J12.366
G2 X100.780 Y10.849 Z-1.000 I-3.241 J3.789
G2 X97.626 Y12.716 Z-1.000 I-0.609 J2.569
G2 X98.149 Y16.718 Z-1.000 I6.315 J1.209
G2 X99.810 Y19.972 Z-1.000 I234.011 J-117.336
G2 X98.000 Y18.454 Z-1.000 I-13.405 J14.135
G2 X97.416 Y18.190 Z-1.000 I-0.660 J0.683
G2 X96.713 Y18.964 Z-1.000 I-0.135 J0.584
G2 X97.048 Y19.533 Z-1.000 I1.492 J-0.496
G2 X100.514 Y22.912 Z-1.000 I17.191 J-14.167
G2 X101.791 Y23.592 Z-1.000 I2.183 J-2.562
G2 X104.011 Y23.031 Z-1.000 I0.659 J-2.066
G2 X104.813 Y20.072 Z-1.000 I-2.780 J-2.342
G2 X102.999 Y15.838 Z-1.000 I-13.646 J3.341
G3 X101.157 Y12.668 Z-1.000 I31.665 J-20.525
G3 X101.719 Y13.045 Z-1.000 I-1.152 J2.324
G3 X107.599 Y19.942 Z-1.000 I-28.544 J30.294
G3 X109.603 Y23.054 Z-1.000 I-311.059 J202.474
G2 X110.264 Y23.411 Z-1.000 I0.800 J-0.690
G2 X114.074 Y23.669 Z-1.000 I4.680 J-40.870
G2 X114.588 Y23.147 Z-1.000 I0.014 J-0.500
G2 X114.353 Y22.554 Z-1.000 I-1.608 J0.295
G2 X109.521 Y13.727 Z-1.000 I-5195.595 J2838.271
G3 X111.400 Y15.025 Z-1.000 I-6.922 J12.032
G3 X118.096 Y20.981 Z-1.000 I-198.436 J229.848
G2 X119.166 Y21.803 Z-1.000 I4.346 J-4.547
G2 X120.692 Y22.220 Z-1.000 I1.350 J-1.938
G2 X120.994 Y21.331 Z-1.000 I-0.011 J-0.500
G3 X117.192 Y18.078 Z-1.000 I34.657 J-44.367
G2 X116.196 Y17.089 Z-1.000 I-34.716 J33.951
G0 X116.196 Y17.089 Z3.000
G0 X93.727 Y21.621 Z3.000
G0 X93.727 Y21.621 Z2.000
G1 X93.727 Y21.621 Z-1.000
G2 X93.504 Y21.298 Z-1.000 I-0.490 J0.099
G3 X92.124 Y20.308 Z-1.000 I5.028 J-8.469
G2 X85.835 Y14.311 Z-1.000 I-204079.521 J214004.624
G2 X81.701 Y12.587 Z-1.000 I-4.381 J4.686
G3 X81.464 Y12.495 Z-1.000 I0.323 J-1.186
G2 X78.628 Y11.024 Z-1.000 I-5.324 J6.792
G2 X75.498 Y10.926 Z-1.000 I-1.754 J6.031
G2 X72.662 Y13.816 Z-1.000 I1.032 J3.850
G2 X72.625 Y15.760 Z-1.000 I7.430 J1.114
G2 X70.275 Y13.473 Z-1.000 I-166.398 J168.563
G2 X68.960 Y12.307 Z-1.000 I-7.917 J7.609
G2 X66.184 Y10.868 Z-1.000 I-4.970 J6.191
G1 X65.737 Y10.786 Z-1.000
G2 X63.151 Y11.741 Z-1.000 I-0.446 J2.773
G2 X62.886 Y15.131 Z-1.000 I3.213 J1.957
G2 X64.126 Y17.874 Z-1.000 I19.287 J-7.069
G2 X59.083 Y13.045 Z-1.000 I-86.220 J85.003
G2 X56.331 Y11.140 Z-1.000 I-9.056 J10.141
G2 X52.966 Y11.569 Z-1.000 I-1.359 J2.749
G2 X52.208 Y12.921 Z-1.000 I2.104 J2.069
G2 X52.573 Y16.247 Z-1.000 I5.616 J1.067
G2 X55.809 Y20.509 Z-1.000 I10.582 J-4.674
G2 X54.137 Y20.470 Z-1.000 I-1.352 J21.592
G3 X52.515 Y19.006 Z-1.000 I26.971 J-31.521
G2 X47.555 Y14.188 Z-1.000 I-166.779 J166.715
G2 X45.054 Y11.972 Z-1.000 I-21.993 J22.307
G2 X42.348 Y10.792 Z-1.000 I-3.528 J4.398
G2 X39.567 Y12.274 Z-1.000 I-0.368 J2.659
G2 X39.377 Y13.691 Z-1.000 I4.137 J1.279
G2 X37.398 Y11.860 Z-1.000 I-12.982 J12.041
G2 X33.289 Y10.969 Z-1.000 I-2.984 J3.840
G2 X30.675 Y13.606 Z-1.000 I0.871 J3.476
G2 X30.648 Y15.472 Z-1.000 I7.203 J1.039
G2 X27.981 Y12.942 Z-1.000 I-193.060 J200.853
G2 X25.278 Y11.032 Z-1.000 I-7.336 J7.510
G2 X22.269 Y11.566 Z-1.000 I-1.124 J2.410
G2 X21.128 Y14.903 Z-1.000 I3.760 J3.149
G2 X21.933 Y18.575 Z-1.000 I13.933 J-1.131
G2 X24.764 Y24.142 Z-1.000 I33.541 J-13.550
G2 X29.329 Y31.095 Z-1.000 I206.861 J-130.853
G3 X27.658 Y29.090 Z-1.000 I22.268 J-20.258
G3 X18.050 Y13.988 Z-1.000 I91.540 J-68.846
G2 X16.431 Y11.540 Z-1.000 I-11.032 J5.537
G2 X15.145 Y10.843 Z-1.000 I-1.434 J1.110
G2 X13.509 Y11.764 Z-1.000 I0.126 J2.136
G2 X12.919 Y16.176 Z-1.000 I5.256 J2.949
G2 X14.235 Y19.675 Z-1.000 I25.052 J-7.428
G2 X20.020 Y30.095 Z-1.000 I111.463 J-55.066
G1 X19.333 Y29.200 Z-1.000
G3 X11.285 Y17.181 Z-1.000 I218.665 J-155.137
G2 X8.102 Y13.073 Z-1.000 I-22.496 J14.142
G2 X6.274 Y11.570 Z-1.000 I-6.537 J6.090
G2 X4.172 Y10.782 Z-1.000 I-2.625 J3.800
G2 X0.063 Y13.138 Z-1.000 I-0.433 J4.006
G2 X1.029 Y17.870 Z-1.000 I4.191 J1.609
G2 X4.316 Y18.793 Z-1.000 I2.342 J-2.026
G2 X5.492 Y17.859 Z-1.000 I-0.402 J-1.714
G2 X5.672 Y16.465 Z-1.000 I-2.553 J-1.038
G2 X4.486 Y14.769 Z-1.000 I-1.886 J0.056
G3 X2.439 Y14.106 Z-1.000 I3.879 J-15.466
G3 X2.086 Y12.975 Z-1.000 I0.290 J-0.711
G3 X4.333 Y12.370 Z-1.000 I1.640 J1.617
G3 X6.506 Y13.847 Z-1.000 I-2.926 J6.642
G3 X10.252 Y18.684 Z-1.000 I-30.161 J27.227
G2 X18.462 Y30.592 Z-1.000 I135.756 J-84.814
G2 X22.335 Y35.000 Z-1.000 I27.756 J-20.483
G2 X23.141 Y35.611 Z-1.000 I2.361 J-2.275
G2 X24.160 Y35.837 Z-1.000 I0.768 J-1.056
G2 X24.775 Y34.640 Z-1.000 I-0.269 J-0.895
G2 X24.283 Y33.110 Z-1.000 I-22.881 J6.518
G2 X20.801 Y24.623 Z-1.000 I-242.802 J94.651
G3 X17.573 Y16.415 Z-1.000 I103.064 J-45.273
G2 X26.585 Y30.075 Z-1.000 I103.721 J-58.628
G2 X30.344 Y34.401 Z-1.000 I31.500 J-23.571
G2 X31.751 Y35.567 Z-1.000 I5.409 J-5.097
G2 X32.684 Y35.845 Z-1.000 I0.828 J-1.074
G2 X33.488 Y34.856 Z-1.000 I0.037 J-0.792
G2 X32.722 Y32.963 Z-1.000 I-46.986 J17.904
G3 X26.999 Y18.995 Z-1.000 I171.762 J-78.534
G3 X25.487 Y13.937 Z-1.000 I34.604 J-13.100
G3 X25.370 Y12.948 Z-1.000 I3.082 J-0.865
G3 X25.701 Y13.158 Z-1.000 I-0.745 J1.535
G3 X27.667 Y14.909 Z-1.000 I-17.771 J21.927
G2 X33.058 Y20.103 Z-1.000 I154.441 J-154.926
G2 X38.859 Y23.510 Z-1.000 I10.606 J-11.412
G2 X42.150 Y23.405 Z-1.000 I1.478 J-5.282
G2 X43.417 Y22.340 Z-1.000 I-0.902 J-2.360
G2 X43.626 Y22.743 Z-1.000 I32.102 J-16.404
G2 X44.358 Y23.445 Z-1.000 I1.178 J-0.496
G2 X47.884 Y23.696 Z-1.000 I3.334 J-21.878
G1 X48.057 Y23.668 Z-1.000
G2 X48.286 Y22.826 Z-1.000 I-0.221 J-0.512
G2 X43.769 Y13.376 Z-1.000 I-1826.865 J867.310
G3 X43.561 Y12.859 Z-1.000 I3.851 J-1.850
G3 X44.207 Y13.300 Z-1.000 I-1.702 J3.183
G3 X45.664 Y14.658 Z-1.000 I-19.889 J22.812
G3 X52.748 Y21.642 Z-1.000 I-287.278 J298.449
G2 X53.596 Y24.067 Z-1.000 I13.098 J-3.216
G2 X55.039 Y24.170 Z-1.000 I0.751 J-0.354
G2 X55.268 Y22.854 Z-1.000 I-16.701 J-3.590
G3 X55.346 Y22.753 Z-1.000 I0.153 J0.038
G2 X57.666 Y22.354 Z-1.000 I-29.102 J-175.924
G2 X59.437 Y21.836 Z-1.000 I-0.471 J-4.903
G2 X60.377 Y20.790 Z-1.000 I-0.799 J-1.664
G2 X60.277 Y19.027 Z-1.000 I-2.431 J-0.746
G2 X58.346 Y15.942 Z-1.000 I-22.383 J11.865
G3 X56.234 Y12.924 Z-1.000 I23.783 J-18.890
G3 X57.555 Y13.925 Z-1.000 I-9.671 J14.133
G3 X67.379 Y23.329 Z-1.000 I-194.092 J212.592
G2 X67.687 Y23.472 Z-1.000 I0.352 J-0.355
G2 X71.367 Y23.698 Z-1.000 I4.814 J-48.312
G2 X71.812 Y22.781 Z-1.000 I-0.041 J-0.587
G2 X70.973 Y21.101 Z-1.000 I-47.817 J22.860
G3 X66.761 Y13.224 Z-1.000 I178.647 J-100.583
G3 X66.517 Y12.679 Z-1.000 I1.832 J-1.145
G3 X66.876 Y12.840 Z-1.000 I-0.511 J1.617
G3 X68.661 Y14.264 Z-1.000 I-6.099 J9.475
G3 X74.808 Y20.174 Z-1.000 I-2156.584 J2249.455
G2 X79.952 Y23.341 Z-1.000 I9.641 J-9.896
G2 X83.306 Y23.730 Z-1.000 I2.404 J-6.078
G2 X86.138 Y21.424 Z-1.000 I-0.408 J-3.392
G2 X85.920 Y17.796 Z-1.000 I-5.627 J-1.484
G2 X84.423 Y15.409 Z-1.000 I-9.089 J4.037
G3 X85.200 Y15.998 Z-1.000 I-3.699 J5.679
G2 X90.073 Y20.552 Z-1.000 I191.236 J-199.740
G2 X91.898 Y21.922 Z-1.000 I6.937 J-7.344
G2 X93.263 Y22.219 Z-1.000 I1.114 J-1.833
G2 X93.727 Y21.621 Z-1.000 I-0.026 J-0.499
G0 X93.727 Y21.621 Z3.000
G0 X73.598 Y26.988 Z3.000
G0 X73.598 Y26.988 Z2.000
G1 X73.598 Y26.988 Z-1.000
G2 X71.118 Y25.165 Z-1.000 I-2.376 J0.633
G2 X69.612 Y25.791 Z-1.000 I-0.066 J1.966
G2 X69.201 Y27.508 Z-1.000 I1.735 J1.323
G2 X71.739 Y29.528 Z-1.000 I2.461 J-0.488
G2 X73.658 Y27.954 Z-1.000 I0.044 J-1.904
G2 X73.598 Y26.988 Z-1.000 I-2.436 J-0.332
G0 Z3.000
(finish operation: Contour)
(begin postamble)
M05
G17 G54 G90 G80 G40
M2
