%
(Header)
(Generated by gcodetools from Inkscape.)
(Using default header. To add your own header create file "header" in the output dir.)
M3
(Header end.)
G21 (All units in mm)

(Start cutting path id: path46563)
(Change tool to Default tool)

G00 Z2.000000
G00 X33.768815 Y99.711082

G01 Z0.000000 F100.0(Penetrate)
G01 X32.516330 Y98.455501 Z0.000000 F400.000000
G01 X31.263844 Y97.199920 Z0.000000
G01 X31.291697 Y74.040170 Z0.000000
G01 X31.320067 Y50.880421 Z0.000000
G01 X32.544065 Y49.652788 Z0.000000
G01 X33.768580 Y48.425155 Z0.000000
G01 X37.191025 Y48.425140 Z0.000000
G01 X40.613468 Y48.425124 Z0.000000
G01 X41.815731 Y49.624269 Z0.000000
G01 X43.017474 Y50.822897 Z0.000000
G01 X43.017482 Y52.558970 Z0.000000
G01 X43.017490 Y54.295565 Z0.000000
G01 X43.858350 Y55.140039 Z0.000000
G01 X44.698690 Y55.985032 Z0.000000
G01 X47.835327 Y55.985017 Z0.000000
G01 X50.971446 Y55.985003 Z0.000000
G01 X51.183215 Y56.254242 Z0.000000
G03 X51.327196 Y56.669682 Z0.000000 I-0.528502 J0.415835
G03 X51.183749 Y57.118915 Z0.000000 I-0.773731 J0.000455
G01 X50.972503 Y57.415596 Z0.000000
G01 X47.591478 Y57.415612 Z0.000000
G01 X44.210974 Y57.415627 Z0.000000
G01 X42.950204 Y56.169364 Z0.000000
G01 X41.689434 Y54.923104 Z0.000000
G01 X41.689426 Y53.234147 Z0.000000
G01 X41.689418 Y51.545706 Z0.000000
G01 X40.849078 Y50.700713 Z0.000000
G01 X40.008218 Y49.855720 Z0.000000
G01 X37.198796 Y49.855733 Z0.000000
G01 X34.388872 Y49.855746 Z0.000000
G01 X33.543879 Y50.696086 Z0.000000
G01 X32.699404 Y51.536944 Z0.000000
G01 X32.699508 Y74.119382 Z0.000000
G01 X32.699611 Y96.701821 Z0.000000
G01 X33.495942 Y97.494002 Z0.000000
G01 X34.292272 Y98.285665 Z0.000000
G01 X48.402996 Y98.257640 Z0.000000
G02 X62.497135 Y98.189318 Z0.000000 I-4.899859 J-2464.537361
G02 X62.595006 Y98.148326 Z0.000000 I-0.001078 J-0.139909
G02 X62.640841 Y98.051604 Z0.000000 I-0.112617 J-0.112588
G02 X62.731172 Y96.788668 Z0.000000 I-22.186504 J-2.221587
G03 X62.885909 Y95.562097 Z0.000000 I7.495732 J0.322571
G03 X63.041828 Y95.315617 Z0.000000 I0.409332 J0.086380
G03 X64.175065 Y95.211233 Z0.000000 I0.650079 J0.853883
G03 X64.778424 Y96.191154 Z0.000000 I-0.494079 J0.979927
G03 X64.705799 Y96.578813 Z0.000000 I-1.070914 J0.000005
G03 X64.521614 Y96.851827 Z0.000000 I-0.693761 J-0.269400
G02 X64.306990 Y97.119811 Z0.000000 I0.834517 J0.888290
G02 X64.146234 Y97.487130 Z0.000000 I1.424656 J0.842330
G02 X64.110329 Y97.860066 Z0.000000 I0.925626 J0.277313
G02 X64.202676 Y98.055121 Z0.000000 I0.319225 J-0.031746
G02 X64.411985 Y98.145597 Z0.000000 I0.218722 J-0.218647
G02 X70.880843 Y98.258573 Z0.000000 I7.586306 J-249.127923
G01 X77.384523 Y98.288056 Z0.000000
G01 X78.341871 Y97.338983 Z0.000000
G01 X79.299220 Y96.390428 Z0.000000
G01 X79.266595 Y95.438254 Z0.000000
G02 X79.161182 Y94.530835 Z0.000000 I-5.584160 J0.188868
G02 X79.055859 Y94.386151 Z0.000000 I-0.209674 J0.041955
G03 X78.954896 Y94.240563 Z0.000000 I0.098445 J-0.176073
G03 X78.877224 Y93.218585 Z0.000000 I6.684970 J-1.022009
G01 X78.877219 Y92.150948 Z0.000000
G01 X80.000777 Y92.150943 Z0.000000
G01 X81.124332 Y92.150938 Z0.000000
G01 X81.124337 Y93.218575 Z0.000000
G03 X81.052958 Y94.244217 Z0.000000 I-7.403832 J0.000034
G03 X80.962281 Y94.376822 Z0.000000 I-0.178890 J-0.025022
G02 X80.867428 Y94.509920 Z0.000000 I0.093415 J0.166920
G02 X80.720489 Y95.720948 Z0.000000 I10.537328 J1.892965
G01 X80.640242 Y96.973946 Z0.000000
G01 X79.274893 Y98.342412 Z0.000000
G01 X77.909546 Y99.710879 Z0.000000
G01 X71.034110 Y99.710910 Z0.000000
G03 X64.172900 Y99.642230 Z0.000000 I-0.001576 J-342.595611
G03 X63.813839 Y99.566486 Z0.000000 I0.019670 J-0.982177
G02 X63.466355 Y99.495876 Z0.000000 I-0.352214 J0.842989
G02 X63.076021 Y99.562346 Z0.000000 I-0.005925 J1.144530
G03 X62.672192 Y99.634204 Z0.000000 I-0.415806 J-1.166096
G03 X48.226443 Y99.706354 Z0.000000 I-14.931581 J-1543.398336
G01 X33.768815 Y99.711082 Z0.000000
G00 Z2.000000

(End cutting path id: path46563)


(Start cutting path id: path46563)
(Change tool to Default tool)

G00 Z2.000000
G00 X33.768815 Y99.711082

G01 Z0.000000 F100.0(Penetrate)
G01 X32.516330 Y98.455501 Z0.000000 F400.000000
G01 X31.263844 Y97.199920 Z0.000000
G01 X31.291697 Y74.040170 Z0.000000
G01 X31.320067 Y50.880421 Z0.000000
G01 X32.544065 Y49.652788 Z0.000000
G01 X33.768580 Y48.425155 Z0.000000
G01 X37.191025 Y48.425140 Z0.000000
G01 X40.613468 Y48.425124 Z0.000000
G01 X41.815731 Y49.624269 Z0.000000
G01 X43.017474 Y50.822897 Z0.000000
G01 X43.017482 Y52.558970 Z0.000000
G01 X43.017490 Y54.295565 Z0.000000
G01 X43.858350 Y55.140039 Z0.000000
G01 X44.698690 Y55.985032 Z0.000000
G01 X47.835327 Y55.985017 Z0.000000
G01 X50.971446 Y55.985003 Z0.000000
G01 X51.183215 Y56.254242 Z0.000000
G03 X51.327196 Y56.669682 Z0.000000 I-0.528502 J0.415835
G03 X51.183749 Y57.118915 Z0.000000 I-0.773731 J0.000455
G01 X50.972503 Y57.415596 Z0.000000
G01 X47.591478 Y57.415612 Z0.000000
G01 X44.210974 Y57.415627 Z0.000000
G01 X42.950204 Y56.169364 Z0.000000
G01 X41.689434 Y54.923104 Z0.000000
G01 X41.689426 Y53.234147 Z0.000000
G01 X41.689418 Y51.545706 Z0.000000
G01 X40.849078 Y50.700713 Z0.000000
G01 X40.008218 Y49.855720 Z0.000000
G01 X37.198796 Y49.855733 Z0.000000
G01 X34.388872 Y49.855746 Z0.000000
G01 X33.543879 Y50.696086 Z0.000000
G01 X32.699404 Y51.536944 Z0.000000
G01 X32.699508 Y74.119382 Z0.000000
G01 X32.699611 Y96.701821 Z0.000000
G01 X33.495942 Y97.494002 Z0.000000
G01 X34.292272 Y98.285665 Z0.000000
G01 X48.402996 Y98.257640 Z0.000000
G02 X62.497135 Y98.189318 Z0.000000 I-4.899859 J-2464.537361
G02 X62.595006 Y98.148326 Z0.000000 I-0.001078 J-0.139909
G02 X62.640841 Y98.051604 Z0.000000 I-0.112617 J-0.112588
G02 X62.731172 Y96.788668 Z0.000000 I-22.186504 J-2.221587
G03 X62.885909 Y95.562097 Z0.000000 I7.495732 J0.322571
G03 X63.041828 Y95.315617 Z0.000000 I0.409332 J0.086380
G03 X64.175065 Y95.211233 Z0.000000 I0.650079 J0.853883
G03 X64.778424 Y96.191154 Z0.000000 I-0.494079 J0.979927
G03 X64.705799 Y96.578813 Z0.000000 I-1.070914 J0.000005
G03 X64.521614 Y96.851827 Z0.000000 I-0.693761 J-0.269400
G02 X64.306990 Y97.119811 Z0.000000 I0.834517 J0.888290
G02 X64.146234 Y97.487130 Z0.000000 I1.424656 J0.842330
G02 X64.110329 Y97.860066 Z0.000000 I0.925626 J0.277313
G02 X64.202676 Y98.055121 Z0.000000 I0.319225 J-0.031746
G02 X64.411985 Y98.145597 Z0.000000 I0.218722 J-0.218647
G02 X70.880843 Y98.258573 Z0.000000 I7.586306 J-249.127923
G01 X77.384523 Y98.288056 Z0.000000
G01 X78.341871 Y97.338983 Z0.000000
G01 X79.299220 Y96.390428 Z0.000000
G01 X79.266595 Y95.438254 Z0.000000
G02 X79.161182 Y94.530835 Z0.000000 I-5.584160 J0.188868
G02 X79.055859 Y94.386151 Z0.000000 I-0.209674 J0.041955
G03 X78.954896 Y94.240563 Z0.000000 I0.098445 J-0.176073
G03 X78.877224 Y93.218585 Z0.000000 I6.684970 J-1.022009
G01 X78.877219 Y92.150948 Z0.000000
G01 X80.000777 Y92.150943 Z0.000000
G01 X81.124332 Y92.150938 Z0.000000
G01 X81.124337 Y93.218575 Z0.000000
G03 X81.052958 Y94.244217 Z0.000000 I-7.403832 J0.000034
G03 X80.962281 Y94.376822 Z0.000000 I-0.178890 J-0.025022
G02 X80.867428 Y94.509920 Z0.000000 I0.093415 J0.166920
G02 X80.720489 Y95.720948 Z0.000000 I10.537328 J1.892965
G01 X80.640242 Y96.973946 Z0.000000
G01 X79.274893 Y98.342412 Z0.000000
G01 X77.909546 Y99.710879 Z0.000000
G01 X71.034110 Y99.710910 Z0.000000
G03 X64.172900 Y99.642230 Z0.000000 I-0.001576 J-342.595611
G03 X63.813839 Y99.566486 Z0.000000 I0.019670 J-0.982177
G02 X63.466355 Y99.495876 Z0.000000 I-0.352214 J0.842989
G02 X63.076021 Y99.562346 Z0.000000 I-0.005925 J1.144530
G03 X62.672192 Y99.634204 Z0.000000 I-0.415806 J-1.166096
G03 X48.226443 Y99.706354 Z0.000000 I-14.931581 J-1543.398336
G01 X33.768815 Y99.711082 Z0.000000
G00 Z2.000000

(End cutting path id: path46563)


(Start cutting path id: path46563)
(Change tool to Default tool)

G00 Z2.000000
G00 X48.282321 Y90.823015

G01 Z0.000000 F100.0(Penetrate)
G01 X47.080058 Y89.623870 Z0.000000 F400.000000
G01 X45.878315 Y88.425244 Z0.000000
G01 X45.878268 Y78.307028 Z0.000000
G01 X45.878222 Y68.189329 Z0.000000
G01 X45.035291 Y67.359868 Z0.000000
G01 X44.192361 Y66.530409 Z0.000000
G01 X39.532453 Y66.461567 Z0.000000
G03 X33.907642 Y66.253918 Z0.000000 I1.900064 J-127.755553
G03 X33.589513 Y66.111067 Z0.000000 I0.028911 J-0.490046
G03 X33.525596 Y65.962271 Z0.000000 I0.154372 J-0.154439
G03 X33.439334 Y60.296534 Z0.000000 I266.679473 J-6.893775
G01 X33.412902 Y54.606269 Z0.000000
G01 X34.394584 Y53.533451 Z0.000000
G02 X35.355774 Y52.444793 Z0.000000 I-30.374585 J-27.786777
G02 X35.670875 Y52.035541 Z0.000000 I-3.971820 J-3.383996
G03 X35.985843 Y51.635015 Z0.000000 I3.504813 J2.432038
G03 X36.094924 Y51.558157 Z0.000000 I0.218040 J0.193618
G03 X36.679273 Y51.506018 Z0.000000 I0.378287 J0.939031
G03 X37.202431 Y51.788558 Z0.000000 I-0.211467 J1.017174
G03 X37.414600 Y52.587734 Z0.000000 I-0.582351 J0.582357
G03 X36.765442 Y53.390534 Z0.000000 I-1.239183 J-0.338164
G02 X36.479452 Y53.581605 Z0.000000 I0.708347 J1.369802
G02 X35.599951 Y54.373262 Z0.000000 I11.873330 J14.075187
G01 X34.742532 Y55.196000 Z0.000000
G01 X34.742554 Y60.085798 Z0.000000
G01 X34.742577 Y64.975595 Z0.000000
G01 X39.721431 Y64.975572 Z0.000000
G01 X44.700285 Y64.975549 Z0.000000
G01 X45.953288 Y66.225436 Z0.000000
G01 X47.206291 Y67.475321 Z0.000000
G01 X47.206338 Y77.588877 Z0.000000
G01 X47.206384 Y87.702434 Z0.000000
G01 X48.047244 Y88.547427 Z0.000000
G01 X48.887584 Y89.392420 Z0.000000
G01 X57.018090 Y89.392382 Z0.000000
G01 X65.149115 Y89.392345 Z0.000000
G01 X65.443724 Y89.084790 Z0.000000
G02 X65.629685 Y88.754290 Z0.000000 I-0.550275 J-0.527189
G02 X65.616138 Y88.439133 Z0.000000 I-0.509026 J-0.135989
G03 X65.593449 Y87.407733 Z0.000000 I1.519215 J-0.549368
G03 X66.117845 Y86.834050 Z0.000000 I0.875383 J0.273663
G03 X66.446970 Y86.784126 Z0.000000 I0.265621 J0.641263
G03 X67.067434 Y86.921549 Z0.000000 I-0.230706 J2.511037
G02 X67.917539 Y87.077196 Z0.000000 I0.897587 J-2.503044
G02 X68.150085 Y86.940702 Z0.000000 I0.004616 J-0.258477
G03 X68.311836 Y86.823829 Z0.000000 I0.200713 J0.107415
G03 X69.328522 Y86.736179 Z0.000000 I1.016713 J5.852977
G01 X70.397195 Y86.736174 Z0.000000
G01 X70.397200 Y87.859730 Z0.000000
G01 X70.397205 Y88.983804 Z0.000000
G01 X69.435195 Y88.983808 Z0.000000
G03 X68.269586 Y88.864441 Z0.000000 I-0.000025 J-5.750454
G03 X68.150093 Y88.717681 Z0.000000 I0.030378 J-0.146760
G02 X67.892952 Y88.455770 Z0.000000 I-0.261957 J0.000001
G02 X67.353248 Y88.703187 Z0.000000 I-0.012595 J0.684878
G02 X67.268295 Y88.842455 Z0.000000 I0.434464 J0.360565
G02 X67.172549 Y89.127239 Z0.000000 I1.764085 J0.751583
G03 X67.042058 Y89.390342 Z0.000000 I-0.669035 J-0.167912
G03 X66.375709 Y90.122910 Z0.000000 I-6.125430 J-4.902387
G01 X65.653426 Y90.822936 Z0.000000
G01 X56.967874 Y90.822975 Z0.000000
G01 X48.282321 Y90.823015 Z0.000000
G00 Z2.000000

(End cutting path id: path46563)


(Start cutting path id: path46563)
(Change tool to Default tool)

G00 Z2.000000
G00 X48.282321 Y90.823015

G01 Z0.000000 F100.0(Penetrate)
G01 X47.080058 Y89.623870 Z0.000000 F400.000000
G01 X45.878315 Y88.425244 Z0.000000
G01 X45.878268 Y78.307028 Z0.000000
G01 X45.878222 Y68.189329 Z0.000000
G01 X45.035291 Y67.359868 Z0.000000
G01 X44.192361 Y66.530409 Z0.000000
G01 X39.532453 Y66.461567 Z0.000000
G03 X33.907642 Y66.253918 Z0.000000 I1.900064 J-127.755553
G03 X33.589513 Y66.111067 Z0.000000 I0.028911 J-0.490046
G03 X33.525596 Y65.962271 Z0.000000 I0.154372 J-0.154439
G03 X33.439334 Y60.296534 Z0.000000 I266.679473 J-6.893775
G01 X33.412902 Y54.606269 Z0.000000
G01 X34.394584 Y53.533451 Z0.000000
G02 X35.355774 Y52.444793 Z0.000000 I-30.374585 J-27.786777
G02 X35.670875 Y52.035541 Z0.000000 I-3.971820 J-3.383996
G03 X35.985843 Y51.635015 Z0.000000 I3.504813 J2.432038
G03 X36.094924 Y51.558157 Z0.000000 I0.218040 J0.193618
G03 X36.679273 Y51.506018 Z0.000000 I0.378287 J0.939031
G03 X37.202431 Y51.788558 Z0.000000 I-0.211467 J1.017174
G03 X37.414600 Y52.587734 Z0.000000 I-0.582351 J0.582357
G03 X36.765442 Y53.390534 Z0.000000 I-1.239183 J-0.338164
G02 X36.479452 Y53.581605 Z0.000000 I0.708347 J1.369802
G02 X35.599951 Y54.373262 Z0.000000 I11.873330 J14.075187
G01 X34.742532 Y55.196000 Z0.000000
G01 X34.742554 Y60.085798 Z0.000000
G01 X34.742577 Y64.975595 Z0.000000
G01 X39.721431 Y64.975572 Z0.000000
G01 X44.700285 Y64.975549 Z0.000000
G01 X45.953288 Y66.225436 Z0.000000
G01 X47.206291 Y67.475321 Z0.000000
G01 X47.206338 Y77.588877 Z0.000000
G01 X47.206384 Y87.702434 Z0.000000
G01 X48.047244 Y88.547427 Z0.000000
G01 X48.887584 Y89.392420 Z0.000000
G01 X57.018090 Y89.392382 Z0.000000
G01 X65.149115 Y89.392345 Z0.000000
G01 X65.443724 Y89.084790 Z0.000000
G02 X65.629685 Y88.754290 Z0.000000 I-0.550275 J-0.527189
G02 X65.616138 Y88.439133 Z0.000000 I-0.509026 J-0.135989
G03 X65.593449 Y87.407733 Z0.000000 I1.519215 J-0.549368
G03 X66.117845 Y86.834050 Z0.000000 I0.875383 J0.273663
G03 X66.446970 Y86.784126 Z0.000000 I0.265621 J0.641263
G03 X67.067434 Y86.921549 Z0.000000 I-0.230706 J2.511037
G02 X67.917539 Y87.077196 Z0.000000 I0.897587 J-2.503044
G02 X68.150085 Y86.940702 Z0.000000 I0.004616 J-0.258477
G03 X68.311836 Y86.823829 Z0.000000 I0.200713 J0.107415
G03 X69.328522 Y86.736179 Z0.000000 I1.016713 J5.852977
G01 X70.397195 Y86.736174 Z0.000000
G01 X70.397200 Y87.859730 Z0.000000
G01 X70.397205 Y88.983804 Z0.000000
G01 X69.435195 Y88.983808 Z0.000000
G03 X68.269586 Y88.864441 Z0.000000 I-0.000025 J-5.750454
G03 X68.150093 Y88.717681 Z0.000000 I0.030378 J-0.146760
G02 X67.892952 Y88.455770 Z0.000000 I-0.261957 J0.000001
G02 X67.353248 Y88.703187 Z0.000000 I-0.012595 J0.684878
G02 X67.268295 Y88.842455 Z0.000000 I0.434464 J0.360565
G02 X67.172549 Y89.127239 Z0.000000 I1.764085 J0.751583
G03 X67.042058 Y89.390342 Z0.000000 I-0.669035 J-0.167912
G03 X66.375709 Y90.122910 Z0.000000 I-6.125430 J-4.902387
G01 X65.653426 Y90.822936 Z0.000000
G01 X56.967874 Y90.822975 Z0.000000
G01 X48.282321 Y90.823015 Z0.000000
G00 Z2.000000

(End cutting path id: path46563)


(Start cutting path id: path46563)
(Change tool to Default tool)

G00 Z2.000000
G00 X55.722115 Y88.860630

G01 Z0.000000 F100.0(Penetrate)
G03 X55.343020 Y88.852630 Z0.000000 I-0.162760 J-1.273379 F400.000000
G03 X54.536945 Y88.670097 Z0.000000 I1.305618 J-7.636768
G02 X54.052549 Y88.601898 Z0.000000 I-0.491061 J1.733502
G02 X53.617390 Y88.666477 Z0.000000 I-0.005408 J1.461988
G03 X52.288185 Y88.688518 Z0.000000 I-0.702673 J-2.284854
G03 X51.613625 Y88.122312 Z0.000000 I0.275001 J-1.012557
G02 X51.355711 Y87.716454 Z0.000000 I-1.722173 J0.809522
G02 X49.944334 Y86.110793 Z0.000000 I-29.061818 J24.122225
G03 X48.490705 Y84.532446 Z0.000000 I153.732048 J-143.042995
G03 X48.202035 Y84.199720 Z0.000000 I6.627856 J-6.041842
G01 X47.921405 Y83.860066 Z0.000000
G01 X47.921364 Y74.952390 Z0.000000
G01 X47.921323 Y66.044196 Z0.000000
G01 X46.908046 Y65.034555 Z0.000000
G01 X45.894254 Y64.024913 Z0.000000
G01 X40.981155 Y64.080853 Z0.000000
G01 X36.068058 Y64.136795 Z0.000000
G01 X35.865092 Y63.878430 Z0.000000
G03 X35.680066 Y63.040928 Z0.000000 I0.776387 J-0.610714
G03 X36.209401 Y62.418324 Z0.000000 I0.873053 J0.205945
G03 X36.430961 Y62.362786 Z0.000000 I0.297438 J0.716881
G03 X36.632417 Y62.376901 Z0.000000 I0.059084 J0.601456
G02 X37.655167 Y62.519901 Z0.000000 I1.231901 J-5.081746
G02 X42.814565 Y62.624364 Z0.000000 I5.221963 J-130.448641
G01 X46.545080 Y62.625937 Z0.000000
G01 X47.897497 Y63.980930 Z0.000000
G01 X49.249395 Y65.335922 Z0.000000
G01 X49.249436 Y74.387510 Z0.000000
G01 X49.249478 Y83.438608 Z0.000000
G01 X50.816249 Y84.970157 Z0.000000
G02 X52.428923 Y86.435464 Z0.000000 I20.943240 J-21.429435
G02 X52.936516 Y86.760588 Z0.000000 I1.482809 J-1.756210
G02 X53.949544 Y87.035744 Z0.000000 I1.294007 J-2.761692
G02 X54.812389 Y86.934549 Z0.000000 I0.192873 J-2.084597
G03 X55.475344 Y86.792381 Z0.000000 I0.949556 J2.811116
G03 X55.789934 Y86.839276 Z0.000000 I0.063402 J0.653323
G03 X56.412990 Y87.517272 Z0.000000 I-0.418171 J1.009567
G03 X56.301496 Y88.444871 Z0.000000 I-1.072637 J0.341573
G03 X56.044182 Y88.729272 Z0.000000 I-0.876514 J-0.534428
G03 X55.722115 Y88.860641 Z0.000000 I-0.407783 J-0.539253
G01 X55.722115 Y88.860630 Z0.000000
G00 Z2.000000

(End cutting path id: path46563)


(Start cutting path id: path46563)
(Change tool to Default tool)

G00 Z2.000000
G00 X55.722115 Y88.860630

G01 Z0.000000 F100.0(Penetrate)
G03 X55.343020 Y88.852630 Z0.000000 I-0.162760 J-1.273379 F400.000000
G03 X54.536945 Y88.670097 Z0.000000 I1.305618 J-7.636768
G02 X54.052549 Y88.601898 Z0.000000 I-0.491061 J1.733502
G02 X53.617390 Y88.666477 Z0.000000 I-0.005408 J1.461988
G03 X52.288185 Y88.688518 Z0.000000 I-0.702673 J-2.284854
G03 X51.613625 Y88.122312 Z0.000000 I0.275001 J-1.012557
G02 X51.355711 Y87.716454 Z0.000000 I-1.722173 J0.809522
G02 X49.944334 Y86.110793 Z0.000000 I-29.061818 J24.122225
G03 X48.490705 Y84.532446 Z0.000000 I153.732048 J-143.042995
G03 X48.202035 Y84.199720 Z0.000000 I6.627856 J-6.041842
G01 X47.921405 Y83.860066 Z0.000000
G01 X47.921364 Y74.952390 Z0.000000
G01 X47.921323 Y66.044196 Z0.000000
G01 X46.908046 Y65.034555 Z0.000000
G01 X45.894254 Y64.024913 Z0.000000
G01 X40.981155 Y64.080853 Z0.000000
G01 X36.068058 Y64.136795 Z0.000000
G01 X35.865092 Y63.878430 Z0.000000
G03 X35.680066 Y63.040928 Z0.000000 I0.776387 J-0.610714
G03 X36.209401 Y62.418324 Z0.000000 I0.873053 J0.205945
G03 X36.430961 Y62.362786 Z0.000000 I0.297438 J0.716881
G03 X36.632417 Y62.376901 Z0.000000 I0.059084 J0.601456
G02 X37.655167 Y62.519901 Z0.000000 I1.231901 J-5.081746
G02 X42.814565 Y62.624364 Z0.000000 I5.221963 J-130.448641
G01 X46.545080 Y62.625937 Z0.000000
G01 X47.897497 Y63.980930 Z0.000000
G01 X49.249395 Y65.335922 Z0.000000
G01 X49.249436 Y74.387510 Z0.000000
G01 X49.249478 Y83.438608 Z0.000000
G01 X50.816249 Y84.970157 Z0.000000
G02 X52.428923 Y86.435464 Z0.000000 I20.943240 J-21.429435
G02 X52.936516 Y86.760588 Z0.000000 I1.482809 J-1.756210
G02 X53.949544 Y87.035744 Z0.000000 I1.294007 J-2.761692
G02 X54.812389 Y86.934549 Z0.000000 I0.192873 J-2.084597
G03 X55.475344 Y86.792381 Z0.000000 I0.949556 J2.811116
G03 X55.789934 Y86.839276 Z0.000000 I0.063402 J0.653323
G03 X56.412990 Y87.517272 Z0.000000 I-0.418171 J1.009567
G03 X56.301496 Y88.444871 Z0.000000 I-1.072637 J0.341573
G03 X56.044182 Y88.729272 Z0.000000 I-0.876514 J-0.534428
G03 X55.722115 Y88.860641 Z0.000000 I-0.407783 J-0.539253
G01 X55.722115 Y88.860630 Z0.000000
G00 Z2.000000

(End cutting path id: path46563)


(Start cutting path id: path46563)
(Change tool to Default tool)

G00 Z2.000000
G00 X57.983725 Y88.893250

G01 Z0.000000 F100.0(Penetrate)
G03 X57.717325 Y88.770185 Z0.000000 I0.224722 J-0.836329 F400.000000
G03 X57.422982 Y88.508551 Z0.000000 I0.905570 J-1.315173
G03 X57.184804 Y87.967894 Z0.000000 I0.737828 J-0.647830
G03 X57.288874 Y87.285067 Z0.000000 I1.332265 J-0.146293
G02 X57.383113 Y86.872744 Z0.000000 I-1.041443 J-0.454959
G02 X57.501133 Y81.627936 Z0.000000 I-174.440811 J-6.549027
G01 X57.540459 Y76.366899 Z0.000000
G01 X56.383242 Y75.224707 Z0.000000
G01 X55.226027 Y74.082518 Z0.000000
G01 X52.927657 Y74.049908 Z0.000000
G03 X50.662154 Y73.916035 Z0.000000 I0.362752 J-25.375003
G03 X50.290663 Y73.775505 Z0.000000 I0.080641 J-0.774457
G01 X49.952043 Y73.534226 Z0.000000
G01 X49.984122 Y68.786295 Z0.000000
G01 X50.015684 Y64.037850 Z0.000000
G01 X50.256964 Y63.842650 Z0.000000
G03 X50.715870 Y63.665487 Z0.000000 I0.504066 J0.622751
G03 X51.145452 Y63.792420 Z0.000000 I0.037464 J0.663597
G03 X51.250533 Y63.985442 Z0.000000 I-0.151794 J0.207750
G03 X51.401768 Y68.261791 Z0.000000 I-97.431261 J5.586561
G02 X51.468867 Y72.583539 Z0.000000 I1029.642663 J-13.824635
G02 X51.478417 Y72.612073 Z0.000000 I0.050038 J-0.000882
G01 X51.503394 Y72.624976 Z0.000000
G02 X53.669609 Y72.637963 Z0.000000 I2.165385 J-180.509501
G01 X55.841645 Y72.637953 Z0.000000
G01 X57.338000 Y74.144652 Z0.000000
G01 X58.834358 Y75.651348 Z0.000000
G01 X58.876322 Y81.270679 Z0.000000
G02 X58.998070 Y86.869381 Z0.000000 I196.329456 J-1.468658
G02 X59.090187 Y87.216206 Z0.000000 I0.808626 J-0.029127
G03 X59.186978 Y88.192399 Z0.000000 I-1.158269 J0.607739
G03 X58.616437 Y88.829572 Z0.000000 I-0.953767 J-0.280002
G03 X58.273760 Y88.916622 Z0.000000 I-0.465257 J-1.113503
G03 X57.983725 Y88.893261 Z0.000000 I-0.081592 J-0.799119
G01 X57.983725 Y88.893250 Z0.000000
G00 Z2.000000

(End cutting path id: path46563)


(Start cutting path id: path46563)
(Change tool to Default tool)

G00 Z2.000000
G00 X57.983725 Y88.893250

G01 Z0.000000 F100.0(Penetrate)
G03 X57.717325 Y88.770185 Z0.000000 I0.224722 J-0.836329 F400.000000
G03 X57.422982 Y88.508551 Z0.000000 I0.905570 J-1.315173
G03 X57.184804 Y87.967894 Z0.000000 I0.737828 J-0.647830
G03 X57.288874 Y87.285067 Z0.000000 I1.332265 J-0.146293
G02 X57.383113 Y86.872744 Z0.000000 I-1.041443 J-0.454959
G02 X57.501133 Y81.627936 Z0.000000 I-174.440811 J-6.549027
G01 X57.540459 Y76.366899 Z0.000000
G01 X56.383242 Y75.224707 Z0.000000
G01 X55.226027 Y74.082518 Z0.000000
G01 X52.927657 Y74.049908 Z0.000000
G03 X50.662154 Y73.916035 Z0.000000 I0.362752 J-25.375003
G03 X50.290663 Y73.775505 Z0.000000 I0.080641 J-0.774457
G01 X49.952043 Y73.534226 Z0.000000
G01 X49.984122 Y68.786295 Z0.000000
G01 X50.015684 Y64.037850 Z0.000000
G01 X50.256964 Y63.842650 Z0.000000
G03 X50.715870 Y63.665487 Z0.000000 I0.504066 J0.622751
G03 X51.145452 Y63.792420 Z0.000000 I0.037464 J0.663597
G03 X51.250533 Y63.985442 Z0.000000 I-0.151794 J0.207750
G03 X51.401768 Y68.261791 Z0.000000 I-97.431261 J5.586561
G02 X51.468867 Y72.583539 Z0.000000 I1029.642663 J-13.824635
G02 X51.478417 Y72.612073 Z0.000000 I0.050038 J-0.000882
G01 X51.503394 Y72.624976 Z0.000000
G02 X53.669609 Y72.637963 Z0.000000 I2.165385 J-180.509501
G01 X55.841645 Y72.637953 Z0.000000
G01 X57.338000 Y74.144652 Z0.000000
G01 X58.834358 Y75.651348 Z0.000000
G01 X58.876322 Y81.270679 Z0.000000
G02 X58.998070 Y86.869381 Z0.000000 I196.329456 J-1.468658
G02 X59.090187 Y87.216206 Z0.000000 I0.808626 J-0.029127
G03 X59.186978 Y88.192399 Z0.000000 I-1.158269 J0.607739
G03 X58.616437 Y88.829572 Z0.000000 I-0.953767 J-0.280002
G03 X58.273760 Y88.916622 Z0.000000 I-0.465257 J-1.113503
G03 X57.983725 Y88.893261 Z0.000000 I-0.081592 J-0.799119
G01 X57.983725 Y88.893250 Z0.000000
G00 Z2.000000

(End cutting path id: path46563)


(Start cutting path id: path46563)
(Change tool to Default tool)

G00 Z2.000000
G00 X60.953642 Y88.881845

G01 Z0.000000 F100.0(Penetrate)
G03 X60.101598 Y88.389511 Z0.000000 I-0.000005 J-0.983441 F400.000000
G03 X60.040810 Y87.297998 Z0.000000 I1.051376 J-0.606002
G02 X60.138689 Y86.872115 Z0.000000 I-1.084520 J-0.473441
G02 X60.276883 Y81.423923 Z0.000000 I-183.478330 J-7.379807
G01 X60.334331 Y75.957849 Z0.000000
G01 X60.577681 Y75.617156 Z0.000000
G03 X60.847464 Y75.302108 Z0.000000 I1.908038 J1.360865
G03 X61.231617 Y74.978229 Z0.000000 I2.389505 J2.444431
G03 X61.819773 Y74.757470 Z0.000000 I0.696272 J0.961162
G03 X62.205021 Y74.889168 Z0.000000 I0.045415 J0.496471
G03 X62.362799 Y75.399121 Z0.000000 I-0.365693 J0.392529
G03 X61.892295 Y76.282999 Z0.000000 I-1.841464 J-0.413076
G01 X61.584744 Y76.608158 Z0.000000
G01 X61.631367 Y81.749074 Z0.000000
G02 X61.756302 Y86.869571 Z0.000000 I167.038744 J-1.513808
G02 X61.848853 Y87.216182 Z0.000000 I0.816918 J-0.032470
G03 X61.842679 Y88.350272 Z0.000000 I-1.072413 J0.561223
G03 X60.953642 Y88.881845 Z0.000000 I-0.889042 J-0.477663
G01 X60.953642 Y88.881845 Z0.000000
G00 Z2.000000

(End cutting path id: path46563)


(Start cutting path id: path46563)
(Change tool to Default tool)

G00 Z2.000000
G00 X60.953642 Y88.881845

G01 Z0.000000 F100.0(Penetrate)
G03 X60.101598 Y88.389511 Z0.000000 I-0.000005 J-0.983441 F400.000000
G03 X60.040810 Y87.297998 Z0.000000 I1.051376 J-0.606002
G02 X60.138689 Y86.872115 Z0.000000 I-1.084520 J-0.473441
G02 X60.276883 Y81.423923 Z0.000000 I-183.478330 J-7.379807
G01 X60.334331 Y75.957849 Z0.000000
G01 X60.577681 Y75.617156 Z0.000000
G03 X60.847464 Y75.302108 Z0.000000 I1.908038 J1.360865
G03 X61.231617 Y74.978229 Z0.000000 I2.389505 J2.444431
G03 X61.819773 Y74.757470 Z0.000000 I0.696272 J0.961162
G03 X62.205021 Y74.889168 Z0.000000 I0.045415 J0.496471
G03 X62.362799 Y75.399121 Z0.000000 I-0.365693 J0.392529
G03 X61.892295 Y76.282999 Z0.000000 I-1.841464 J-0.413076
G01 X61.584744 Y76.608158 Z0.000000
G01 X61.631367 Y81.749074 Z0.000000
G02 X61.756302 Y86.869571 Z0.000000 I167.038744 J-1.513808
G02 X61.848853 Y87.216182 Z0.000000 I0.816918 J-0.032470
G03 X61.842679 Y88.350272 Z0.000000 I-1.072413 J0.561223
G03 X60.953642 Y88.881845 Z0.000000 I-0.889042 J-0.477663
G01 X60.953642 Y88.881845 Z0.000000
G00 Z2.000000

(End cutting path id: path46563)


(Start cutting path id: path46563)
(Change tool to Default tool)

G00 Z2.000000
G00 X63.984136 Y88.862156

G01 Z0.000000 F100.0(Penetrate)
G03 X63.207570 Y88.763779 Z0.000000 I-0.258920 J-1.070358 F400.000000
G03 X62.689711 Y88.101561 Z0.000000 I0.486993 J-0.914425
G03 X62.738759 Y87.447931 Z0.000000 I1.008059 J-0.253011
G03 X63.180032 Y86.927779 Z0.000000 I1.038647 J0.433887
G03 X64.564416 Y87.169541 Z0.000000 I0.557745 J0.890753
G03 X64.479638 Y88.583077 Z0.000000 I-0.839348 J0.658970
G03 X64.238452 Y88.763800 Z0.000000 I-0.751124 J-0.751123
G03 X63.984136 Y88.862156 Z0.000000 I-0.498442 J-0.910838
G01 X63.984136 Y88.862156 Z0.000000
G00 Z2.000000

(End cutting path id: path46563)


(Start cutting path id: path46563)
(Change tool to Default tool)

G00 Z2.000000
G00 X63.984136 Y88.862156

G01 Z0.000000 F100.0(Penetrate)
G03 X63.207570 Y88.763779 Z0.000000 I-0.258920 J-1.070358 F400.000000
G03 X62.689711 Y88.101561 Z0.000000 I0.486993 J-0.914425
G03 X62.738759 Y87.447931 Z0.000000 I1.008059 J-0.253011
G03 X63.180032 Y86.927779 Z0.000000 I1.038647 J0.433887
G03 X64.564416 Y87.169541 Z0.000000 I0.557745 J0.890753
G03 X64.479638 Y88.583077 Z0.000000 I-0.839348 J0.658970
G03 X64.238452 Y88.763800 Z0.000000 I-0.751124 J-0.751123
G03 X63.984136 Y88.862156 Z0.000000 I-0.498442 J-0.910838
G01 X63.984136 Y88.862156 Z0.000000
G00 Z2.000000

(End cutting path id: path46563)


(Start cutting path id: path46563)
(Change tool to Default tool)

G00 Z2.000000
G00 X66.332767 Y97.217880

G01 Z0.000000 F100.0(Penetrate)
G03 X66.069676 Y97.127994 Z0.000000 I0.086090 J-0.681945 F400.000000
G03 X65.776685 Y96.901009 Z0.000000 I0.747561 J-1.267540
G03 X65.503873 Y96.372943 Z0.000000 I0.692007 J-0.692011
G03 X65.562321 Y95.639210 Z0.000000 I1.479255 J-0.251359
G02 X65.594340 Y95.219014 Z0.000000 I-0.802562 J-0.272471
G02 X65.431323 Y94.897767 Z0.000000 I-0.611251 J0.108194
G01 X65.149139 Y94.602641 Z0.000000
G01 X51.913962 Y94.602702 Z0.000000
G01 X38.678784 Y94.602763 Z0.000000
G01 X37.272520 Y93.199619 Z0.000000
G01 X35.866256 Y91.795957 Z0.000000
G01 X35.862627 Y90.568847 Z0.000000
G02 X35.843846 Y89.341832 Z0.000000 I-50.465326 J0.158782
G02 X35.766306 Y87.057347 Z0.000000 I-176.710863 J4.854357
G03 X35.870227 Y84.641270 Z0.000000 I14.506804 J-0.586304
G03 X36.116822 Y84.297644 Z0.000000 I0.440741 J0.055993
G03 X37.023136 Y84.303347 Z0.000000 I0.447381 J0.920860
G03 X37.428331 Y84.955203 Z0.000000 I-0.329227 J0.656510
G03 X37.423499 Y85.255034 Z0.000000 I-6.651072 J0.042777
G03 X37.303045 Y88.206785 Z0.000000 I-693.672235 J-26.828862
G01 X37.176724 Y91.158579 Z0.000000
G01 X38.179644 Y92.165632 Z0.000000
G01 X39.183083 Y93.172686 Z0.000000
G01 X52.482981 Y93.172625 Z0.000000
G01 X65.783399 Y93.172564 Z0.000000
G01 X66.459607 Y93.912968 Z0.000000
G03 X67.079476 Y94.684971 Z0.000000 I-5.784251 J5.279247
G03 X67.250243 Y95.036521 Z0.000000 I-0.996331 J0.701222
G02 X67.447022 Y95.309782 Z0.000000 I0.493415 J-0.147834
G02 X67.795454 Y95.420184 Z0.000000 I0.348429 J-0.494618
G02 X68.215677 Y95.371447 Z0.000000 I-0.000008 J-1.836107
G02 X68.713971 Y95.204270 Z0.000000 I-0.649197 J-2.761229
G03 X69.207204 Y95.070980 Z0.000000 I0.680121 J1.537515
G03 X69.594695 Y95.105891 Z0.000000 I0.108182 J0.967164
G03 X70.368170 Y96.177301 Z0.000000 I-0.311524 J1.039796
G03 X69.533091 Y97.216312 Z0.000000 I-1.103933 J-0.032167
G03 X69.267551 Y97.225507 Z0.000000 I-0.154205 J-0.614393
G03 X68.697931 Y97.067199 Z0.000000 I0.551182 J-3.087188
G02 X67.894612 Y96.918746 Z0.000000 I-0.803309 J2.099207
G02 X67.091297 Y97.067206 Z0.000000 I0.000010 J2.247644
G03 X66.617914 Y97.206362 Z0.000000 I-1.109135 J-2.898317
G03 X66.332768 Y97.217880 Z0.000000 I-0.176956 J-0.845456
G01 X66.332767 Y97.217880 Z0.000000
G00 Z2.000000

(End cutting path id: path46563)


(Start cutting path id: path46563)
(Change tool to Default tool)

G00 Z2.000000
G00 X66.332767 Y97.217880

G01 Z0.000000 F100.0(Penetrate)
G03 X66.069676 Y97.127994 Z0.000000 I0.086090 J-0.681945 F400.000000
G03 X65.776685 Y96.901009 Z0.000000 I0.747561 J-1.267540
G03 X65.503873 Y96.372943 Z0.000000 I0.692007 J-0.692011
G03 X65.562321 Y95.639210 Z0.000000 I1.479255 J-0.251359
G02 X65.594340 Y95.219014 Z0.000000 I-0.802562 J-0.272471
G02 X65.431323 Y94.897767 Z0.000000 I-0.611251 J0.108194
G01 X65.149139 Y94.602641 Z0.000000
G01 X51.913962 Y94.602702 Z0.000000
G01 X38.678784 Y94.602763 Z0.000000
G01 X37.272520 Y93.199619 Z0.000000
G01 X35.866256 Y91.795957 Z0.000000
G01 X35.862627 Y90.568847 Z0.000000
G02 X35.843846 Y89.341832 Z0.000000 I-50.465326 J0.158782
G02 X35.766306 Y87.057347 Z0.000000 I-176.710863 J4.854357
G03 X35.870227 Y84.641270 Z0.000000 I14.506804 J-0.586304
G03 X36.116822 Y84.297644 Z0.000000 I0.440741 J0.055993
G03 X37.023136 Y84.303347 Z0.000000 I0.447381 J0.920860
G03 X37.428331 Y84.955203 Z0.000000 I-0.329227 J0.656510
G03 X37.423499 Y85.255034 Z0.000000 I-6.651072 J0.042777
G03 X37.303045 Y88.206785 Z0.000000 I-693.672235 J-26.828862
G01 X37.176724 Y91.158579 Z0.000000
G01 X38.179644 Y92.165632 Z0.000000
G01 X39.183083 Y93.172686 Z0.000000
G01 X52.482981 Y93.172625 Z0.000000
G01 X65.783399 Y93.172564 Z0.000000
G01 X66.459607 Y93.912968 Z0.000000
G03 X67.079476 Y94.684971 Z0.000000 I-5.784251 J5.279247
G03 X67.250243 Y95.036521 Z0.000000 I-0.996331 J0.701222
G02 X67.447022 Y95.309782 Z0.000000 I0.493415 J-0.147834
G02 X67.795454 Y95.420184 Z0.000000 I0.348429 J-0.494618
G02 X68.215677 Y95.371447 Z0.000000 I-0.000008 J-1.836107
G02 X68.713971 Y95.204270 Z0.000000 I-0.649197 J-2.761229
G03 X69.207204 Y95.070980 Z0.000000 I0.680121 J1.537515
G03 X69.594695 Y95.105891 Z0.000000 I0.108182 J0.967164
G03 X70.368170 Y96.177301 Z0.000000 I-0.311524 J1.039796
G03 X69.533091 Y97.216312 Z0.000000 I-1.103933 J-0.032167
G03 X69.267551 Y97.225507 Z0.000000 I-0.154205 J-0.614393
G03 X68.697931 Y97.067199 Z0.000000 I0.551182 J-3.087188
G02 X67.894612 Y96.918746 Z0.000000 I-0.803309 J2.099207
G02 X67.091297 Y97.067206 Z0.000000 I0.000010 J2.247644
G03 X66.617914 Y97.206362 Z0.000000 I-1.109135 J-2.898317
G03 X66.332768 Y97.217880 Z0.000000 I-0.176956 J-0.845456
G01 X66.332767 Y97.217880 Z0.000000
G00 Z2.000000

(End cutting path id: path46563)


(Start cutting path id: path46563)
(Change tool to Default tool)

G00 Z2.000000
G00 X61.158197 Y97.213760

G01 Z0.000000 F100.0(Penetrate)
G03 X60.268297 Y96.980189 Z0.000000 I-0.198247 J-1.056717 F400.000000
G03 X59.874645 Y96.135256 Z0.000000 I0.709964 J-0.844938
G03 X60.049051 Y95.555822 Z0.000000 I1.049725 J-0.000005
G03 X60.519781 Y95.160814 Z0.000000 I0.902313 J0.597298
G03 X60.994130 Y95.061670 Z0.000000 I0.476536 J1.095639
G03 X61.396878 Y95.159246 Z0.000000 I0.001599 J0.873366
G03 X62.006172 Y96.304366 Z0.000000 I-0.524106 J1.013522
G03 X61.158197 Y97.213750 Z0.000000 I-1.041263 J-0.120900
G01 X61.158197 Y97.213760 Z0.000000
G00 Z2.000000

(End cutting path id: path46563)


(Start cutting path id: path46563)
(Change tool to Default tool)

G00 Z2.000000
G00 X61.158197 Y97.213760

G01 Z0.000000 F100.0(Penetrate)
G03 X60.268297 Y96.980189 Z0.000000 I-0.198247 J-1.056717 F400.000000
G03 X59.874645 Y96.135256 Z0.000000 I0.709964 J-0.844938
G03 X60.049051 Y95.555822 Z0.000000 I1.049725 J-0.000005
G03 X60.519781 Y95.160814 Z0.000000 I0.902313 J0.597298
G03 X60.994130 Y95.061670 Z0.000000 I0.476536 J1.095639
G03 X61.396878 Y95.159246 Z0.000000 I0.001599 J0.873366
G03 X62.006172 Y96.304366 Z0.000000 I-0.524106 J1.013522
G03 X61.158197 Y97.213750 Z0.000000 I-1.041263 J-0.120900
G01 X61.158197 Y97.213760 Z0.000000
G00 Z2.000000

(End cutting path id: path46563)


(Start cutting path id: path46563)
(Change tool to Default tool)

G00 Z2.000000
G00 X58.399531 Y97.213243

G01 Z0.000000 F100.0(Penetrate)
G03 X57.509999 Y96.979797 Z0.000000 I-0.198176 J-1.056340 F400.000000
G03 X57.116498 Y96.135256 Z0.000000 I0.709547 J-0.844545
G03 X57.291167 Y95.555541 Z0.000000 I1.049340 J-0.000005
G03 X57.761632 Y95.161850 Z0.000000 I0.898006 J0.595175
G03 X58.766473 Y95.266835 Z0.000000 I0.409057 J0.946112
G03 X59.261609 Y96.224303 Z0.000000 I-0.678195 J0.957473
G03 X59.025178 Y96.855326 Z0.000000 I-0.960291 J0.000004
G03 X58.399531 Y97.213243 Z0.000000 I-0.828249 J-0.722020
G01 X58.399531 Y97.213243 Z0.000000
G00 Z2.000000

(End cutting path id: path46563)


(Start cutting path id: path46563)
(Change tool to Default tool)

G00 Z2.000000
G00 X58.399531 Y97.213243

G01 Z0.000000 F100.0(Penetrate)
G03 X57.509999 Y96.979797 Z0.000000 I-0.198176 J-1.056340 F400.000000
G03 X57.116498 Y96.135256 Z0.000000 I0.709547 J-0.844545
G03 X57.291167 Y95.555541 Z0.000000 I1.049340 J-0.000005
G03 X57.761632 Y95.161850 Z0.000000 I0.898006 J0.595175
G03 X58.766473 Y95.266835 Z0.000000 I0.409057 J0.946112
G03 X59.261609 Y96.224303 Z0.000000 I-0.678195 J0.957473
G03 X59.025178 Y96.855326 Z0.000000 I-0.960291 J0.000004
G03 X58.399531 Y97.213243 Z0.000000 I-0.828249 J-0.722020
G01 X58.399531 Y97.213243 Z0.000000
G00 Z2.000000

(End cutting path id: path46563)


(Start cutting path id: path46563)
(Change tool to Default tool)

G00 Z2.000000
G00 X52.648685 Y97.230888

G01 Z0.000000 F100.0(Penetrate)
G03 X52.478731 Y97.206566 Z0.000000 I-0.015324 J-0.498882 F400.000000
G03 X52.190461 Y97.098859 Z0.000000 I1.119810 J-3.436706
G02 X51.735123 Y97.000038 Z0.000000 I-0.489613 J1.157553
G02 X43.853882 Y96.871597 Z0.000000 I-9.789996 J358.858504
G01 X35.955335 Y96.829695 Z0.000000
G01 X35.170396 Y96.132783 Z0.000000
G03 X34.405822 Y95.415532 Z0.000000 I12.663148 J-14.264804
G03 X33.899789 Y94.873060 Z0.000000 I6.665899 J-6.725386
G01 X33.414638 Y94.310248 Z0.000000
G01 X33.414596 Y85.350796 Z0.000000
G01 X33.414555 Y76.391863 Z0.000000
G01 X34.385883 Y75.379622 Z0.000000
G02 X35.329727 Y74.345609 Z0.000000 I-20.157485 J-19.347462
G02 X35.607808 Y73.971289 Z0.000000 I-2.323903 J-2.016872
G03 X35.882879 Y73.598415 Z0.000000 I2.704806 J1.707452
G03 X36.091918 Y73.406402 Z0.000000 I0.902431 J0.772657
G03 X37.010488 Y73.356615 Z0.000000 I0.498201 J0.693113
G03 X37.497662 Y74.201686 Z0.000000 I-0.472770 J0.835507
G03 X37.372841 Y74.588679 Z0.000000 I-0.683454 J-0.006815
G03 X36.836994 Y75.138850 Z0.000000 I-1.992560 J-1.404651
G02 X36.442546 Y75.460081 Z0.000000 I3.532038 J4.739872
G02 X35.585555 Y76.251020 Z0.000000 I20.552970 J23.129126
G01 X34.742632 Y77.059260 Z0.000000
G01 X34.742671 Y85.398943 Z0.000000
G01 X34.742709 Y93.739145 Z0.000000
G01 X35.590816 Y94.582584 Z0.000000
G01 X36.438924 Y95.426542 Z0.000000
G01 X44.146932 Y95.397511 Z0.000000
G02 X51.835318 Y95.281118 Z0.000000 I-1.253608 J-336.794466
G02 X52.254137 Y95.182083 Z0.000000 I-0.027979 J-1.053429
G03 X52.656813 Y95.098281 Z0.000000 I0.378168 J0.807786
G03 X53.207866 Y95.207968 Z0.000000 I-0.045895 J1.669621
G02 X54.028847 Y95.361325 Z0.000000 I0.829950 J-2.168857
G02 X54.898377 Y95.214691 Z0.000000 I0.010011 J-2.592082
G03 X55.480453 Y95.093461 Z0.000000 I0.745288 J2.120440
G03 X55.814308 Y95.147895 Z0.000000 I0.052901 J0.726576
G03 X56.256098 Y95.500736 Z0.000000 I-0.397283 J0.950437
G03 X56.477572 Y96.079355 Z0.000000 I-1.006829 J0.717072
G03 X56.433056 Y96.500712 Z0.000000 I-0.975539 J0.109966
G03 X56.222833 Y96.840475 Z0.000000 I-0.826376 J-0.276390
G03 X55.602977 Y97.158376 Z0.000000 I-0.803559 J-0.803553
G03 X54.829521 Y97.068817 Z0.000000 I-0.229609 J-1.401701
G02 X54.071901 Y96.917646 Z0.000000 I-0.759558 J1.832604
G02 X53.222370 Y97.067260 Z0.000000 I-0.002416 J2.472969
G03 X52.823503 Y97.201669 Z0.000000 I-2.928736 J-8.032205
G03 X52.648685 Y97.230877 Z0.000000 I-0.195048 J-0.629629
G01 X52.648685 Y97.230888 Z0.000000
G00 Z2.000000

(End cutting path id: path46563)


(Start cutting path id: path46563)
(Change tool to Default tool)

G00 Z2.000000
G00 X52.648685 Y97.230888

G01 Z0.000000 F100.0(Penetrate)
G03 X52.478731 Y97.206566 Z0.000000 I-0.015324 J-0.498882 F400.000000
G03 X52.190461 Y97.098859 Z0.000000 I1.119810 J-3.436706
G02 X51.735123 Y97.000038 Z0.000000 I-0.489613 J1.157553
G02 X43.853882 Y96.871597 Z0.000000 I-9.789996 J358.858504
G01 X35.955335 Y96.829695 Z0.000000
G01 X35.170396 Y96.132783 Z0.000000
G03 X34.405822 Y95.415532 Z0.000000 I12.663148 J-14.264804
G03 X33.899789 Y94.873060 Z0.000000 I6.665899 J-6.725386
G01 X33.414638 Y94.310248 Z0.000000
G01 X33.414596 Y85.350796 Z0.000000
G01 X33.414555 Y76.391863 Z0.000000
G01 X34.385883 Y75.379622 Z0.000000
G02 X35.329727 Y74.345609 Z0.000000 I-20.157485 J-19.347462
G02 X35.607808 Y73.971289 Z0.000000 I-2.323903 J-2.016872
G03 X35.882879 Y73.598415 Z0.000000 I2.704806 J1.707452
G03 X36.091918 Y73.406402 Z0.000000 I0.902431 J0.772657
G03 X37.010488 Y73.356615 Z0.000000 I0.498201 J0.693113
G03 X37.497662 Y74.201686 Z0.000000 I-0.472770 J0.835507
G03 X37.372841 Y74.588679 Z0.000000 I-0.683454 J-0.006815
G03 X36.836994 Y75.138850 Z0.000000 I-1.992560 J-1.404651
G02 X36.442546 Y75.460081 Z0.000000 I3.532038 J4.739872
G02 X35.585555 Y76.251020 Z0.000000 I20.552970 J23.129126
G01 X34.742632 Y77.059260 Z0.000000
G01 X34.742671 Y85.398943 Z0.000000
G01 X34.742709 Y93.739145 Z0.000000
G01 X35.590816 Y94.582584 Z0.000000
G01 X36.438924 Y95.426542 Z0.000000
G01 X44.146932 Y95.397511 Z0.000000
G02 X51.835318 Y95.281118 Z0.000000 I-1.253608 J-336.794466
G02 X52.254137 Y95.182083 Z0.000000 I-0.027979 J-1.053429
G03 X52.656813 Y95.098281 Z0.000000 I0.378168 J0.807786
G03 X53.207866 Y95.207968 Z0.000000 I-0.045895 J1.669621
G02 X54.028847 Y95.361325 Z0.000000 I0.829950 J-2.168857
G02 X54.898377 Y95.214691 Z0.000000 I0.010011 J-2.592082
G03 X55.480453 Y95.093461 Z0.000000 I0.745288 J2.120440
G03 X55.814308 Y95.147895 Z0.000000 I0.052901 J0.726576
G03 X56.256098 Y95.500736 Z0.000000 I-0.397283 J0.950437
G03 X56.477572 Y96.079355 Z0.000000 I-1.006829 J0.717072
G03 X56.433056 Y96.500712 Z0.000000 I-0.975539 J0.109966
G03 X56.222833 Y96.840475 Z0.000000 I-0.826376 J-0.276390
G03 X55.602977 Y97.158376 Z0.000000 I-0.803559 J-0.803553
G03 X54.829521 Y97.068817 Z0.000000 I-0.229609 J-1.401701
G02 X54.071901 Y96.917646 Z0.000000 I-0.759558 J1.832604
G02 X53.222370 Y97.067260 Z0.000000 I-0.002416 J2.472969
G03 X52.823503 Y97.201669 Z0.000000 I-2.928736 J-8.032205
G03 X52.648685 Y97.230877 Z0.000000 I-0.195048 J-0.629629
G01 X52.648685 Y97.230888 Z0.000000
G00 Z2.000000

(End cutting path id: path46563)


(Start cutting path id: path46563)
(Change tool to Default tool)

G00 Z2.000000
G00 X52.711246 Y77.849301

G01 Z0.000000 F100.0(Penetrate)
G03 X52.423092 Y77.773932 Z0.000000 I0.063276 J-0.830438 F400.000000
G03 X52.102349 Y77.549517 Z0.000000 I0.474643 J-1.019798
G03 X51.856150 Y77.229261 Z0.000000 I1.101511 J-1.101557
G03 X51.803595 Y77.033822 Z0.000000 I0.337127 J-0.195441
G03 X51.941282 Y76.481258 Z0.000000 I1.177596 J-0.000005
G03 X52.289257 Y76.119442 Z0.000000 I0.809122 J0.429929
G03 X53.075168 Y76.016977 Z0.000000 I0.514888 J0.883997
G03 X53.579019 Y76.473590 Z0.000000 I-0.199619 J0.726564
G03 X53.431886 Y77.523262 Z0.000000 I-1.021452 J0.391971
G03 X52.711246 Y77.849301 Z0.000000 I-0.658027 J-0.494997
G01 X52.711246 Y77.849301 Z0.000000
G00 Z2.000000

(End cutting path id: path46563)


(Start cutting path id: path46563)
(Change tool to Default tool)

G00 Z2.000000
G00 X52.711246 Y77.849301

G01 Z0.000000 F100.0(Penetrate)
G03 X52.423092 Y77.773932 Z0.000000 I0.063276 J-0.830438 F400.000000
G03 X52.102349 Y77.549517 Z0.000000 I0.474643 J-1.019798
G03 X51.856150 Y77.229261 Z0.000000 I1.101511 J-1.101557
G03 X51.803595 Y77.033822 Z0.000000 I0.337127 J-0.195441
G03 X51.941282 Y76.481258 Z0.000000 I1.177596 J-0.000005
G03 X52.289257 Y76.119442 Z0.000000 I0.809122 J0.429929
G03 X53.075168 Y76.016977 Z0.000000 I0.514888 J0.883997
G03 X53.579019 Y76.473590 Z0.000000 I-0.199619 J0.726564
G03 X53.431886 Y77.523262 Z0.000000 I-1.021452 J0.391971
G03 X52.711246 Y77.849301 Z0.000000 I-0.658027 J-0.494997
G01 X52.711246 Y77.849301 Z0.000000
G00 Z2.000000

(End cutting path id: path46563)


(Start cutting path id: path46563)
(Change tool to Default tool)

G00 Z2.000000
G00 X55.877359 Y69.837858

G01 Z0.000000 F100.0(Penetrate)
G03 X55.689155 Y69.852168 Z0.000000 I-0.167711 J-0.960886 F400.000000
G03 X55.473499 Y69.826460 Z0.000000 I0.023403 J-1.113704
G03 X54.895368 Y69.462687 Z0.000000 I0.216381 J-0.985175
G03 X54.664225 Y68.791965 Z0.000000 I0.857580 J-0.670727
G03 X54.808689 Y68.242996 Z0.000000 I1.115260 J-0.000005
G03 X55.207359 Y67.830986 Z0.000000 I0.991902 J0.560899
G03 X55.737078 Y67.682340 Z0.000000 I0.529218 J0.867755
G03 X56.267748 Y67.831511 Z0.000000 I-0.000503 J1.020289
G03 X56.751429 Y69.036784 Z0.000000 I-0.564833 J0.926358
G03 X55.877359 Y69.837863 Z0.000000 I-1.063372 J-0.282868
G01 X55.877359 Y69.837858 Z0.000000
G00 Z2.000000

(End cutting path id: path46563)


(Start cutting path id: path46563)
(Change tool to Default tool)

G00 Z2.000000
G00 X55.877359 Y69.837858

G01 Z0.000000 F100.0(Penetrate)
G03 X55.689155 Y69.852168 Z0.000000 I-0.167711 J-0.960886 F400.000000
G03 X55.473499 Y69.826460 Z0.000000 I0.023403 J-1.113704
G03 X54.895368 Y69.462687 Z0.000000 I0.216381 J-0.985175
G03 X54.664225 Y68.791965 Z0.000000 I0.857580 J-0.670727
G03 X54.808689 Y68.242996 Z0.000000 I1.115260 J-0.000005
G03 X55.207359 Y67.830986 Z0.000000 I0.991902 J0.560899
G03 X55.737078 Y67.682340 Z0.000000 I0.529218 J0.867755
G03 X56.267748 Y67.831511 Z0.000000 I-0.000503 J1.020289
G03 X56.751429 Y69.036784 Z0.000000 I-0.564833 J0.926358
G03 X55.877359 Y69.837863 Z0.000000 I-1.063372 J-0.282868
G01 X55.877359 Y69.837858 Z0.000000
G00 Z2.000000

(End cutting path id: path46563)


(Start cutting path id: path46563)
(Change tool to Default tool)

G00 Z2.000000
G00 X58.190227 Y69.783929

G01 Z0.000000 F100.0(Penetrate)
G03 X57.676145 Y69.448083 Z0.000000 I0.303930 J-1.026605 F400.000000
G03 X57.422891 Y68.755645 Z0.000000 I0.820006 J-0.692443
G03 X57.607996 Y68.120632 Z0.000000 I1.181757 J-0.000005
G03 X58.075272 Y67.732015 Z0.000000 I0.840731 J0.535664
G03 X58.833796 Y67.724362 Z0.000000 I0.389015 J0.962785
G03 X59.413187 Y68.241493 Z0.000000 I-0.387238 J1.016998
G03 X59.535242 Y68.788923 Z0.000000 I-0.976731 J0.505094
G03 X59.371254 Y69.332429 Z0.000000 I-1.126519 J-0.043405
G03 X58.800018 Y69.779034 Z0.000000 I-0.879459 J-0.536256
G03 X58.190227 Y69.783929 Z0.000000 I-0.312924 J-0.997852
G01 X58.190227 Y69.783929 Z0.000000
G00 Z2.000000

(End cutting path id: path46563)


(Start cutting path id: path46563)
(Change tool to Default tool)

G00 Z2.000000
G00 X58.190227 Y69.783929

G01 Z0.000000 F100.0(Penetrate)
G03 X57.676145 Y69.448083 Z0.000000 I0.303930 J-1.026605 F400.000000
G03 X57.422891 Y68.755645 Z0.000000 I0.820006 J-0.692443
G03 X57.607996 Y68.120632 Z0.000000 I1.181757 J-0.000005
G03 X58.075272 Y67.732015 Z0.000000 I0.840731 J0.535664
G03 X58.833796 Y67.724362 Z0.000000 I0.389015 J0.962785
G03 X59.413187 Y68.241493 Z0.000000 I-0.387238 J1.016998
G03 X59.535242 Y68.788923 Z0.000000 I-0.976731 J0.505094
G03 X59.371254 Y69.332429 Z0.000000 I-1.126519 J-0.043405
G03 X58.800018 Y69.779034 Z0.000000 I-0.879459 J-0.536256
G03 X58.190227 Y69.783929 Z0.000000 I-0.312924 J-0.997852
G01 X58.190227 Y69.783929 Z0.000000
G00 Z2.000000

(End cutting path id: path46563)


(Start cutting path id: path46563)
(Change tool to Default tool)

G00 Z2.000000
G00 X61.076265 Y69.779780

G01 Z0.000000 F100.0(Penetrate)
G03 X60.437561 Y69.448056 Z0.000000 I0.200128 J-1.166072 F400.000000
G03 X60.181558 Y68.826575 Z0.000000 I0.623732 J-0.620398
G03 X60.373258 Y68.122209 Z0.000000 I1.396623 J0.001835
G03 X60.820476 Y67.736670 Z0.000000 I0.787877 J0.461772
G03 X61.198210 Y67.673037 Z0.000000 I0.334298 J0.831486
G03 X61.658742 Y67.777051 Z0.000000 I-0.066224 J1.364750
G03 X62.144970 Y68.177279 Z0.000000 I-0.420430 J1.006240
G03 X62.326150 Y68.775823 Z0.000000 I-0.893335 J0.597107
G03 X62.117177 Y69.400857 Z0.000000 I-1.043409 J-0.001400
G03 X61.589890 Y69.756478 Z0.000000 I-0.776948 J-0.583277
G03 X61.324894 Y69.796227 Z0.000000 I-0.310788 J-1.168758
G03 X61.076265 Y69.779783 Z0.000000 I-0.045478 J-1.200225
G01 X61.076265 Y69.779780 Z0.000000
G00 Z2.000000

(End cutting path id: path46563)


(Start cutting path id: path46563)
(Change tool to Default tool)

G00 Z2.000000
G00 X61.076265 Y69.779780

G01 Z0.000000 F100.0(Penetrate)
G03 X60.437561 Y69.448056 Z0.000000 I0.200128 J-1.166072 F400.000000
G03 X60.181558 Y68.826575 Z0.000000 I0.623732 J-0.620398
G03 X60.373258 Y68.122209 Z0.000000 I1.396623 J0.001835
G03 X60.820476 Y67.736670 Z0.000000 I0.787877 J0.461772
G03 X61.198210 Y67.673037 Z0.000000 I0.334298 J0.831486
G03 X61.658742 Y67.777051 Z0.000000 I-0.066224 J1.364750
G03 X62.144970 Y68.177279 Z0.000000 I-0.420430 J1.006240
G03 X62.326150 Y68.775823 Z0.000000 I-0.893335 J0.597107
G03 X62.117177 Y69.400857 Z0.000000 I-1.043409 J-0.001400
G03 X61.589890 Y69.756478 Z0.000000 I-0.776948 J-0.583277
G03 X61.324894 Y69.796227 Z0.000000 I-0.310788 J-1.168758
G03 X61.076265 Y69.779783 Z0.000000 I-0.045478 J-1.200225
G01 X61.076265 Y69.779780 Z0.000000
G00 Z2.000000

(End cutting path id: path46563)


(Start cutting path id: path46563)
(Change tool to Default tool)

G00 Z2.000000
G00 X63.902759 Y69.847656

G01 Z0.000000 F100.0(Penetrate)
G03 X63.761114 Y69.817689 Z0.000000 I0.042360 J-0.549961 F400.000000
G03 X63.570867 Y69.735301 Z0.000000 I0.504724 J-1.426341
G03 X62.946412 Y68.690392 Z0.000000 I0.530653 J-1.026174
G03 X63.603478 Y67.728434 Z0.000000 I1.057814 J0.017157
G03 X63.955598 Y67.669923 Z0.000000 I0.304572 J0.744123
G03 X64.416375 Y67.776583 Z0.000000 I-0.083485 J1.409279
G03 X64.925964 Y68.221854 Z0.000000 I-0.411737 J0.985445
G03 X65.055823 Y68.867515 Z0.000000 I-0.872047 J0.511281
G03 X64.798336 Y69.443597 Z0.000000 I-1.104676 J-0.148164
G03 X64.267784 Y69.789147 Z0.000000 I-0.852422 J-0.728719
G03 X64.048123 Y69.840815 Z0.000000 I-0.539359 J-1.800256
G03 X63.902759 Y69.847656 Z0.000000 I-0.100141 J-0.580089
G01 X63.902759 Y69.847656 Z0.000000
G00 Z2.000000

(End cutting path id: path46563)


(Start cutting path id: path46563)
(Change tool to Default tool)

G00 Z2.000000
G00 X63.902759 Y69.847656

G01 Z0.000000 F100.0(Penetrate)
G03 X63.761114 Y69.817689 Z0.000000 I0.042360 J-0.549961 F400.000000
G03 X63.570867 Y69.735301 Z0.000000 I0.504724 J-1.426341
G03 X62.946412 Y68.690392 Z0.000000 I0.530653 J-1.026174
G03 X63.603478 Y67.728434 Z0.000000 I1.057814 J0.017157
G03 X63.955598 Y67.669923 Z0.000000 I0.304572 J0.744123
G03 X64.416375 Y67.776583 Z0.000000 I-0.083485 J1.409279
G03 X64.925964 Y68.221854 Z0.000000 I-0.411737 J0.985445
G03 X65.055823 Y68.867515 Z0.000000 I-0.872047 J0.511281
G03 X64.798336 Y69.443597 Z0.000000 I-1.104676 J-0.148164
G03 X64.267784 Y69.789147 Z0.000000 I-0.852422 J-0.728719
G03 X64.048123 Y69.840815 Z0.000000 I-0.539359 J-1.800256
G03 X63.902759 Y69.847656 Z0.000000 I-0.100141 J-0.580089
G01 X63.902759 Y69.847656 Z0.000000
G00 Z2.000000

(End cutting path id: path46563)


(Start cutting path id: path46563)
(Change tool to Default tool)

G00 Z2.000000
G00 X66.598255 Y69.798895

G01 Z0.000000 F100.0(Penetrate)
G03 X65.965928 Y69.440354 Z0.000000 I0.246016 J-1.170737 F400.000000
G03 X65.697853 Y68.755596 Z0.000000 I0.740531 J-0.684762
G03 X65.872258 Y68.176170 Z0.000000 I1.049704 J-0.000005
G03 X66.342986 Y67.781155 Z0.000000 I0.902364 J0.597337
G03 X66.756845 Y67.693116 Z0.000000 I0.423359 J0.973393
G03 X67.169344 Y67.773914 Z0.000000 I0.009359 J1.045594
G03 X67.662358 Y68.176300 Z0.000000 I-0.430801 J1.031048
G03 X67.843483 Y68.764401 Z0.000000 I-0.864218 J0.588106
G03 X67.638400 Y69.375927 Z0.000000 I-1.014269 J0.000005
G03 X67.079263 Y69.776123 Z0.000000 I-0.920904 J-0.695950
G03 X66.838204 Y69.819413 Z0.000000 I-0.272921 J-0.826945
G03 X66.598255 Y69.798897 Z0.000000 I-0.036235 J-0.989654
G01 X66.598255 Y69.798895 Z0.000000
G00 Z2.000000

(End cutting path id: path46563)


(Start cutting path id: path46563)
(Change tool to Default tool)

G00 Z2.000000
G00 X66.598255 Y69.798895

G01 Z0.000000 F100.0(Penetrate)
G03 X65.965928 Y69.440354 Z0.000000 I0.246016 J-1.170737 F400.000000
G03 X65.697853 Y68.755596 Z0.000000 I0.740531 J-0.684762
G03 X65.872258 Y68.176170 Z0.000000 I1.049704 J-0.000005
G03 X66.342986 Y67.781155 Z0.000000 I0.902364 J0.597337
G03 X66.756845 Y67.693116 Z0.000000 I0.423359 J0.973393
G03 X67.169344 Y67.773914 Z0.000000 I0.009359 J1.045594
G03 X67.662358 Y68.176300 Z0.000000 I-0.430801 J1.031048
G03 X67.843483 Y68.764401 Z0.000000 I-0.864218 J0.588106
G03 X67.638400 Y69.375927 Z0.000000 I-1.014269 J0.000005
G03 X67.079263 Y69.776123 Z0.000000 I-0.920904 J-0.695950
G03 X66.838204 Y69.819413 Z0.000000 I-0.272921 J-0.826945
G03 X66.598255 Y69.798897 Z0.000000 I-0.036235 J-0.989654
G01 X66.598255 Y69.798895 Z0.000000
G00 Z2.000000

(End cutting path id: path46563)


(Start cutting path id: path46563)
(Change tool to Default tool)

G00 Z2.000000
G00 X69.755087 Y69.832094

G01 Z0.000000 F100.0(Penetrate)
G03 X68.861089 Y69.639261 Z0.000000 I-0.251586 J-1.002371 F400.000000
G03 X68.456520 Y68.801742 Z0.000000 I0.664620 J-0.837524
G03 X68.637788 Y68.181292 Z0.000000 I1.152463 J-0.000005
G03 X69.112010 Y67.776558 Z0.000000 I0.901181 J0.575716
G03 X69.514956 Y67.691961 Z0.000000 I0.406495 J0.934243
G03 X69.927494 Y67.773904 Z0.000000 I0.003695 J1.060819
G03 X70.576610 Y68.548269 Z0.000000 I-0.423924 J1.014603
G03 X70.308061 Y69.473216 Z0.000000 I-0.975176 J0.218327
G03 X69.993053 Y69.728330 Z0.000000 I-1.371536 J-1.371501
G03 X69.755087 Y69.832033 Z0.000000 I-0.430246 J-0.662400
G01 X69.755087 Y69.832094 Z0.000000
G00 Z2.000000

(End cutting path id: path46563)


(Start cutting path id: path46563)
(Change tool to Default tool)

G00 Z2.000000
G00 X69.755087 Y69.832094

G01 Z0.000000 F100.0(Penetrate)
G03 X68.861089 Y69.639261 Z0.000000 I-0.251586 J-1.002371 F400.000000
G03 X68.456520 Y68.801742 Z0.000000 I0.664620 J-0.837524
G03 X68.637788 Y68.181292 Z0.000000 I1.152463 J-0.000005
G03 X69.112010 Y67.776558 Z0.000000 I0.901181 J0.575716
G03 X69.514956 Y67.691961 Z0.000000 I0.406495 J0.934243
G03 X69.927494 Y67.773904 Z0.000000 I0.003695 J1.060819
G03 X70.576610 Y68.548269 Z0.000000 I-0.423924 J1.014603
G03 X70.308061 Y69.473216 Z0.000000 I-0.975176 J0.218327
G03 X69.993053 Y69.728330 Z0.000000 I-1.371536 J-1.371501
G03 X69.755087 Y69.832033 Z0.000000 I-0.430246 J-0.662400
G01 X69.755087 Y69.832094 Z0.000000
G00 Z2.000000

(End cutting path id: path46563)


(Start cutting path id: path46563)
(Change tool to Default tool)

G00 Z2.000000
G00 X72.525661 Y69.829961

G01 Z0.000000 F100.0(Penetrate)
G03 X71.633591 Y69.618709 Z0.000000 I-0.240513 J-0.973502 F400.000000
G03 X71.214669 Y68.709518 Z0.000000 I0.777164 J-0.909197
G03 X71.383018 Y68.172195 Z0.000000 I0.941652 J-0.000004
G03 X71.859802 Y67.781158 Z0.000000 I0.927045 J0.644146
G03 X72.334295 Y67.683297 Z0.000000 I0.470400 J1.081544
G03 X72.746220 Y67.784256 Z0.000000 I-0.003136 J0.903629
G03 X73.342795 Y68.894588 Z0.000000 I-0.512300 J0.990690
G03 X72.525661 Y69.829955 Z0.000000 I-1.076929 J-0.116196
G01 X72.525661 Y69.829961 Z0.000000
G00 Z2.000000

(End cutting path id: path46563)


(Start cutting path id: path46563)
(Change tool to Default tool)

G00 Z2.000000
G00 X72.525661 Y69.829961

G01 Z0.000000 F100.0(Penetrate)
G03 X71.633591 Y69.618709 Z0.000000 I-0.240513 J-0.973502 F400.000000
G03 X71.214669 Y68.709518 Z0.000000 I0.777164 J-0.909197
G03 X71.383018 Y68.172195 Z0.000000 I0.941652 J-0.000004
G03 X71.859802 Y67.781158 Z0.000000 I0.927045 J0.644146
G03 X72.334295 Y67.683297 Z0.000000 I0.470400 J1.081544
G03 X72.746220 Y67.784256 Z0.000000 I-0.003136 J0.903629
G03 X73.342795 Y68.894588 Z0.000000 I-0.512300 J0.990690
G03 X72.525661 Y69.829955 Z0.000000 I-1.076929 J-0.116196
G01 X72.525661 Y69.829961 Z0.000000
G00 Z2.000000

(End cutting path id: path46563)


(Start cutting path id: path46563)
(Change tool to Default tool)

G00 Z2.000000
G00 X75.184399 Y69.829418

G01 Z0.000000 F100.0(Penetrate)
G03 X74.613605 Y69.755579 Z0.000000 I-0.190226 J-0.772615 F400.000000
G03 X74.117277 Y69.248487 Z0.000000 I0.579028 J-1.063177
G03 X74.050804 Y68.350265 Z0.000000 I1.019064 J-0.526987
G03 X74.637107 Y67.728320 Z0.000000 I0.977716 J0.334362
G03 X75.627277 Y67.853838 Z0.000000 I0.384085 J0.938401
G03 X76.118445 Y68.832713 Z0.000000 I-0.729853 J0.978880
G03 X75.886956 Y69.418182 Z0.000000 I-0.856104 J0.000004
G03 X75.184399 Y69.829418 Z0.000000 I-1.044953 J-0.979458
G01 X75.184399 Y69.829418 Z0.000000
G00 Z2.000000

(End cutting path id: path46563)


(Start cutting path id: path46563)
(Change tool to Default tool)

G00 Z2.000000
G00 X75.184399 Y69.829418

G01 Z0.000000 F100.0(Penetrate)
G03 X74.613605 Y69.755579 Z0.000000 I-0.190226 J-0.772615 F400.000000
G03 X74.117277 Y69.248487 Z0.000000 I0.579028 J-1.063177
G03 X74.050804 Y68.350265 Z0.000000 I1.019064 J-0.526987
G03 X74.637107 Y67.728320 Z0.000000 I0.977716 J0.334362
G03 X75.627277 Y67.853838 Z0.000000 I0.384085 J0.938401
G03 X76.118445 Y68.832713 Z0.000000 I-0.729853 J0.978880
G03 X75.886956 Y69.418182 Z0.000000 I-0.856104 J0.000004
G03 X75.184399 Y69.829418 Z0.000000 I-1.044953 J-0.979458
G01 X75.184399 Y69.829418 Z0.000000
G00 Z2.000000

(End cutting path id: path46563)


(Start cutting path id: path46563)
(Change tool to Default tool)

G00 Z2.000000
G00 X80.390035 Y69.798831

G01 Z0.000000 F100.0(Penetrate)
G03 X79.757706 Y69.440289 Z0.000000 I0.246016 J-1.170741 F400.000000
G03 X79.489631 Y68.755533 Z0.000000 I0.740529 J-0.684761
G03 X79.664035 Y68.176103 Z0.000000 I1.049717 J-0.000005
G03 X80.134764 Y67.781091 Z0.000000 I0.902337 J0.597314
G03 X80.548623 Y67.693053 Z0.000000 I0.423359 J0.973393
G03 X80.961122 Y67.773850 Z0.000000 I0.009359 J1.045594
G03 X81.454136 Y68.176236 Z0.000000 I-0.430801 J1.031048
G03 X81.635260 Y68.764337 Z0.000000 I-0.864218 J0.588106
G03 X81.430388 Y69.375834 Z0.000000 I-1.015012 J0.000005
G03 X80.871558 Y69.776060 Z0.000000 I-0.920134 J-0.694516
G03 X80.630239 Y69.819384 Z0.000000 I-0.273117 J-0.827538
G03 X80.390035 Y69.798834 Z0.000000 I-0.036189 J-0.991102
G01 X80.390035 Y69.798831 Z0.000000
G00 Z2.000000

(End cutting path id: path46563)


(Start cutting path id: path46563)
(Change tool to Default tool)

G00 Z2.000000
G00 X80.390035 Y69.798831

G01 Z0.000000 F100.0(Penetrate)
G03 X79.757706 Y69.440289 Z0.000000 I0.246016 J-1.170741 F400.000000
G03 X79.489631 Y68.755533 Z0.000000 I0.740529 J-0.684761
G03 X79.664035 Y68.176103 Z0.000000 I1.049717 J-0.000005
G03 X80.134764 Y67.781091 Z0.000000 I0.902337 J0.597314
G03 X80.548623 Y67.693053 Z0.000000 I0.423359 J0.973393
G03 X80.961122 Y67.773850 Z0.000000 I0.009359 J1.045594
G03 X81.454136 Y68.176236 Z0.000000 I-0.430801 J1.031048
G03 X81.635260 Y68.764337 Z0.000000 I-0.864218 J0.588106
G03 X81.430388 Y69.375834 Z0.000000 I-1.015012 J0.000005
G03 X80.871558 Y69.776060 Z0.000000 I-0.920134 J-0.694516
G03 X80.630239 Y69.819384 Z0.000000 I-0.273117 J-0.827538
G03 X80.390035 Y69.798834 Z0.000000 I-0.036189 J-0.991102
G01 X80.390035 Y69.798831 Z0.000000
G00 Z2.000000

(End cutting path id: path46563)


(Start cutting path id: path46563)
(Change tool to Default tool)

G00 Z2.000000
G00 X83.205655 Y69.823207

G01 Z0.000000 F100.0(Penetrate)
G03 X82.765664 Y69.638766 Z0.000000 I0.151357 J-0.978097 F400.000000
G03 X82.394310 Y69.185841 Z0.000000 I0.725185 J-0.973280
G03 X82.348729 Y68.398067 Z0.000000 I0.948476 J-0.450084
G03 X82.861330 Y67.810648 Z0.000000 I0.970806 J0.329791
G03 X83.353245 Y67.687089 Z0.000000 I0.525923 J1.052832
G03 X83.779332 Y67.784240 Z0.000000 I0.025219 J0.872348
G03 X84.362069 Y68.547841 Z0.000000 I-0.516081 J0.998001
G03 X84.135564 Y69.455073 Z0.000000 I-1.040834 J0.222030
G03 X83.676238 Y69.776716 Z0.000000 I-0.833223 J-0.701100
G03 X83.205655 Y69.823210 Z0.000000 I-0.325576 J-0.890566
G01 X83.205655 Y69.823207 Z0.000000
G00 Z2.000000

(End cutting path id: path46563)


(Start cutting path id: path46563)
(Change tool to Default tool)

G00 Z2.000000
G00 X83.205655 Y69.823207

G01 Z0.000000 F100.0(Penetrate)
G03 X82.765664 Y69.638766 Z0.000000 I0.151357 J-0.978097 F400.000000
G03 X82.394310 Y69.185841 Z0.000000 I0.725185 J-0.973280
G03 X82.348729 Y68.398067 Z0.000000 I0.948476 J-0.450084
G03 X82.861330 Y67.810648 Z0.000000 I0.970806 J0.329791
G03 X83.353245 Y67.687089 Z0.000000 I0.525923 J1.052832
G03 X83.779332 Y67.784240 Z0.000000 I0.025219 J0.872348
G03 X84.362069 Y68.547841 Z0.000000 I-0.516081 J0.998001
G03 X84.135564 Y69.455073 Z0.000000 I-1.040834 J0.222030
G03 X83.676238 Y69.776716 Z0.000000 I-0.833223 J-0.701100
G03 X83.205655 Y69.823210 Z0.000000 I-0.325576 J-0.890566
G01 X83.205655 Y69.823207 Z0.000000
G00 Z2.000000

(End cutting path id: path46563)


(Start cutting path id: path46563)
(Change tool to Default tool)

G00 Z2.000000
G00 X82.623710 Y75.253052

G01 Z0.000000 F100.0(Penetrate)
G03 X82.041942 Y74.910304 Z0.000000 I0.183065 J-0.975837 F400.000000
G03 X81.821164 Y74.283795 Z0.000000 I0.740827 J-0.613217
G03 X81.981430 Y73.668098 Z0.000000 I1.333542 J0.018413
G03 X82.382420 Y73.245667 Z0.000000 I0.982264 J0.530876
G03 X82.782170 Y73.118377 Z0.000000 I0.460758 J0.755650
G03 X83.208778 Y73.188710 Z0.000000 I0.064708 J0.936487
G03 X83.699529 Y73.592453 Z0.000000 I-0.424601 J1.016231
G03 X83.882916 Y74.196282 Z0.000000 I-0.902421 J0.603834
G03 X83.496942 Y75.024120 Z0.000000 I-1.080750 J0.000005
G03 X82.623710 Y75.253052 Z0.000000 I-0.678604 J-0.808564
G01 X82.623710 Y75.253052 Z0.000000
G00 Z2.000000

(End cutting path id: path46563)


(Start cutting path id: path46563)
(Change tool to Default tool)

G00 Z2.000000
G00 X82.623710 Y75.253052

G01 Z0.000000 F100.0(Penetrate)
G03 X82.041942 Y74.910304 Z0.000000 I0.183065 J-0.975837 F400.000000
G03 X81.821164 Y74.283795 Z0.000000 I0.740827 J-0.613217
G03 X81.981430 Y73.668098 Z0.000000 I1.333542 J0.018413
G03 X82.382420 Y73.245667 Z0.000000 I0.982264 J0.530876
G03 X82.782170 Y73.118377 Z0.000000 I0.460758 J0.755650
G03 X83.208778 Y73.188710 Z0.000000 I0.064708 J0.936487
G03 X83.699529 Y73.592453 Z0.000000 I-0.424601 J1.016231
G03 X83.882916 Y74.196282 Z0.000000 I-0.902421 J0.603834
G03 X83.496942 Y75.024120 Z0.000000 I-1.080750 J0.000005
G03 X82.623710 Y75.253052 Z0.000000 I-0.678604 J-0.808564
G01 X82.623710 Y75.253052 Z0.000000
G00 Z2.000000

(End cutting path id: path46563)


(Start cutting path id: path46563)
(Change tool to Default tool)

G00 Z2.000000
G00 X77.023535 Y75.229272

G01 Z0.000000 F100.0(Penetrate)
G03 X76.723755 Y75.080018 Z0.000000 I0.211749 J-0.800981 F400.000000
G03 X76.443633 Y74.779853 Z0.000000 I0.823805 J-1.049592
G03 X76.276358 Y74.408024 Z0.000000 I0.975993 J-0.662609
G03 X76.254125 Y74.034269 Z0.000000 I0.962462 J-0.244794
G03 X76.756942 Y73.356250 Z0.000000 I0.860514 J0.112702
G03 X77.904247 Y73.287639 Z0.000000 I0.663404 J1.466518
G02 X78.441843 Y73.411108 Z0.000000 I1.042647 J-3.307681
G02 X79.039714 Y73.454873 Z0.000000 I0.597852 J-4.061608
G02 X79.575853 Y73.349829 Z0.000000 I-0.000007 J-1.420764
G02 X79.777014 Y73.154565 Z0.000000 I-0.141344 J-0.346863
G03 X79.949124 Y72.880603 Z0.000000 I1.029400 J0.455651
G03 X81.037772 Y71.673226 Z0.000000 I21.632281 J18.410562
G01 X82.165979 Y70.492192 Z0.000000
G01 X83.464025 Y70.492186 Z0.000000
G01 X84.762067 Y70.492180 Z0.000000
G01 X85.091366 Y70.153040 Z0.000000
G02 X85.291850 Y69.789373 Z0.000000 I-0.567279 J-0.549826
G02 X85.264297 Y69.441111 Z0.000000 I-0.544866 J-0.132114
G03 X85.092579 Y68.663323 Z0.000000 I2.069751 J-0.864804
G03 X85.213551 Y68.137889 Z0.000000 I1.028208 J-0.039916
G03 X85.345010 Y67.968278 Z0.000000 I0.565929 J0.302880
G03 X85.596697 Y67.785806 Z0.000000 I0.907488 J0.986902
G03 X86.631016 Y67.803195 Z0.000000 I0.502250 J0.895552
G03 X87.152076 Y68.728134 Z0.000000 I-0.560413 J0.924944
G03 X87.118009 Y69.100325 Z0.000000 I-2.050056 J0.000009
G03 X87.006069 Y69.518249 Z0.000000 I-2.690727 J-0.496748
G02 X86.870581 Y69.933445 Z0.000000 I8.096440 J2.871764
G02 X86.804143 Y70.194454 Z0.000000 I3.167158 J0.945142
G03 X86.462851 Y70.862118 Z0.000000 I-1.405398 J-0.297339
G03 X85.461059 Y71.675796 Z0.000000 I-3.155935 J-2.862018
G03 X84.991795 Y71.853967 Z0.000000 I-0.762386 J-1.300902
G03 X83.862194 Y71.992676 Z0.000000 I-1.507207 J-7.605282
G01 X82.708092 Y72.048599 Z0.000000
G01 X82.114733 Y72.624360 Z0.000000
G02 X81.329373 Y73.575190 Z0.000000 I3.902943 J4.023484
G02 X81.079722 Y74.203556 Z0.000000 I1.409521 J0.923782
G03 X80.769508 Y74.594221 Z0.000000 I-0.517030 J-0.092059
G03 X79.387661 Y74.928440 Z0.000000 I-1.679428 J-3.919911
G02 X78.424365 Y75.035609 Z0.000000 I0.825950 J11.807046
G02 X77.879403 Y75.159370 Z0.000000 I0.590774 J3.863074
G03 X77.364520 Y75.258698 Z0.000000 I-0.731921 J-2.409878
G03 X77.023535 Y75.229272 Z0.000000 I-0.085981 J-0.994032
G01 X77.023535 Y75.229272 Z0.000000
G00 Z2.000000

(End cutting path id: path46563)


(Start cutting path id: path46563)
(Change tool to Default tool)

G00 Z2.000000
G00 X77.023535 Y75.229272

G01 Z0.000000 F100.0(Penetrate)
G03 X76.723755 Y75.080018 Z0.000000 I0.211749 J-0.800981 F400.000000
G03 X76.443633 Y74.779853 Z0.000000 I0.823805 J-1.049592
G03 X76.276358 Y74.408024 Z0.000000 I0.975993 J-0.662609
G03 X76.254125 Y74.034269 Z0.000000 I0.962462 J-0.244794
G03 X76.756942 Y73.356250 Z0.000000 I0.860514 J0.112702
G03 X77.904247 Y73.287639 Z0.000000 I0.663404 J1.466518
G02 X78.441843 Y73.411108 Z0.000000 I1.042647 J-3.307681
G02 X79.039714 Y73.454873 Z0.000000 I0.597852 J-4.061608
G02 X79.575853 Y73.349829 Z0.000000 I-0.000007 J-1.420764
G02 X79.777014 Y73.154565 Z0.000000 I-0.141344 J-0.346863
G03 X79.949124 Y72.880603 Z0.000000 I1.029400 J0.455651
G03 X81.037772 Y71.673226 Z0.000000 I21.632281 J18.410562
G01 X82.165979 Y70.492192 Z0.000000
G01 X83.464025 Y70.492186 Z0.000000
G01 X84.762067 Y70.492180 Z0.000000
G01 X85.091366 Y70.153040 Z0.000000
G02 X85.291850 Y69.789373 Z0.000000 I-0.567279 J-0.549826
G02 X85.264297 Y69.441111 Z0.000000 I-0.544866 J-0.132114
G03 X85.092579 Y68.663323 Z0.000000 I2.069751 J-0.864804
G03 X85.213551 Y68.137889 Z0.000000 I1.028208 J-0.039916
G03 X85.345010 Y67.968278 Z0.000000 I0.565929 J0.302880
G03 X85.596697 Y67.785806 Z0.000000 I0.907488 J0.986902
G03 X86.631016 Y67.803195 Z0.000000 I0.502250 J0.895552
G03 X87.152076 Y68.728134 Z0.000000 I-0.560413 J0.924944
G03 X87.118009 Y69.100325 Z0.000000 I-2.050056 J0.000009
G03 X87.006069 Y69.518249 Z0.000000 I-2.690727 J-0.496748
G02 X86.870581 Y69.933445 Z0.000000 I8.096440 J2.871764
G02 X86.804143 Y70.194454 Z0.000000 I3.167158 J0.945142
G03 X86.462851 Y70.862118 Z0.000000 I-1.405398 J-0.297339
G03 X85.461059 Y71.675796 Z0.000000 I-3.155935 J-2.862018
G03 X84.991795 Y71.853967 Z0.000000 I-0.762386 J-1.300902
G03 X83.862194 Y71.992676 Z0.000000 I-1.507207 J-7.605282
G01 X82.708092 Y72.048599 Z0.000000
G01 X82.114733 Y72.624360 Z0.000000
G02 X81.329373 Y73.575190 Z0.000000 I3.902943 J4.023484
G02 X81.079722 Y74.203556 Z0.000000 I1.409521 J0.923782
G03 X80.769508 Y74.594221 Z0.000000 I-0.517030 J-0.092059
G03 X79.387661 Y74.928440 Z0.000000 I-1.679428 J-3.919911
G02 X78.424365 Y75.035609 Z0.000000 I0.825950 J11.807046
G02 X77.879403 Y75.159370 Z0.000000 I0.590774 J3.863074
G03 X77.364520 Y75.258698 Z0.000000 I-0.731921 J-2.409878
G03 X77.023535 Y75.229272 Z0.000000 I-0.085981 J-0.994032
G01 X77.023535 Y75.229272 Z0.000000
G00 Z2.000000

(End cutting path id: path46563)


(Start cutting path id: path46563)
(Change tool to Default tool)

G00 Z2.000000
G00 X72.034867 Y80.558160

G01 Z0.000000 F100.0(Penetrate)
G03 X71.404442 Y80.339798 Z0.000000 I-0.029762 J-0.933296 F400.000000
G03 X71.112718 Y79.713687 Z0.000000 I0.526041 J-0.626115
G03 X71.251497 Y79.172076 Z0.000000 I1.126235 J-0.000005
G03 X71.600453 Y78.824676 Z0.000000 I0.765274 J0.419743
G03 X72.017318 Y78.715936 Z0.000000 I0.428679 J0.789964
G03 X72.431468 Y78.813803 Z0.000000 I0.011522 J0.876464
G03 X72.935051 Y79.598542 Z0.000000 I-0.428726 J0.829071
G03 X72.507588 Y80.413704 Z0.000000 I-0.908588 J0.043205
G03 X72.267581 Y80.521089 Z0.000000 I-0.510527 J-0.819134
G03 X72.034867 Y80.558163 Z0.000000 I-0.262586 J-0.899345
G01 X72.034867 Y80.558160 Z0.000000
G00 Z2.000000

(End cutting path id: path46563)


(Start cutting path id: path46563)
(Change tool to Default tool)

G00 Z2.000000
G00 X72.034867 Y80.558160

G01 Z0.000000 F100.0(Penetrate)
G03 X71.404442 Y80.339798 Z0.000000 I-0.029762 J-0.933296 F400.000000
G03 X71.112718 Y79.713687 Z0.000000 I0.526041 J-0.626115
G03 X71.251497 Y79.172076 Z0.000000 I1.126235 J-0.000005
G03 X71.600453 Y78.824676 Z0.000000 I0.765274 J0.419743
G03 X72.017318 Y78.715936 Z0.000000 I0.428679 J0.789964
G03 X72.431468 Y78.813803 Z0.000000 I0.011522 J0.876464
G03 X72.935051 Y79.598542 Z0.000000 I-0.428726 J0.829071
G03 X72.507588 Y80.413704 Z0.000000 I-0.908588 J0.043205
G03 X72.267581 Y80.521089 Z0.000000 I-0.510527 J-0.819134
G03 X72.034867 Y80.558163 Z0.000000 I-0.262586 J-0.899345
G01 X72.034867 Y80.558160 Z0.000000
G00 Z2.000000

(End cutting path id: path46563)


(Start cutting path id: path46563)
(Change tool to Default tool)

G00 Z2.000000
G00 X71.828289 Y83.258838

G01 Z0.000000 F100.0(Penetrate)
G03 X71.469808 Y83.232378 Z0.000000 I0.118632 J-4.048822 F400.000000
G03 X70.952745 Y83.156324 Z0.000000 I1.100332 J-9.276470
G03 X70.010864 Y82.830947 Z0.000000 I0.546200 J-3.107038
G03 X69.219252 Y82.229010 Z0.000000 I1.482349 J-2.770945
G01 X68.641940 Y81.623744 Z0.000000
G01 X68.676611 Y77.285367 Z0.000000
G01 X68.711798 Y72.947509 Z0.000000
G01 X69.935796 Y71.719876 Z0.000000
G01 X71.160311 Y70.492243 Z0.000000
G01 X73.835098 Y70.492231 Z0.000000
G01 X76.509887 Y70.492218 Z0.000000
G01 X76.814331 Y70.107516 Z0.000000
G01 X77.119294 Y69.722814 Z0.000000
G01 X76.929790 Y69.367107 Z0.000000
G03 X76.776127 Y69.001740 Z0.000000 I1.922965 J-1.023741
G03 X76.736142 Y68.755625 Z0.000000 I0.817119 J-0.259059
G03 X76.912129 Y68.121311 Z0.000000 I1.167033 J-0.017783
G03 X77.370403 Y67.736655 Z0.000000 I0.817374 J0.508490
G03 X77.748536 Y67.672208 Z0.000000 I0.337725 J0.840005
G03 X78.202975 Y67.773929 Z0.000000 I-0.059499 J1.331771
G03 X78.803936 Y68.420036 Z0.000000 I-0.411780 J0.985545
G03 X78.732140 Y69.351567 Z0.000000 I-1.136550 J0.380935
G02 X78.612289 Y69.639358 Z0.000000 I1.677369 J0.867393
G02 X78.513645 Y70.027772 Z0.000000 I3.016576 J0.972844
G03 X78.363167 Y70.385167 Z0.000000 I-0.901173 J-0.169055
G03 X77.713182 Y71.168937 Z0.000000 I-5.166207 J-3.622967
G01 X76.986756 Y71.912972 Z0.000000
G01 X74.330608 Y71.978739 Z0.000000
G01 X71.674460 Y72.045025 Z0.000000
G01 X70.882797 Y72.824271 Z0.000000
G01 X70.091136 Y73.603514 Z0.000000
G01 X70.091153 Y77.351117 Z0.000000
G01 X70.091170 Y81.099237 Z0.000000
G01 X70.411668 Y81.368993 Z0.000000
G02 X70.761309 Y81.540185 Z0.000000 I0.518357 J-0.616040
G02 X71.305855 Y81.560561 Z0.000000 I0.330328 J-1.541312
G03 X72.341593 Y81.571332 Z0.000000 I0.481426 J3.509804
G03 X72.726092 Y81.785785 Z0.000000 I-0.099994 J0.631197
G03 X72.891741 Y82.097746 Z0.000000 I-0.607416 J0.522492
G03 X72.917670 Y82.488395 Z0.000000 I-0.952552 J0.259411
G03 X72.603222 Y83.017856 Z0.000000 I-0.778873 J-0.104469
G03 X71.828289 Y83.258838 Z0.000000 I-0.738339 J-1.007817
G01 X71.828289 Y83.258838 Z0.000000
G00 Z2.000000

(End cutting path id: path46563)


(Start cutting path id: path46563)
(Change tool to Default tool)

G00 Z2.000000
G00 X71.828289 Y83.258838

G01 Z0.000000 F100.0(Penetrate)
G03 X71.469808 Y83.232378 Z0.000000 I0.118632 J-4.048822 F400.000000
G03 X70.952745 Y83.156324 Z0.000000 I1.100332 J-9.276470
G03 X70.010864 Y82.830947 Z0.000000 I0.546200 J-3.107038
G03 X69.219252 Y82.229010 Z0.000000 I1.482349 J-2.770945
G01 X68.641940 Y81.623744 Z0.000000
G01 X68.676611 Y77.285367 Z0.000000
G01 X68.711798 Y72.947509 Z0.000000
G01 X69.935796 Y71.719876 Z0.000000
G01 X71.160311 Y70.492243 Z0.000000
G01 X73.835098 Y70.492231 Z0.000000
G01 X76.509887 Y70.492218 Z0.000000
G01 X76.814331 Y70.107516 Z0.000000
G01 X77.119294 Y69.722814 Z0.000000
G01 X76.929790 Y69.367107 Z0.000000
G03 X76.776127 Y69.001740 Z0.000000 I1.922965 J-1.023741
G03 X76.736142 Y68.755625 Z0.000000 I0.817119 J-0.259059
G03 X76.912129 Y68.121311 Z0.000000 I1.167033 J-0.017783
G03 X77.370403 Y67.736655 Z0.000000 I0.817374 J0.508490
G03 X77.748536 Y67.672208 Z0.000000 I0.337725 J0.840005
G03 X78.202975 Y67.773929 Z0.000000 I-0.059499 J1.331771
G03 X78.803936 Y68.420036 Z0.000000 I-0.411780 J0.985545
G03 X78.732140 Y69.351567 Z0.000000 I-1.136550 J0.380935
G02 X78.612289 Y69.639358 Z0.000000 I1.677369 J0.867393
G02 X78.513645 Y70.027772 Z0.000000 I3.016576 J0.972844
G03 X78.363167 Y70.385167 Z0.000000 I-0.901173 J-0.169055
G03 X77.713182 Y71.168937 Z0.000000 I-5.166207 J-3.622967
G01 X76.986756 Y71.912972 Z0.000000
G01 X74.330608 Y71.978739 Z0.000000
G01 X71.674460 Y72.045025 Z0.000000
G01 X70.882797 Y72.824271 Z0.000000
G01 X70.091136 Y73.603514 Z0.000000
G01 X70.091153 Y77.351117 Z0.000000
G01 X70.091170 Y81.099237 Z0.000000
G01 X70.411668 Y81.368993 Z0.000000
G02 X70.761309 Y81.540185 Z0.000000 I0.518357 J-0.616040
G02 X71.305855 Y81.560561 Z0.000000 I0.330328 J-1.541312
G03 X72.341593 Y81.571332 Z0.000000 I0.481426 J3.509804
G03 X72.726092 Y81.785785 Z0.000000 I-0.099994 J0.631197
G03 X72.891741 Y82.097746 Z0.000000 I-0.607416 J0.522492
G03 X72.917670 Y82.488395 Z0.000000 I-0.952552 J0.259411
G03 X72.603222 Y83.017856 Z0.000000 I-0.778873 J-0.104469
G03 X71.828289 Y83.258838 Z0.000000 I-0.738339 J-1.007817
G01 X71.828289 Y83.258838 Z0.000000
G00 Z2.000000

(End cutting path id: path46563)


(Start cutting path id: path46563)
(Change tool to Default tool)

G00 Z2.000000
G00 X63.875353 Y77.848190

G01 Z0.000000 F100.0(Penetrate)
G03 X63.379024 Y77.724899 Z0.000000 I-0.000005 J-1.060658 F400.000000
G03 X63.088861 Y77.431909 Z0.000000 I0.323039 J-0.610098
G03 X62.995958 Y76.671226 Z0.000000 I0.977280 J-0.505371
G03 X63.399000 Y76.132309 Z0.000000 I0.824988 J0.196816
G03 X64.319368 Y76.133650 Z0.000000 I0.459018 J0.800366
G03 X64.778335 Y76.928630 Z0.000000 I-0.459017 J0.794984
G03 X64.511548 Y77.581220 Z0.000000 I-0.931535 J0.000004
G03 X63.875353 Y77.848190 Z0.000000 I-0.636200 J-0.624559
G01 X63.875353 Y77.848190 Z0.000000
G00 Z2.000000

(End cutting path id: path46563)


(Start cutting path id: path46563)
(Change tool to Default tool)

G00 Z2.000000
G00 X63.875353 Y77.848190

G01 Z0.000000 F100.0(Penetrate)
G03 X63.379024 Y77.724899 Z0.000000 I-0.000005 J-1.060658 F400.000000
G03 X63.088861 Y77.431909 Z0.000000 I0.323039 J-0.610098
G03 X62.995958 Y76.671226 Z0.000000 I0.977280 J-0.505371
G03 X63.399000 Y76.132309 Z0.000000 I0.824988 J0.196816
G03 X64.319368 Y76.133650 Z0.000000 I0.459018 J0.800366
G03 X64.778335 Y76.928630 Z0.000000 I-0.459017 J0.794984
G03 X64.511548 Y77.581220 Z0.000000 I-0.931535 J0.000004
G03 X63.875353 Y77.848190 Z0.000000 I-0.636200 J-0.624559
G01 X63.875353 Y77.848190 Z0.000000
G00 Z2.000000

(End cutting path id: path46563)


(Start cutting path id: path46563)
(Change tool to Default tool)

G00 Z2.000000
G00 X66.422690 Y60.196396

G01 Z0.000000 F100.0(Penetrate)
G01 X65.590632 Y59.444601 Z0.000000 F400.000000
G03 X64.781783 Y58.669903 Z0.000000 I13.053526 J-14.438569
G03 X64.065283 Y57.897520 Z0.000000 I12.381525 J-12.204227
G01 X63.371987 Y57.102749 Z0.000000
G01 X63.329002 Y55.088115 Z0.000000
G02 X63.215492 Y53.091958 Z0.000000 I-28.171338 J0.600640
G02 X63.112566 Y52.746770 Z0.000000 I-0.914003 J0.084592
G03 X62.976205 Y52.410496 Z0.000000 I1.574059 J-0.834074
G03 X62.939628 Y52.153927 Z0.000000 I0.881577 J-0.256574
G03 X63.081834 Y51.556415 Z0.000000 I1.326365 J-0.000006
G03 X63.424772 Y51.191911 Z0.000000 I0.787563 J0.397391
G03 X63.985378 Y51.039187 Z0.000000 I0.565650 J0.971067
G03 X64.579394 Y51.186736 Z0.000000 I0.005597 J1.246964
G03 X64.935481 Y51.546282 Z0.000000 I-0.405521 J0.757723
G03 X65.084740 Y52.153925 Z0.000000 I-1.162271 J0.607648
G03 X65.048825 Y52.410847 Z0.000000 I-0.936886 J0.000004
G03 X64.915433 Y52.746770 Z0.000000 I-1.737161 J-0.495364
G02 X64.812488 Y53.090777 Z0.000000 I0.855408 J0.443389
G02 X64.701605 Y54.810075 Z0.000000 I22.016723 J2.283162
G01 X64.657601 Y56.547187 Z0.000000
G01 X65.765113 Y57.640187 Z0.000000
G01 X66.872622 Y58.733191 Z0.000000
G01 X83.729585 Y58.765214 Z0.000000
G03 X100.842404 Y59.103993 Z0.000000 I-0.912862 J478.493029
G03 X101.148328 Y59.421665 Z0.000000 I-0.011976 J0.317674
G03 X101.073955 Y59.720052 Z0.000000 I-0.635743 J0.000003
G03 X100.872362 Y59.940986 Z0.000000 I-0.531436 J-0.282473
G03 X100.569732 Y60.033375 Z0.000000 I-0.309725 J-0.472695
G03 X83.509539 Y60.159048 Z0.000000 I-20.636306 J-1643.373675
G01 X66.422690 Y60.196396 Z0.000000
G00 Z2.000000

(End cutting path id: path46563)


(Start cutting path id: path46563)
(Change tool to Default tool)

G00 Z2.000000
G00 X66.422690 Y60.196396

G01 Z0.000000 F100.0(Penetrate)
G01 X65.590632 Y59.444601 Z0.000000 F400.000000
G03 X64.781783 Y58.669903 Z0.000000 I13.053526 J-14.438569
G03 X64.065283 Y57.897520 Z0.000000 I12.381525 J-12.204227
G01 X63.371987 Y57.102749 Z0.000000
G01 X63.329002 Y55.088115 Z0.000000
G02 X63.215492 Y53.091958 Z0.000000 I-28.171338 J0.600640
G02 X63.112566 Y52.746770 Z0.000000 I-0.914003 J0.084592
G03 X62.976205 Y52.410496 Z0.000000 I1.574059 J-0.834074
G03 X62.939628 Y52.153927 Z0.000000 I0.881577 J-0.256574
G03 X63.081834 Y51.556415 Z0.000000 I1.326365 J-0.000006
G03 X63.424772 Y51.191911 Z0.000000 I0.787563 J0.397391
G03 X63.985378 Y51.039187 Z0.000000 I0.565650 J0.971067
G03 X64.579394 Y51.186736 Z0.000000 I0.005597 J1.246964
G03 X64.935481 Y51.546282 Z0.000000 I-0.405521 J0.757723
G03 X65.084740 Y52.153925 Z0.000000 I-1.162271 J0.607648
G03 X65.048825 Y52.410847 Z0.000000 I-0.936886 J0.000004
G03 X64.915433 Y52.746770 Z0.000000 I-1.737161 J-0.495364
G02 X64.812488 Y53.090777 Z0.000000 I0.855408 J0.443389
G02 X64.701605 Y54.810075 Z0.000000 I22.016723 J2.283162
G01 X64.657601 Y56.547187 Z0.000000
G01 X65.765113 Y57.640187 Z0.000000
G01 X66.872622 Y58.733191 Z0.000000
G01 X83.729585 Y58.765214 Z0.000000
G03 X100.842404 Y59.103993 Z0.000000 I-0.912862 J478.493029
G03 X101.148328 Y59.421665 Z0.000000 I-0.011976 J0.317674
G03 X101.073955 Y59.720052 Z0.000000 I-0.635743 J0.000003
G03 X100.872362 Y59.940986 Z0.000000 I-0.531436 J-0.282473
G03 X100.569732 Y60.033375 Z0.000000 I-0.309725 J-0.472695
G03 X83.509539 Y60.159048 Z0.000000 I-20.636306 J-1643.373675
G01 X66.422690 Y60.196396 Z0.000000
G00 Z2.000000

(End cutting path id: path46563)


(Start cutting path id: path46563)
(Change tool to Default tool)

G00 Z2.000000
G00 X66.644260 Y53.211117

G01 Z0.000000 F100.0(Penetrate)
G03 X66.371363 Y53.124892 Z0.000000 I0.144612 J-0.932658 F400.000000
G03 X66.103710 Y52.933077 Z0.000000 I0.447246 J-0.906721
G03 X65.782841 Y52.324737 Z0.000000 I0.822750 J-0.822752
G03 X65.853622 Y51.599829 Z0.000000 I1.283322 J-0.240604
G02 X65.953710 Y51.115274 Z0.000000 I-1.309841 J-0.523169
G02 X66.080367 Y43.316578 Z0.000000 I-349.911466 J-9.583222
G01 X66.120199 Y35.501392 Z0.000000
G01 X67.773424 Y33.830550 Z0.000000
G03 X69.448979 Y32.187717 Z0.000000 I55.212456 J54.636301
G03 X69.732647 Y31.967094 Z0.000000 I1.247879 J1.311797
G03 X70.382914 Y31.936859 Z0.000000 I0.351836 J0.559180
G03 X70.703464 Y32.458452 Z0.000000 I-0.264093 J0.521595
G03 X70.597282 Y32.747550 Z0.000000 I-0.446645 J0.000002
G03 X68.628263 Y34.902325 Z0.000000 I-30.572725 J-25.960119
G01 X67.408926 Y36.142383 Z0.000000
G01 X67.455559 Y43.637589 Z0.000000
G02 X67.581560 Y51.115609 Z0.000000 I351.425088 J-2.181239
G02 X67.672540 Y51.527849 Z0.000000 I1.118822 J-0.030763
G03 X67.811828 Y51.929924 Z0.000000 I-2.662348 J1.147458
G03 X67.843406 Y52.171435 Z0.000000 I-0.907772 J0.241515
G03 X67.432577 Y53.008112 Z0.000000 I-1.057373 J0.000005
G03 X66.644260 Y53.211117 Z0.000000 I-0.630362 J-0.815731
G01 X66.644260 Y53.211117 Z0.000000
G00 Z2.000000

(End cutting path id: path46563)


(Start cutting path id: path46563)
(Change tool to Default tool)

G00 Z2.000000
G00 X66.644260 Y53.211117

G01 Z0.000000 F100.0(Penetrate)
G03 X66.371363 Y53.124892 Z0.000000 I0.144612 J-0.932658 F400.000000
G03 X66.103710 Y52.933077 Z0.000000 I0.447246 J-0.906721
G03 X65.782841 Y52.324737 Z0.000000 I0.822750 J-0.822752
G03 X65.853622 Y51.599829 Z0.000000 I1.283322 J-0.240604
G02 X65.953710 Y51.115274 Z0.000000 I-1.309841 J-0.523169
G02 X66.080367 Y43.316578 Z0.000000 I-349.911466 J-9.583222
G01 X66.120199 Y35.501392 Z0.000000
G01 X67.773424 Y33.830550 Z0.000000
G03 X69.448979 Y32.187717 Z0.000000 I55.212456 J54.636301
G03 X69.732647 Y31.967094 Z0.000000 I1.247879 J1.311797
G03 X70.382914 Y31.936859 Z0.000000 I0.351836 J0.559180
G03 X70.703464 Y32.458452 Z0.000000 I-0.264093 J0.521595
G03 X70.597282 Y32.747550 Z0.000000 I-0.446645 J0.000002
G03 X68.628263 Y34.902325 Z0.000000 I-30.572725 J-25.960119
G01 X67.408926 Y36.142383 Z0.000000
G01 X67.455559 Y43.637589 Z0.000000
G02 X67.581560 Y51.115609 Z0.000000 I351.425088 J-2.181239
G02 X67.672540 Y51.527849 Z0.000000 I1.118822 J-0.030763
G03 X67.811828 Y51.929924 Z0.000000 I-2.662348 J1.147458
G03 X67.843406 Y52.171435 Z0.000000 I-0.907772 J0.241515
G03 X67.432577 Y53.008112 Z0.000000 I-1.057373 J0.000005
G03 X66.644260 Y53.211117 Z0.000000 I-0.630362 J-0.815731
G01 X66.644260 Y53.211117 Z0.000000
G00 Z2.000000

(End cutting path id: path46563)


(Start cutting path id: path46563)
(Change tool to Default tool)

G00 Z2.000000
G00 X69.331992 Y53.183640

G01 Z0.000000 F100.0(Penetrate)
G03 X68.782229 Y52.882159 Z0.000000 I0.185913 J-0.991017 F400.000000
G03 X68.499936 Y52.296189 Z0.000000 I0.792449 J-0.742748
G03 X68.593768 Y51.735995 Z0.000000 I0.918906 J-0.134040
G03 X69.060155 Y51.211982 Z0.000000 I1.257092 J0.649294
G03 X69.487256 Y51.056748 Z0.000000 I0.524810 J0.778760
G03 X69.927417 Y51.121368 Z0.000000 I0.093546 J0.894201
G03 X70.414030 Y51.527917 Z0.000000 I-0.413308 J0.989200
G03 X70.601556 Y52.162595 Z0.000000 I-0.980285 J0.634683
G03 X70.219139 Y52.960933 Z0.000000 I-1.024509 J0.000005
G03 X69.331992 Y53.183640 Z0.000000 I-0.685483 J-0.852281
G01 X69.331992 Y53.183640 Z0.000000
G00 Z2.000000

(End cutting path id: path46563)


(Start cutting path id: path46563)
(Change tool to Default tool)

G00 Z2.000000
G00 X69.331992 Y53.183640

G01 Z0.000000 F100.0(Penetrate)
G03 X68.782229 Y52.882159 Z0.000000 I0.185913 J-0.991017 F400.000000
G03 X68.499936 Y52.296189 Z0.000000 I0.792449 J-0.742748
G03 X68.593768 Y51.735995 Z0.000000 I0.918906 J-0.134040
G03 X69.060155 Y51.211982 Z0.000000 I1.257092 J0.649294
G03 X69.487256 Y51.056748 Z0.000000 I0.524810 J0.778760
G03 X69.927417 Y51.121368 Z0.000000 I0.093546 J0.894201
G03 X70.414030 Y51.527917 Z0.000000 I-0.413308 J0.989200
G03 X70.601556 Y52.162595 Z0.000000 I-0.980285 J0.634683
G03 X70.219139 Y52.960933 Z0.000000 I-1.024509 J0.000005
G03 X69.331992 Y53.183640 Z0.000000 I-0.685483 J-0.852281
G01 X69.331992 Y53.183640 Z0.000000
G00 Z2.000000

(End cutting path id: path46563)


(Start cutting path id: path46563)
(Change tool to Default tool)

G00 Z2.000000
G00 X72.272396 Y53.218938

G01 Z0.000000 F100.0(Penetrate)
G03 X71.543673 Y52.852193 Z0.000000 I0.057498 J-1.021608 F400.000000
G03 X71.321251 Y51.928664 Z0.000000 I0.825130 J-0.687273
G03 X71.578975 Y51.381611 Z0.000000 I1.361009 J0.306953
G03 X71.980882 Y51.075897 Z0.000000 I0.771449 J0.597147
G03 X72.281380 Y51.026727 Z0.000000 I0.257029 J0.627985
G03 X72.686083 Y51.121459 Z0.000000 I-0.080652 J1.256376
G03 X73.174511 Y51.528585 Z0.000000 I-0.415981 J0.995597
G03 X73.356598 Y52.151294 Z0.000000 I-0.943389 J0.613834
G03 X73.226653 Y52.641296 Z0.000000 I-1.019245 J-0.008066
G03 X72.851778 Y53.052732 Z0.000000 I-1.072434 J-0.600634
G03 X72.554725 Y53.189858 Z0.000000 I-0.545596 J-0.791601
G03 X72.272396 Y53.218938 Z0.000000 I-0.231922 J-0.866620
G01 X72.272396 Y53.218938 Z0.000000
G00 Z2.000000

(End cutting path id: path46563)


(Start cutting path id: path46563)
(Change tool to Default tool)

G00 Z2.000000
G00 X72.272396 Y53.218938

G01 Z0.000000 F100.0(Penetrate)
G03 X71.543673 Y52.852193 Z0.000000 I0.057498 J-1.021608 F400.000000
G03 X71.321251 Y51.928664 Z0.000000 I0.825130 J-0.687273
G03 X71.578975 Y51.381611 Z0.000000 I1.361009 J0.306953
G03 X71.980882 Y51.075897 Z0.000000 I0.771449 J0.597147
G03 X72.281380 Y51.026727 Z0.000000 I0.257029 J0.627985
G03 X72.686083 Y51.121459 Z0.000000 I-0.080652 J1.256376
G03 X73.174511 Y51.528585 Z0.000000 I-0.415981 J0.995597
G03 X73.356598 Y52.151294 Z0.000000 I-0.943389 J0.613834
G03 X73.226653 Y52.641296 Z0.000000 I-1.019245 J-0.008066
G03 X72.851778 Y53.052732 Z0.000000 I-1.072434 J-0.600634
G03 X72.554725 Y53.189858 Z0.000000 I-0.545596 J-0.791601
G03 X72.272396 Y53.218938 Z0.000000 I-0.231922 J-0.866620
G01 X72.272396 Y53.218938 Z0.000000
G00 Z2.000000

(End cutting path id: path46563)


(Start cutting path id: path46563)
(Change tool to Default tool)

G00 Z2.000000
G00 X75.045560 Y53.226692

G01 Z0.000000 F100.0(Penetrate)
G03 X74.700039 Y53.148211 Z0.000000 I-0.000011 J-0.799790 F400.000000
G03 X74.320165 Y52.879275 Z0.000000 I0.596534 J-1.245362
G03 X74.018894 Y52.271385 Z0.000000 I0.750586 J-0.750593
G03 X74.141529 Y51.562075 Z0.000000 I1.183740 J-0.160595
G02 X74.255952 Y51.221061 Z0.000000 I-1.044749 J-0.540256
G02 X74.355361 Y50.315808 Z0.000000 I-7.380310 J-1.268544
G01 X74.399885 Y49.395733 Z0.000000
G01 X73.536246 Y48.542975 Z0.000000
G01 X72.672086 Y47.690732 Z0.000000
G01 X71.100663 Y47.752353 Z0.000000
G02 X69.528883 Y47.815873 Z0.000000 I31.581759 J800.949431
G02 X69.196831 Y47.831064 Z0.000000 I1.583181 J38.244716
G03 X68.355560 Y47.181797 Z0.000000 I-0.040939 J-0.816617
G03 X68.841636 Y46.132270 Z0.000000 I0.948061 J-0.198240
G03 X69.172368 Y46.047061 Z0.000000 I0.335706 J0.618555
G03 X69.937749 Y46.124498 Z0.000000 I0.025243 J3.571712
G02 X70.657815 Y46.227966 Z0.000000 I1.142646 J-5.394711
G02 X71.931155 Y46.277747 Z0.000000 I1.297760 J-16.885118
G01 X73.210041 Y46.279862 Z0.000000
G01 X74.448549 Y47.531299 Z0.000000
G01 X75.687053 Y48.782737 Z0.000000
G01 X75.739355 Y50.019168 Z0.000000
G02 X75.849415 Y51.240238 Z0.000000 I12.811996 J-0.539306
G02 X75.954753 Y51.571952 Z0.000000 I1.020210 J-0.141392
G03 X76.073977 Y52.271569 Z0.000000 I-1.038224 J0.536894
G03 X75.770952 Y52.879316 Z0.000000 I-1.059776 J-0.148990
G03 X75.391082 Y53.148254 Z0.000000 I-0.976406 J-0.976407
G03 X75.045560 Y53.226740 Z0.000000 I-0.345526 J-0.721328
G01 X75.045560 Y53.226692 Z0.000000
G00 Z2.000000

(End cutting path id: path46563)


(Start cutting path id: path46563)
(Change tool to Default tool)

G00 Z2.000000
G00 X75.045560 Y53.226692

G01 Z0.000000 F100.0(Penetrate)
G03 X74.700039 Y53.148211 Z0.000000 I-0.000011 J-0.799790 F400.000000
G03 X74.320165 Y52.879275 Z0.000000 I0.596534 J-1.245362
G03 X74.018894 Y52.271385 Z0.000000 I0.750586 J-0.750593
G03 X74.141529 Y51.562075 Z0.000000 I1.183740 J-0.160595
G02 X74.255952 Y51.221061 Z0.000000 I-1.044749 J-0.540256
G02 X74.355361 Y50.315808 Z0.000000 I-7.380310 J-1.268544
G01 X74.399885 Y49.395733 Z0.000000
G01 X73.536246 Y48.542975 Z0.000000
G01 X72.672086 Y47.690732 Z0.000000
G01 X71.100663 Y47.752353 Z0.000000
G02 X69.528883 Y47.815873 Z0.000000 I31.581759 J800.949431
G02 X69.196831 Y47.831064 Z0.000000 I1.583181 J38.244716
G03 X68.355560 Y47.181797 Z0.000000 I-0.040939 J-0.816617
G03 X68.841636 Y46.132270 Z0.000000 I0.948061 J-0.198240
G03 X69.172368 Y46.047061 Z0.000000 I0.335706 J0.618555
G03 X69.937749 Y46.124498 Z0.000000 I0.025243 J3.571712
G02 X70.657815 Y46.227966 Z0.000000 I1.142646 J-5.394711
G02 X71.931155 Y46.277747 Z0.000000 I1.297760 J-16.885118
G01 X73.210041 Y46.279862 Z0.000000
G01 X74.448549 Y47.531299 Z0.000000
G01 X75.687053 Y48.782737 Z0.000000
G01 X75.739355 Y50.019168 Z0.000000
G02 X75.849415 Y51.240238 Z0.000000 I12.811996 J-0.539306
G02 X75.954753 Y51.571952 Z0.000000 I1.020210 J-0.141392
G03 X76.073977 Y52.271569 Z0.000000 I-1.038224 J0.536894
G03 X75.770952 Y52.879316 Z0.000000 I-1.059776 J-0.148990
G03 X75.391082 Y53.148254 Z0.000000 I-0.976406 J-0.976407
G03 X75.045560 Y53.226740 Z0.000000 I-0.345526 J-0.721328
G01 X75.045560 Y53.226692 Z0.000000
G00 Z2.000000

(End cutting path id: path46563)


(Start cutting path id: path46563)
(Change tool to Default tool)

G00 Z2.000000
G00 X77.820795 Y53.175277

G01 Z0.000000 F100.0(Penetrate)
G03 X77.389060 Y53.103888 Z0.000000 I-0.000006 J-1.341132 F400.000000
G03 X77.098507 Y52.929339 Z0.000000 I0.257821 J-0.758271
G03 X76.753765 Y51.933065 Z0.000000 I0.776389 J-0.826438
G03 X77.370844 Y51.130615 Z0.000000 I1.033980 J0.156634
G01 X77.370844 Y51.131145 Z0.000000
G03 X77.790271 Y51.041906 Z0.000000 I0.429348 J0.987666
G03 X78.209110 Y51.123878 Z0.000000 I0.009775 J1.061077
G03 X78.834294 Y51.875960 Z0.000000 I-0.407069 J0.974275
G03 X78.578804 Y52.841829 Z0.000000 I-1.077031 J0.231831
G03 X78.241120 Y53.086957 Z0.000000 I-0.733652 J-0.655510
G03 X77.820795 Y53.175277 Z0.000000 I-0.420330 J-0.956048
G01 X77.820795 Y53.175277 Z0.000000
G00 Z2.000000

(End cutting path id: path46563)


(Start cutting path id: path46563)
(Change tool to Default tool)

G00 Z2.000000
G00 X77.820795 Y53.175277

G01 Z0.000000 F100.0(Penetrate)
G03 X77.389060 Y53.103888 Z0.000000 I-0.000006 J-1.341132 F400.000000
G03 X77.098507 Y52.929339 Z0.000000 I0.257821 J-0.758271
G03 X76.753765 Y51.933065 Z0.000000 I0.776389 J-0.826438
G03 X77.370844 Y51.130615 Z0.000000 I1.033980 J0.156634
G01 X77.370844 Y51.131145 Z0.000000
G03 X77.790271 Y51.041906 Z0.000000 I0.429348 J0.987666
G03 X78.209110 Y51.123878 Z0.000000 I0.009775 J1.061077
G03 X78.834294 Y51.875960 Z0.000000 I-0.407069 J0.974275
G03 X78.578804 Y52.841829 Z0.000000 I-1.077031 J0.231831
G03 X78.241120 Y53.086957 Z0.000000 I-0.733652 J-0.655510
G03 X77.820795 Y53.175277 Z0.000000 I-0.420330 J-0.956048
G01 X77.820795 Y53.175277 Z0.000000
G00 Z2.000000

(End cutting path id: path46563)


(Start cutting path id: path46563)
(Change tool to Default tool)

G00 Z2.000000
G00 X78.621248 Y49.804098

G01 Z0.000000 F100.0(Penetrate)
G03 X76.786223 Y49.717091 Z0.000000 I-0.000089 J-19.392556 F400.000000
G03 X76.532571 Y49.605285 Z0.000000 I0.041640 J-0.438097
G03 X76.383504 Y49.378154 Z0.000000 I0.362129 J-0.400149
G03 X76.343066 Y49.045578 Z0.000000 I0.778108 J-0.263356
G03 X76.630114 Y48.683734 Z0.000000 I0.415951 J0.035191
G03 X78.250519 Y48.426319 Z0.000000 I1.626496 J5.009784
G01 X79.616392 Y48.424722 Z0.000000
G01 X79.572373 Y46.815501 Z0.000000
G02 X79.461968 Y45.224001 Z0.000000 I-18.977548 J0.516928
G02 X79.355936 Y44.879569 Z0.000000 I-0.961463 J0.107445
G03 X79.207471 Y44.289203 Z0.000000 I1.134148 J-0.599067
G03 X79.348163 Y43.702165 Z0.000000 I1.259407 J-0.008543
G02 X79.457254 Y43.367737 Z0.000000 I-0.969073 J-0.501118
G02 X79.564065 Y42.302637 Z0.000000 I-9.902054 J-1.530914
G01 X79.614283 Y41.222056 Z0.000000
G01 X80.852779 Y39.970607 Z0.000000
G01 X82.091792 Y38.719157 Z0.000000
G01 X85.933626 Y38.719139 Z0.000000
G01 X89.775983 Y38.719122 Z0.000000
G01 X90.415940 Y38.052233 Z0.000000
G02 X90.951140 Y37.363856 Z0.000000 I-3.021724 J-2.901581
G02 X90.971499 Y37.158564 Z0.000000 I-0.198174 J-0.123308
G03 X90.926186 Y36.924146 Z0.000000 I0.668601 J-0.250830
G03 X90.856013 Y32.130005 Z0.000000 I287.108269 J-6.600049
G01 X90.825961 Y27.328228 Z0.000000
G01 X89.935915 Y26.434046 Z0.000000
G01 X89.046385 Y25.540382 Z0.000000
G01 X83.804507 Y25.540406 Z0.000000
G01 X78.562626 Y25.540430 Z0.000000
G01 X78.632014 Y26.858150 Z0.000000
G01 X78.701918 Y28.176385 Z0.000000
G01 X78.436305 Y28.442003 Z0.000000
G03 X77.906016 Y28.661325 Z0.000000 I-0.529409 J-0.529293
G03 X77.374880 Y28.440947 Z0.000000 I0.000884 J-0.752369
G01 X77.108746 Y28.174815 Z0.000000
G01 X77.174495 Y26.506569 Z0.000000
G03 X77.420401 Y24.511162 Z0.000000 I12.086262 J0.476607
G03 X77.639441 Y24.279648 Z0.000000 I0.297523 J0.062116
G01 X77.639441 Y24.280179 Z0.000000
G03 X77.806800 Y24.257432 Z0.000000 I0.173495 J0.649433
G03 X83.779129 Y24.224231 Z0.000000 I7.636115 J836.440554
G01 X89.754167 Y24.212300 Z0.000000
G01 X90.955913 Y25.410926 Z0.000000
G01 X92.157657 Y26.610071 Z0.000000
G01 X92.157673 Y30.094130 Z0.000000
G02 X92.259669 Y36.111811 Z0.000000 I177.618679 J-0.000817
G02 X92.374130 Y36.490632 Z0.000000 I0.770568 J-0.026125
G02 X92.492652 Y36.561723 Z0.000000 I0.127948 J-0.078971
G02 X95.051508 Y36.658376 Z0.000000 I3.213744 J-51.161734
G01 X97.646042 Y36.691501 Z0.000000
G01 X97.696246 Y32.690709 Z0.000000
G01 X97.746451 Y28.689917 Z0.000000
G01 X98.960094 Y27.472642 Z0.000000
G01 X100.174254 Y26.255363 Z0.000000
G01 X103.898555 Y26.255346 Z0.000000
G03 X107.581619 Y26.358502 Z0.000000 I0.000303 J65.790673
G03 X107.858963 Y26.477450 Z0.000000 I-0.024689 J0.440373
G03 X108.053256 Y26.893430 Z0.000000 I-0.424100 J0.451451
G03 X107.909706 Y27.358691 Z0.000000 I-0.696305 J0.039940
G03 X107.674771 Y27.486302 Z0.000000 I-0.261359 J-0.201103
G03 X104.259963 Y27.651765 Z0.000000 I-4.308564 J-53.599790
G01 X100.790402 Y27.709254 Z0.000000
G01 X99.947999 Y28.538203 Z0.000000
G01 X99.105076 Y29.366635 Z0.000000
G01 X99.105095 Y33.520685 Z0.000000
G01 X99.105114 Y37.674217 Z0.000000
G01 X98.849856 Y37.841458 Z0.000000
G03 X98.572053 Y37.934874 Z0.000000 I-0.317061 J-0.483102
G03 X95.504046 Y38.069517 Z0.000000 I-4.323119 J-63.486079
G01 X92.413489 Y38.130629 Z0.000000
G01 X91.415239 Y39.114393 Z0.000000
G01 X90.417505 Y40.098673 Z0.000000
G01 X86.511465 Y40.131828 Z0.000000
G01 X82.605427 Y40.164984 Z0.000000
G01 X81.753183 Y41.000147 Z0.000000
G01 X80.900942 Y41.835829 Z0.000000
G01 X80.958419 Y42.625940 Z0.000000
G02 X81.062227 Y43.403533 Z0.000000 I6.489270 J-0.470587
G02 X81.172262 Y43.719464 Z0.000000 I1.159101 J-0.226572
G03 X81.306897 Y44.288152 Z0.000000 I-1.070889 J0.553811
G03 X81.158297 Y44.879784 Z0.000000 I-1.316739 J-0.016249
G02 X81.057584 Y45.224550 Z0.000000 I0.819557 J0.426502
G02 X80.940846 Y47.323129 Z0.000000 I31.712794 J2.816624
G03 X80.804841 Y49.399445 Z0.000000 I-24.279494 J-0.547774
G03 X80.691292 Y49.622020 Z0.000000 I-0.349343 J-0.037969
G03 X80.458699 Y49.723579 Z0.000000 I-0.267548 J-0.295618
G03 X78.621258 Y49.804283 Z0.000000 I-1.837537 J-20.878907
G01 X78.621248 Y49.804098 Z0.000000
G00 Z2.000000

(End cutting path id: path46563)


(Start cutting path id: path46563)
(Change tool to Default tool)

G00 Z2.000000
G00 X78.621248 Y49.804098

G01 Z0.000000 F100.0(Penetrate)
G03 X76.786223 Y49.717091 Z0.000000 I-0.000089 J-19.392556 F400.000000
G03 X76.532571 Y49.605285 Z0.000000 I0.041640 J-0.438097
G03 X76.383504 Y49.378154 Z0.000000 I0.362129 J-0.400149
G03 X76.343066 Y49.045578 Z0.000000 I0.778108 J-0.263356
G03 X76.630114 Y48.683734 Z0.000000 I0.415951 J0.035191
G03 X78.250519 Y48.426319 Z0.000000 I1.626496 J5.009784
G01 X79.616392 Y48.424722 Z0.000000
G01 X79.572373 Y46.815501 Z0.000000
G02 X79.461968 Y45.224001 Z0.000000 I-18.977548 J0.516928
G02 X79.355936 Y44.879569 Z0.000000 I-0.961463 J0.107445
G03 X79.207471 Y44.289203 Z0.000000 I1.134148 J-0.599067
G03 X79.348163 Y43.702165 Z0.000000 I1.259407 J-0.008543
G02 X79.457254 Y43.367737 Z0.000000 I-0.969073 J-0.501118
G02 X79.564065 Y42.302637 Z0.000000 I-9.902054 J-1.530914
G01 X79.614283 Y41.222056 Z0.000000
G01 X80.852779 Y39.970607 Z0.000000
G01 X82.091792 Y38.719157 Z0.000000
G01 X85.933626 Y38.719139 Z0.000000
G01 X89.775983 Y38.719122 Z0.000000
G01 X90.415940 Y38.052233 Z0.000000
G02 X90.951140 Y37.363856 Z0.000000 I-3.021724 J-2.901581
G02 X90.971499 Y37.158564 Z0.000000 I-0.198174 J-0.123308
G03 X90.926186 Y36.924146 Z0.000000 I0.668601 J-0.250830
G03 X90.856013 Y32.130005 Z0.000000 I287.108269 J-6.600049
G01 X90.825961 Y27.328228 Z0.000000
G01 X89.935915 Y26.434046 Z0.000000
G01 X89.046385 Y25.540382 Z0.000000
G01 X83.804507 Y25.540406 Z0.000000
G01 X78.562626 Y25.540430 Z0.000000
G01 X78.632014 Y26.858150 Z0.000000
G01 X78.701918 Y28.176385 Z0.000000
G01 X78.436305 Y28.442003 Z0.000000
G03 X77.906016 Y28.661325 Z0.000000 I-0.529409 J-0.529293
G03 X77.374880 Y28.440947 Z0.000000 I0.000884 J-0.752369
G01 X77.108746 Y28.174815 Z0.000000
G01 X77.174495 Y26.506569 Z0.000000
G03 X77.420401 Y24.511162 Z0.000000 I12.086262 J0.476607
G03 X77.639441 Y24.279648 Z0.000000 I0.297523 J0.062116
G01 X77.639441 Y24.280179 Z0.000000
G03 X77.806800 Y24.257432 Z0.000000 I0.173495 J0.649433
G03 X83.779129 Y24.224231 Z0.000000 I7.636115 J836.440554
G01 X89.754167 Y24.212300 Z0.000000
G01 X90.955913 Y25.410926 Z0.000000
G01 X92.157657 Y26.610071 Z0.000000
G01 X92.157673 Y30.094130 Z0.000000
G02 X92.259669 Y36.111811 Z0.000000 I177.618679 J-0.000817
G02 X92.374130 Y36.490632 Z0.000000 I0.770568 J-0.026125
G02 X92.492652 Y36.561723 Z0.000000 I0.127948 J-0.078971
G02 X95.051508 Y36.658376 Z0.000000 I3.213744 J-51.161734
G01 X97.646042 Y36.691501 Z0.000000
G01 X97.696246 Y32.690709 Z0.000000
G01 X97.746451 Y28.689917 Z0.000000
G01 X98.960094 Y27.472642 Z0.000000
G01 X100.174254 Y26.255363 Z0.000000
G01 X103.898555 Y26.255346 Z0.000000
G03 X107.581619 Y26.358502 Z0.000000 I0.000303 J65.790673
G03 X107.858963 Y26.477450 Z0.000000 I-0.024689 J0.440373
G03 X108.053256 Y26.893430 Z0.000000 I-0.424100 J0.451451
G03 X107.909706 Y27.358691 Z0.000000 I-0.696305 J0.039940
G03 X107.674771 Y27.486302 Z0.000000 I-0.261359 J-0.201103
G03 X104.259963 Y27.651765 Z0.000000 I-4.308564 J-53.599790
G01 X100.790402 Y27.709254 Z0.000000
G01 X99.947999 Y28.538203 Z0.000000
G01 X99.105076 Y29.366635 Z0.000000
G01 X99.105095 Y33.520685 Z0.000000
G01 X99.105114 Y37.674217 Z0.000000
G01 X98.849856 Y37.841458 Z0.000000
G03 X98.572053 Y37.934874 Z0.000000 I-0.317061 J-0.483102
G03 X95.504046 Y38.069517 Z0.000000 I-4.323119 J-63.486079
G01 X92.413489 Y38.130629 Z0.000000
G01 X91.415239 Y39.114393 Z0.000000
G01 X90.417505 Y40.098673 Z0.000000
G01 X86.511465 Y40.131828 Z0.000000
G01 X82.605427 Y40.164984 Z0.000000
G01 X81.753183 Y41.000147 Z0.000000
G01 X80.900942 Y41.835829 Z0.000000
G01 X80.958419 Y42.625940 Z0.000000
G02 X81.062227 Y43.403533 Z0.000000 I6.489270 J-0.470587
G02 X81.172262 Y43.719464 Z0.000000 I1.159101 J-0.226572
G03 X81.306897 Y44.288152 Z0.000000 I-1.070889 J0.553811
G03 X81.158297 Y44.879784 Z0.000000 I-1.316739 J-0.016249
G02 X81.057584 Y45.224550 Z0.000000 I0.819557 J0.426502
G02 X80.940846 Y47.323129 Z0.000000 I31.712794 J2.816624
G03 X80.804841 Y49.399445 Z0.000000 I-24.279494 J-0.547774
G03 X80.691292 Y49.622020 Z0.000000 I-0.349343 J-0.037969
G03 X80.458699 Y49.723579 Z0.000000 I-0.267548 J-0.295618
G03 X78.621258 Y49.804283 Z0.000000 I-1.837537 J-20.878907
G01 X78.621248 Y49.804098 Z0.000000
G00 Z2.000000

(End cutting path id: path46563)


(Start cutting path id: path46563)
(Change tool to Default tool)

G00 Z2.000000
G00 X77.673195 Y45.282967

G01 Z0.000000 F100.0(Penetrate)
G03 X77.431500 Y45.301155 Z0.000000 I-0.195734 J-0.986071 F400.000000
G03 X77.183905 Y45.255529 Z0.000000 I0.042293 J-0.924130
G03 X76.463376 Y44.369646 Z0.000000 I0.332001 J-1.005992
G03 X76.957630 Y43.271960 Z0.000000 I1.169624 J-0.133470
G03 X78.002056 Y43.234158 Z0.000000 I0.551390 J0.787216
G03 X78.570480 Y44.236037 Z0.000000 I-0.598732 J1.001884
G03 X78.300977 Y44.929560 Z0.000000 I-1.027076 J0.000005
G03 X77.673195 Y45.282967 Z0.000000 I-0.852910 J-0.780795
G01 X77.673195 Y45.282967 Z0.000000
G00 Z2.000000

(End cutting path id: path46563)


(Start cutting path id: path46563)
(Change tool to Default tool)

G00 Z2.000000
G00 X77.673195 Y45.282967

G01 Z0.000000 F100.0(Penetrate)
G03 X77.431500 Y45.301155 Z0.000000 I-0.195734 J-0.986071 F400.000000
G03 X77.183905 Y45.255529 Z0.000000 I0.042293 J-0.924130
G03 X76.463376 Y44.369646 Z0.000000 I0.332001 J-1.005992
G03 X76.957630 Y43.271960 Z0.000000 I1.169624 J-0.133470
G03 X78.002056 Y43.234158 Z0.000000 I0.551390 J0.787216
G03 X78.570480 Y44.236037 Z0.000000 I-0.598732 J1.001884
G03 X78.300977 Y44.929560 Z0.000000 I-1.027076 J0.000005
G03 X77.673195 Y45.282967 Z0.000000 I-0.852910 J-0.780795
G01 X77.673195 Y45.282967 Z0.000000
G00 Z2.000000

(End cutting path id: path46563)


(Start cutting path id: path46563)
(Change tool to Default tool)

G00 Z2.000000
G00 X70.908043 Y45.462146

G01 Z0.000000 F100.0(Penetrate)
G01 X70.908038 Y44.287331 Z0.000000 F400.000000
G01 X70.908032 Y43.112516 Z0.000000
G01 X71.925963 Y43.112512 Z0.000000
G03 X72.889856 Y43.203466 Z0.000000 I0.000024 J5.152709
G03 X73.059874 Y43.328415 Z0.000000 I-0.045786 J0.240447
G02 X73.218220 Y43.457538 Z0.000000 I0.233898 J-0.125179
G02 X73.572466 Y43.480636 Z0.000000 I0.227892 J-0.767065
G02 X73.961778 Y43.389963 Z0.000000 I-0.449640 J-2.811664
G02 X74.318568 Y43.250746 Z0.000000 I-0.774147 J-2.510813
G03 X74.907487 Y43.173965 Z0.000000 I0.412144 J0.864261
G03 X75.459212 Y43.465096 Z0.000000 I-0.194955 J1.037818
G03 X75.776074 Y44.247099 Z0.000000 I-0.765294 J0.765288
G03 X75.435414 Y45.011150 Z0.000000 I-1.064018 J-0.016435
G03 X74.914015 Y45.234946 Z0.000000 I-0.575057 J-0.620489
G03 X73.972720 Y45.104354 Z0.000000 I-0.150711 J-2.371367
G02 X73.264941 Y44.999756 Z0.000000 I-0.622267 J1.763725
G02 X73.085785 Y45.144746 Z0.000000 I0.008887 J0.194163
G03 X72.897694 Y45.326084 Z0.000000 I-0.242630 J-0.063448
G03 X71.661407 Y45.462142 Z0.000000 I-1.236314 J-5.548945
G01 X70.908043 Y45.462146 Z0.000000
G00 Z2.000000

(End cutting path id: path46563)


(Start cutting path id: path46563)
(Change tool to Default tool)

G00 Z2.000000
G00 X70.908043 Y45.462146

G01 Z0.000000 F100.0(Penetrate)
G01 X70.908038 Y44.287331 Z0.000000 F400.000000
G01 X70.908032 Y43.112516 Z0.000000
G01 X71.925963 Y43.112512 Z0.000000
G03 X72.889856 Y43.203466 Z0.000000 I0.000024 J5.152709
G03 X73.059874 Y43.328415 Z0.000000 I-0.045786 J0.240447
G02 X73.218220 Y43.457538 Z0.000000 I0.233898 J-0.125179
G02 X73.572466 Y43.480636 Z0.000000 I0.227892 J-0.767065
G02 X73.961778 Y43.389963 Z0.000000 I-0.449640 J-2.811664
G02 X74.318568 Y43.250746 Z0.000000 I-0.774147 J-2.510813
G03 X74.907487 Y43.173965 Z0.000000 I0.412144 J0.864261
G03 X75.459212 Y43.465096 Z0.000000 I-0.194955 J1.037818
G03 X75.776074 Y44.247099 Z0.000000 I-0.765294 J0.765288
G03 X75.435414 Y45.011150 Z0.000000 I-1.064018 J-0.016435
G03 X74.914015 Y45.234946 Z0.000000 I-0.575057 J-0.620489
G03 X73.972720 Y45.104354 Z0.000000 I-0.150711 J-2.371367
G02 X73.264941 Y44.999756 Z0.000000 I-0.622267 J1.763725
G02 X73.085785 Y45.144746 Z0.000000 I0.008887 J0.194163
G03 X72.897694 Y45.326084 Z0.000000 I-0.242630 J-0.063448
G03 X71.661407 Y45.462142 Z0.000000 I-1.236314 J-5.548945
G01 X70.908043 Y45.462146 Z0.000000
G00 Z2.000000

(End cutting path id: path46563)


(Start cutting path id: path46563)
(Change tool to Default tool)

G00 Z2.000000
G00 X74.773657 Y36.977066

G01 Z0.000000 F100.0(Penetrate)
G03 X74.422718 Y36.960450 Z0.000000 I-0.121961 J-1.138457 F400.000000
G03 X74.075187 Y36.829505 Z0.000000 I0.234556 J-1.149169
G02 X73.807801 Y36.728742 Z0.000000 I-0.448032 J0.783753
G02 X73.360151 Y36.683498 Z0.000000 I-0.447640 J2.191831
G02 X72.912175 Y36.728716 Z0.000000 I0.000010 J2.241807
G02 X72.644596 Y36.829512 Z0.000000 I0.180361 J0.884358
G03 X71.976781 Y37.005038 Z0.000000 I-0.660771 J-1.155837
G03 X71.371923 Y36.822784 Z0.000000 I0.005896 J-1.114386
G03 X71.048651 Y36.443020 Z0.000000 I0.485166 J-0.740469
G03 X70.907999 Y35.782591 Z0.000000 I1.480221 J-0.660437
G03 X70.968689 Y35.557246 Z0.000000 I0.448689 J-0.000002
G03 X71.255416 Y35.184567 Z0.000000 I1.572970 J0.913552
G03 X71.806159 Y34.928256 Z0.000000 I0.626653 J0.626651
G03 X72.762121 Y35.055119 Z0.000000 I0.191223 J2.224265
G01 X73.360144 Y35.273097 Z0.000000
G01 X73.957645 Y35.055113 Z0.000000
G03 X74.895701 Y34.915739 Z0.000000 I0.809058 J2.218876
G03 X75.427071 Y35.135359 Z0.000000 I-0.047449 J0.867435
G03 X75.670653 Y35.473717 Z0.000000 I-0.643230 J0.719915
G03 X75.760516 Y35.909939 Z0.000000 I-1.013876 J0.436228
G03 X75.670658 Y36.346160 Z0.000000 I-1.103703 J0.000012
G03 X75.427078 Y36.684520 Z0.000000 I-0.886824 J-0.381557
G03 X75.113144 Y36.886545 Z0.000000 I-0.793357 J-0.887898
G03 X74.773657 Y36.977063 Z0.000000 I-0.461640 J-1.049495
